; generated by PrusaSlicer 2.5.0+win64 on 2023-01-20 at 10:13:48 UTC


;
;

;
;
; 

; external perimeters extrusion width = 0.40mm
; perimeters extrusion width = 0.40mm
; infill extrusion width = 0.40mm
; solid infill extrusion width = 0.40mm
; top infill extrusion width = 0.40mm
; first layer extrusion width = 0.40mm

M107
;TYPE:Custom
;E7 Klipper start macro
M104 S0
M140 S0
PRINT_START EXTRUDER_TEMP=210 BED_TEMP=60
G21 ; set units to millimeters
G90 ; use absolute coordinates
M83 ; use relative distances for extrusion
; Filament gcode
M107
;LAYER_CHANGE
;Z:0.2
;HEIGHT:0.2
;BEFORE_LAYER_CHANGE
G92 E0
;0.2


G1 E-5 F3600
G1 Z.2 F9000
;AFTER_LAYER_CHANGE
;0.2
G1 Z.6
G1 X98.127 Y97.214
G1 Z.2
G1 E5 F2400
M204 S500
;TYPE:Skirt/Brim
;WIDTH:0.4
G1 F1200
G1 X100 Y96.643 E.05815
G1 X150 Y96.643 E1.48456
G1 X151.578 Y97.037 E.04829
G1 X152.786 Y98.127 E.04829
G1 X153.357 Y100 E.05815
G1 X153.357 Y150 E1.48456
G1 X152.963 Y151.578 E.04829
G1 X151.873 Y152.786 E.04829
G1 X150 Y153.357 E.05815
G1 X100 Y153.357 E1.48456
G1 X98.422 Y152.963 E.04829
G1 X97.214 Y151.873 E.04829
G1 X96.643 Y150 E.05815
G1 X96.643 Y100 E1.48456
G1 X97.037 Y98.422 E.04829
G1 X98.086 Y97.259 E.04651
; printing object 20200120_Flow_Calibration_Solid.stl id:0 copy 0
G1 E-3.5 F3600
;WIPE_START
G1 F7200
G1 X100 Y96.643 E-.95488
G1 X100.99 Y96.643 E-.47012
;WIPE_END
G1 E-.075 F3600
G1 Z.6 F9000
G1 X100.3 Y100.3
G1 Z.2
G1 E5 F2400
;TYPE:External perimeter
;WIDTH:0.399999
G1 F1200
G1 X149.7 Y100.3 E1.46675
G1 X149.7 Y149.7 E1.46675
G1 X100.3 Y149.7 E1.46675
G1 X100.3 Y100.36 E1.46497
G1 E-3.5 F3600
;WIPE_START
G1 F7200
G1 X103.3 Y100.356 E-1.425
;WIPE_END
G1 E-.075 F3600
G1 Z.6 F9000
G1 X148.86 Y100.414
G1 Z.2
G1 E5 F2400
;TYPE:Solid infill
;WIDTH:0.401628
G1 F1200
G1 X149.425 Y100.979 E.02382
G1 X149.425 Y101.486 E.01513
G1 X148.514 Y100.575 E.03844
G1 X148.007 Y100.575 E.01513
G1 X149.425 Y101.993 E.05983
G1 X149.425 Y102.501 E.01513
G1 X147.499 Y100.575 E.08123
G1 X146.992 Y100.575 E.01513
G1 X149.425 Y103.008 E.10263
G1 X149.425 Y103.515 E.01513
G1 X146.485 Y100.575 E.12403
G1 X145.977 Y100.575 E.01513
G1 X149.425 Y104.023 E.14543
G1 X149.425 Y104.53 E.01513
G1 X145.47 Y100.575 E.16683
G1 X144.963 Y100.575 E.01513
G1 X149.425 Y105.037 E.18822
G1 X149.425 Y105.544 E.01513
G1 X144.456 Y100.575 E.20962
G1 X143.948 Y100.575 E.01513
G1 X149.425 Y106.052 E.23102
G1 X149.425 Y106.559 E.01513
G1 X143.441 Y100.575 E.25242
G1 X142.934 Y100.575 E.01513
G1 X149.425 Y107.066 E.27382
G1 X149.425 Y107.574 E.01513
G1 X142.426 Y100.575 E.29521
G1 X141.919 Y100.575 E.01513
G1 X149.425 Y108.081 E.31661
G1 X149.425 Y108.588 E.01513
G1 X141.412 Y100.575 E.33801
G1 X140.904 Y100.575 E.01513
G1 X149.425 Y109.096 E.35941
G1 X149.425 Y109.603 E.01513
G1 X140.397 Y100.575 E.38081
G1 X139.89 Y100.575 E.01513
G1 X149.425 Y110.11 E.4022
G1 X149.425 Y110.617 E.01513
G1 X139.383 Y100.575 E.4236
G1 X138.875 Y100.575 E.01513
G1 X149.425 Y111.125 E.445
G1 X149.425 Y111.632 E.01513
G1 X138.368 Y100.575 E.4664
G1 X137.861 Y100.575 E.01513
G1 X149.425 Y112.139 E.4878
G1 X149.425 Y112.647 E.01513
G1 X137.353 Y100.575 E.5092
G1 X136.846 Y100.575 E.01513
G1 X149.425 Y113.154 E.53059
G1 X149.425 Y113.661 E.01513
G1 X136.339 Y100.575 E.55199
G1 X135.832 Y100.575 E.01513
G1 X149.425 Y114.168 E.57339
G1 X149.425 Y114.676 E.01513
G1 X135.324 Y100.575 E.59479
G1 X134.817 Y100.575 E.01513
G1 X149.425 Y115.183 E.61619
G1 X149.425 Y115.69 E.01513
G1 X134.31 Y100.575 E.63758
G1 X133.802 Y100.575 E.01513
G1 X149.425 Y116.198 E.65898
G1 X149.425 Y116.705 E.01513
G1 X133.295 Y100.575 E.68038
G1 X132.788 Y100.575 E.01513
G1 X149.425 Y117.212 E.70178
G1 X149.425 Y117.719 E.01513
G1 X132.281 Y100.575 E.72318
G1 X131.773 Y100.575 E.01513
G1 X149.425 Y118.227 E.74458
G1 X149.425 Y118.734 E.01513
G1 X131.266 Y100.575 E.76597
G1 X130.759 Y100.575 E.01513
G1 X149.425 Y119.241 E.78737
G1 X149.425 Y119.749 E.01513
G1 X130.251 Y100.575 E.80877
G1 X129.744 Y100.575 E.01513
G1 X149.425 Y120.256 E.83017
G1 X149.425 Y120.763 E.01513
G1 X129.237 Y100.575 E.85157
G1 X128.73 Y100.575 E.01513
G1 X149.425 Y121.27 E.87296
G1 X149.425 Y121.778 E.01513
G1 X128.222 Y100.575 E.89436
G1 X127.715 Y100.575 E.01513
G1 X149.425 Y122.285 E.91576
G1 X149.425 Y122.792 E.01513
G1 X127.208 Y100.575 E.93716
G1 X126.7 Y100.575 E.01513
G1 X149.425 Y123.3 E.95856
G1 X149.425 Y123.807 E.01513
G1 X126.193 Y100.575 E.97995
G1 X125.686 Y100.575 E.01513
G1 X149.425 Y124.314 E1.00135
G1 X149.425 Y124.821 E.01513
G1 X125.179 Y100.575 E1.02275
G1 X124.671 Y100.575 E.01513
G1 X149.425 Y125.329 E1.04415
G1 X149.425 Y125.836 E.01513
G1 X124.164 Y100.575 E1.06555
G1 X123.657 Y100.575 E.01513
G1 X149.425 Y126.343 E1.08695
G1 X149.425 Y126.851 E.01513
G1 X123.149 Y100.575 E1.10834
G1 X122.642 Y100.575 E.01513
G1 X149.425 Y127.358 E1.12974
G1 X149.425 Y127.865 E.01513
G1 X122.135 Y100.575 E1.15114
G1 X121.627 Y100.575 E.01513
G1 X149.425 Y128.373 E1.17254
G1 X149.425 Y128.88 E.01513
G1 X121.12 Y100.575 E1.19394
G1 X120.613 Y100.575 E.01513
G1 X149.425 Y129.387 E1.21533
G1 X149.425 Y129.894 E.01513
G1 X120.106 Y100.575 E1.23673
G1 X119.598 Y100.575 E.01513
G1 X149.425 Y130.402 E1.25813
G1 X149.425 Y130.909 E.01513
G1 X119.091 Y100.575 E1.27953
G1 X118.584 Y100.575 E.01513
G1 X149.425 Y131.416 E1.30093
G1 X149.425 Y131.924 E.01513
G1 X118.076 Y100.575 E1.32233
G1 X117.569 Y100.575 E.01513
G1 X149.425 Y132.431 E1.34372
G1 X149.425 Y132.938 E.01513
G1 X117.062 Y100.575 E1.36512
G1 X116.555 Y100.575 E.01513
G1 X149.425 Y133.445 E1.38652
G1 X149.425 Y133.953 E.01513
G1 X116.047 Y100.575 E1.40792
G1 X115.54 Y100.575 E.01513
G1 X149.425 Y134.46 E1.42932
G1 X149.425 Y134.967 E.01513
G1 X115.033 Y100.575 E1.45071
G1 X114.525 Y100.575 E.01513
G1 X149.425 Y135.475 E1.47211
G1 X149.425 Y135.982 E.01513
G1 X114.018 Y100.575 E1.49351
G1 X113.511 Y100.575 E.01513
G1 X149.425 Y136.489 E1.51491
G1 X149.425 Y136.996 E.01513
G1 X113.004 Y100.575 E1.53631
G1 X112.496 Y100.575 E.01513
G1 X149.425 Y137.504 E1.5577
G1 X149.425 Y138.011 E.01513
G1 X111.989 Y100.575 E1.5791
G1 X111.482 Y100.575 E.01513
G1 X149.425 Y138.518 E1.6005
G1 X149.425 Y139.026 E.01513
G1 X110.974 Y100.575 E1.6219
G1 X110.467 Y100.575 E.01513
G1 X149.425 Y139.533 E1.6433
G1 X149.425 Y140.04 E.01513
G1 X109.96 Y100.575 E1.6647
G1 X109.453 Y100.575 E.01513
G1 X149.425 Y140.547 E1.68609
G1 X149.425 Y141.055 E.01513
G1 X108.945 Y100.575 E1.70749
G1 X108.438 Y100.575 E.01513
G1 X149.425 Y141.562 E1.72889
G1 X149.425 Y142.069 E.01513
G1 X107.931 Y100.575 E1.75029
G1 X107.423 Y100.575 E.01513
G1 X149.425 Y142.577 E1.77169
G1 X149.425 Y143.084 E.01513
G1 X106.916 Y100.575 E1.79308
G1 X106.409 Y100.575 E.01513
G1 X149.425 Y143.591 E1.81448
G1 X149.425 Y144.098 E.01513
G1 X105.902 Y100.575 E1.83588
G1 X105.394 Y100.575 E.01513
G1 X149.425 Y144.606 E1.85728
G1 X149.425 Y145.113 E.01513
G1 X104.887 Y100.575 E1.87868
G1 X104.38 Y100.575 E.01513
G1 X149.425 Y145.62 E1.90008
G1 X149.425 Y146.128 E.01513
G1 X103.872 Y100.575 E1.92147
G1 X103.365 Y100.575 E.01513
G1 X149.425 Y146.635 E1.94287
G1 X149.425 Y147.142 E.01513
G1 X102.858 Y100.575 E1.96427
G1 X102.35 Y100.575 E.01513
G1 X149.425 Y147.65 E1.98567
G1 X149.425 Y148.157 E.01513
G1 X101.843 Y100.575 E2.00707
G1 X101.336 Y100.575 E.01513
G1 X149.425 Y148.664 E2.02846
G1 X149.425 Y149.171 E.01513
G1 X100.829 Y100.575 E2.04986
G1 X100.575 Y100.575 E.00757
G1 X100.575 Y100.829 E.00756
G1 X149.171 Y149.425 E2.04986
G1 X148.664 Y149.425 E.01513
G1 X100.575 Y101.336 E2.02847
G1 X100.575 Y101.843 E.01513
G1 X148.157 Y149.425 E2.00707
G1 X147.65 Y149.425 E.01513
G1 X100.575 Y102.35 E1.98567
G1 X100.575 Y102.858 E.01513
G1 X147.142 Y149.425 E1.96427
G1 X146.635 Y149.425 E.01513
G1 X100.575 Y103.365 E1.94287
G1 X100.575 Y103.872 E.01513
G1 X146.128 Y149.425 E1.92148
G1 X145.62 Y149.425 E.01513
G1 X100.575 Y104.38 E1.90008
G1 X100.575 Y104.887 E.01513
G1 X145.113 Y149.425 E1.87868
G1 X144.606 Y149.425 E.01513
G1 X100.575 Y105.394 E1.85728
G1 X100.575 Y105.901 E.01513
G1 X144.099 Y149.425 E1.83588
G1 X143.591 Y149.425 E.01513
G1 X100.575 Y106.409 E1.81448
G1 X100.575 Y106.916 E.01513
G1 X143.084 Y149.425 E1.79309
G1 X142.577 Y149.425 E.01513
G1 X100.575 Y107.423 E1.77169
G1 X100.575 Y107.931 E.01513
G1 X142.069 Y149.425 E1.75029
G1 X141.562 Y149.425 E.01513
G1 X100.575 Y108.438 E1.72889
G1 X100.575 Y108.945 E.01513
G1 X141.055 Y149.425 E1.70749
G1 X140.548 Y149.425 E.01513
G1 X100.575 Y109.452 E1.6861
G1 X100.575 Y109.96 E.01513
G1 X140.04 Y149.425 E1.6647
G1 X139.533 Y149.425 E.01513
G1 X100.575 Y110.467 E1.6433
G1 X100.575 Y110.974 E.01513
G1 X139.026 Y149.425 E1.6219
G1 X138.518 Y149.425 E.01513
G1 X100.575 Y111.482 E1.6005
G1 X100.575 Y111.989 E.01513
G1 X138.011 Y149.425 E1.57911
G1 X137.504 Y149.425 E.01513
G1 X100.575 Y112.496 E1.55771
G1 X100.575 Y113.004 E.01513
G1 X136.996 Y149.425 E1.53631
G1 X136.489 Y149.425 E.01513
G1 X100.575 Y113.511 E1.51491
G1 X100.575 Y114.018 E.01513
G1 X135.982 Y149.425 E1.49351
G1 X135.475 Y149.425 E.01513
G1 X100.575 Y114.525 E1.47211
G1 X100.575 Y115.033 E.01513
G1 X134.967 Y149.425 E1.45072
G1 X134.46 Y149.425 E.01513
G1 X100.575 Y115.54 E1.42932
G1 X100.575 Y116.047 E.01513
G1 X133.953 Y149.425 E1.40792
G1 X133.445 Y149.425 E.01513
G1 X100.575 Y116.555 E1.38652
G1 X100.575 Y117.062 E.01513
G1 X132.938 Y149.425 E1.36512
G1 X132.431 Y149.425 E.01513
G1 X100.575 Y117.569 E1.34373
G1 X100.575 Y118.076 E.01513
G1 X131.924 Y149.425 E1.32233
G1 X131.416 Y149.425 E.01513
G1 X100.575 Y118.584 E1.30093
G1 X100.575 Y119.091 E.01513
G1 X130.909 Y149.425 E1.27953
G1 X130.402 Y149.425 E.01513
G1 X100.575 Y119.598 E1.25813
G1 X100.575 Y120.106 E.01513
G1 X129.894 Y149.425 E1.23673
G1 X129.387 Y149.425 E.01513
G1 X100.575 Y120.613 E1.21534
G1 X100.575 Y121.12 E.01513
G1 X128.88 Y149.425 E1.19394
G1 X128.373 Y149.425 E.01513
G1 X100.575 Y121.627 E1.17254
G1 X100.575 Y122.135 E.01513
G1 X127.865 Y149.425 E1.15114
G1 X127.358 Y149.425 E.01513
G1 X100.575 Y122.642 E1.12974
G1 X100.575 Y123.149 E.01513
G1 X126.851 Y149.425 E1.10835
G1 X126.343 Y149.425 E.01513
G1 X100.575 Y123.657 E1.08695
G1 X100.575 Y124.164 E.01513
G1 X125.836 Y149.425 E1.06555
G1 X125.329 Y149.425 E.01513
G1 X100.575 Y124.671 E1.04415
G1 X100.575 Y125.178 E.01513
G1 X124.822 Y149.425 E1.02275
G1 X124.314 Y149.425 E.01513
G1 X100.575 Y125.686 E1.00136
G1 X100.575 Y126.193 E.01513
G1 X123.807 Y149.425 E.97996
G1 X123.3 Y149.425 E.01513
G1 X100.575 Y126.7 E.95856
G1 X100.575 Y127.208 E.01513
G1 X122.792 Y149.425 E.93716
G1 X122.285 Y149.425 E.01513
G1 X100.575 Y127.715 E.91576
G1 X100.575 Y128.222 E.01513
G1 X121.778 Y149.425 E.89436
G1 X121.271 Y149.425 E.01513
G1 X100.575 Y128.729 E.87297
G1 X100.575 Y129.237 E.01513
G1 X120.763 Y149.425 E.85157
G1 X120.256 Y149.425 E.01513
G1 X100.575 Y129.744 E.83017
G1 X100.575 Y130.251 E.01513
G1 X119.749 Y149.425 E.80877
G1 X119.241 Y149.425 E.01513
G1 X100.575 Y130.759 E.78737
G1 X100.575 Y131.266 E.01513
G1 X118.734 Y149.425 E.76598
G1 X118.227 Y149.425 E.01513
G1 X100.575 Y131.773 E.74458
G1 X100.575 Y132.281 E.01513
G1 X117.719 Y149.425 E.72318
G1 X117.212 Y149.425 E.01513
G1 X100.575 Y132.788 E.70178
G1 X100.575 Y133.295 E.01513
G1 X116.705 Y149.425 E.68038
G1 X116.198 Y149.425 E.01513
G1 X100.575 Y133.802 E.65898
G1 X100.575 Y134.31 E.01513
G1 X115.69 Y149.425 E.63759
G1 X115.183 Y149.425 E.01513
G1 X100.575 Y134.817 E.61619
G1 X100.575 Y135.324 E.01513
G1 X114.676 Y149.425 E.59479
G1 X114.168 Y149.425 E.01513
G1 X100.575 Y135.832 E.57339
G1 X100.575 Y136.339 E.01513
G1 X113.661 Y149.425 E.55199
G1 X113.154 Y149.425 E.01513
G1 X100.575 Y136.846 E.5306
G1 X100.575 Y137.353 E.01513
G1 X112.647 Y149.425 E.5092
G1 X112.139 Y149.425 E.01513
G1 X100.575 Y137.861 E.4878
G1 X100.575 Y138.368 E.01513
G1 X111.632 Y149.425 E.4664
G1 X111.125 Y149.425 E.01513
G1 X100.575 Y138.875 E.445
G1 X100.575 Y139.383 E.01513
G1 X110.617 Y149.425 E.42361
G1 X110.11 Y149.425 E.01513
G1 X100.575 Y139.89 E.40221
G1 X100.575 Y140.397 E.01513
G1 X109.603 Y149.425 E.38081
G1 X109.096 Y149.425 E.01513
G1 X100.575 Y140.904 E.35941
G1 X100.575 Y141.412 E.01513
G1 X108.588 Y149.425 E.33801
G1 X108.081 Y149.425 E.01513
G1 X100.575 Y141.919 E.31661
G1 X100.575 Y142.426 E.01513
G1 X107.574 Y149.425 E.29522
G1 X107.066 Y149.425 E.01513
G1 X100.575 Y142.934 E.27382
G1 X100.575 Y143.441 E.01513
G1 X106.559 Y149.425 E.25242
G1 X106.052 Y149.425 E.01513
G1 X100.575 Y143.948 E.23102
G1 X100.575 Y144.455 E.01513
G1 X105.545 Y149.425 E.20962
G1 X105.037 Y149.425 E.01513
G1 X100.575 Y144.963 E.18823
G1 X100.575 Y145.47 E.01513
G1 X104.53 Y149.425 E.16683
G1 X104.023 Y149.425 E.01513
G1 X100.575 Y145.977 E.14543
G1 X100.575 Y146.485 E.01513
G1 X103.515 Y149.425 E.12403
G1 X103.008 Y149.425 E.01513
G1 X100.575 Y146.992 E.10263
G1 X100.575 Y147.499 E.01513
G1 X102.501 Y149.425 E.08124
G1 X101.994 Y149.425 E.01513
G1 X100.575 Y148.006 E.05984
G1 X100.575 Y148.514 E.01513
G1 X101.486 Y149.425 E.03844
G1 X100.979 Y149.425 E.01513
G1 X100.414 Y148.86 E.02382
; stop printing object 20200120_Flow_Calibration_Solid.stl id:0 copy 0
M106 S255
;LAYER_CHANGE
;Z:0.4
;HEIGHT:0.2
;BEFORE_LAYER_CHANGE
G92 E0
;0.4


G1 E-3.5 F3600
;WIPE_START
G1 F7200
G1 X100.979 Y149.425 E-.37932
G1 X101.486 Y149.425 E-.24096
G1 X100.575 Y148.514 E-.61215
G1 X100.575 Y148.108 E-.19257
;WIPE_END
G1 E-.075 F3600
G1 Z.6 F9000
;AFTER_LAYER_CHANGE
;0.4
M104 S205 ; set temperature
M140 S60 ; set bed temperature
G1 X96.643 Y148.108
G1 Z.4
G1 E5 F2400
;TYPE:Skirt/Brim
;WIDTH:0.4
G1 X96.643 Y100 E1.4284
G1 X97.037 Y98.422 E.04829
G1 X98.127 Y97.214 E.04829
G1 X100 Y96.643 E.05815
G1 X150 Y96.643 E1.48456
G1 X151.578 Y97.037 E.04829
G1 X152.786 Y98.127 E.04829
G1 X153.357 Y100 E.05815
G1 X153.357 Y150 E1.48456
G1 X152.963 Y151.578 E.04829
G1 X151.873 Y152.786 E.04829
G1 X150 Y153.357 E.05815
G1 X100 Y153.357 E1.48456
G1 X98.422 Y152.963 E.04829
G1 X97.214 Y151.873 E.04829
G1 X96.643 Y150 E.05815
G1 X96.643 Y148.168 E.05438
; printing object 20200120_Flow_Calibration_Solid.stl id:0 copy 0
G1 E-3.5 F3600
;WIPE_START
G1 F7200
G1 X96.643 Y145.168 E-1.425
;WIPE_END
G1 E-.075 F3600
G1 Z.8 F9000
G1 X100.2 Y149.8
G1 Z.4
G1 E5 F2400
;TYPE:External perimeter
;WIDTH:0.399999
G1 F1500
G1 X100.2 Y100.2 E1.47269
G1 X149.8 Y100.2 E1.47269
G1 X149.8 Y149.8 E1.47269
G1 X100.26 Y149.8 E1.4709
G1 E-3.5 F3600
;WIPE_START
G1 F7200
G1 X100.256 Y146.8 E-1.425
;WIPE_END
G1 E-.075 F3600
G1 Z.8 F9000
G1 X149.686 Y148.961
G1 Z.4
G1 E5 F2400
;TYPE:Solid infill
;WIDTH:0.401239
G1 X149.122 Y149.525 E.02376
G1 X148.615 Y149.525 E.0151
G1 X149.525 Y148.615 E.03834
G1 X149.525 Y148.108 E.0151
G1 X148.108 Y149.525 E.05969
G1 X147.602 Y149.525 E.0151
G1 X149.525 Y147.602 E.08104
G1 X149.525 Y147.095 E.0151
G1 X147.095 Y149.525 E.10239
G1 X146.588 Y149.525 E.0151
G1 X149.525 Y146.588 E.12374
G1 X149.525 Y146.082 E.0151
G1 X146.082 Y149.525 E.1451
G1 X145.575 Y149.525 E.0151
G1 X149.525 Y145.575 E.16645
G1 X149.525 Y145.068 E.0151
G1 X145.068 Y149.525 E.1878
G1 X144.561 Y149.525 E.0151
G1 X149.525 Y144.561 E.20915
G1 X149.525 Y144.055 E.0151
G1 X144.055 Y149.525 E.2305
G1 X143.548 Y149.525 E.0151
G1 X149.525 Y143.548 E.25185
G1 X149.525 Y143.041 E.0151
G1 X143.041 Y149.525 E.27321
G1 X142.534 Y149.525 E.0151
G1 X149.525 Y142.534 E.29456
G1 X149.525 Y142.028 E.0151
G1 X142.028 Y149.525 E.31591
G1 X141.521 Y149.525 E.0151
G1 X149.525 Y141.521 E.33726
G1 X149.525 Y141.014 E.0151
G1 X141.014 Y149.525 E.35861
G1 X140.507 Y149.525 E.0151
G1 X149.525 Y140.507 E.37996
G1 X149.525 Y140.001 E.0151
G1 X140.001 Y149.525 E.40132
G1 X139.494 Y149.525 E.0151
G1 X149.525 Y139.494 E.42267
G1 X149.525 Y138.987 E.0151
G1 X138.987 Y149.525 E.44402
G1 X138.48 Y149.525 E.0151
G1 X149.525 Y138.48 E.46537
G1 X149.525 Y137.974 E.0151
G1 X137.974 Y149.525 E.48672
G1 X137.467 Y149.525 E.0151
G1 X149.525 Y137.467 E.50808
G1 X149.525 Y136.96 E.0151
G1 X136.96 Y149.525 E.52943
G1 X136.453 Y149.525 E.0151
G1 X149.525 Y136.453 E.55078
G1 X149.525 Y135.947 E.0151
G1 X135.947 Y149.525 E.57213
G1 X135.44 Y149.525 E.0151
G1 X149.525 Y135.44 E.59348
G1 X149.525 Y134.933 E.0151
