; generated by PrusaSlicer 2.5.0+win64 on 2023-01-20 at 08:42:58 UTC


;
;

;
;
; 

; external perimeters extrusion width = 0.42mm
; perimeters extrusion width = 0.44mm
; infill extrusion width = 0.44mm
; solid infill extrusion width = 0.44mm
; top infill extrusion width = 0.40mm
; first layer extrusion width = 0.42mm

M107
;TYPE:Custom
;E7 Klipper start macro
M104 S0
M140 S0
PRINT_START EXTRUDER_TEMP=210 BED_TEMP=60
G21 ; set units to millimeters
G90 ; use absolute coordinates
M83 ; use relative distances for extrusion
; Filament gcode
M107
;LAYER_CHANGE
;Z:0.2
;HEIGHT:0.2
;BEFORE_LAYER_CHANGE
G92 E0
;0.2


G1 E-5 F3600
G1 Z.2 F9000
;AFTER_LAYER_CHANGE
;0.2
G1 Z.6
G1 X83.107 Y99.203
G1 Z.2
G1 E5 F2400
M204 S500
;TYPE:Skirt/Brim
;WIDTH:0.42
G1 F1200
G1 X85 Y98.623 E.06207
G1 X165 Y98.623 E2.50834
G1 X166.583 Y99.017 E.05115
G1 X167.797 Y100.107 E.05115
G1 X168.377 Y102 E.06207
G1 X168.377 Y139.241 E1.16766
G1 X167.983 Y140.824 E.05115
G1 X166.893 Y142.038 E.05115
G1 X165 Y142.618 E.06207
G1 X85 Y142.618 E2.50834
G1 X83.417 Y142.224 E.05115
G1 X82.203 Y141.134 E.05115
G1 X81.623 Y139.241 E.06207
G1 X81.623 Y102 E1.16766
G1 X82.017 Y100.417 E.05115
G1 X83.067 Y99.248 E.04927
; printing object 20230118_E7_Wire_Support.stl id:0 copy 0
G1 E-3.5 F3600
;WIPE_START
G1 F7200
G1 X85 Y98.623 E-.96489
G1 X85.969 Y98.623 E-.46011
;WIPE_END
G1 E-.075 F3600
G1 Z.6 F9000
G1 X86.064 Y103.064
G1 Z.2
G1 E5 F2400
;TYPE:Perimeter
;WIDTH:0.419999
G1 F1200
G1 X122.436 Y103.064 E1.14041
G1 X122.436 Y116.314 E.41543
G1 X120.453 Y117.135 E.06729
G1 X120.24 Y117.258 E.00772
G1 X118.506 Y118.589 E.06853
G1 X118.332 Y118.763 E.00772
G1 X117.001 Y120.497 E.06853
G1 X116.878 Y120.71 E.00772
G1 X116.094 Y122.602 E.06422
G1 X115.978 Y122.967 E.012
G1 X115.693 Y125.134 E.06853
G1 X115.693 Y125.38 E.00772
G1 X115.978 Y127.547 E.06853
G1 X116.042 Y127.785 E.00772
G1 X116.878 Y129.804 E.06853
G1 X117.001 Y130.017 E.00772
G1 X118.332 Y131.751 E.06853
G1 X118.506 Y131.925 E.00772
G1 X120.24 Y133.256 E.06853
G1 X120.453 Y133.379 E.00772
G1 X122.472 Y134.215 E.06853
G1 X122.71 Y134.279 E.00772
G1 X124.877 Y134.564 E.06853
G1 X125.123 Y134.564 E.00772
G1 X127.29 Y134.279 E.06853
G1 X127.528 Y134.215 E.00772
G1 X129.547 Y133.379 E.06853
G1 X129.76 Y133.256 E.00772
G1 X131.494 Y131.925 E.06853
G1 X131.668 Y131.751 E.00772
G1 X132.999 Y130.017 E.06853
G1 X133.122 Y129.804 E.00772
G1 X133.958 Y127.785 E.06853
G1 X134.022 Y127.547 E.00772
G1 X134.307 Y125.38 E.06853
G1 X134.307 Y125.134 E.00772
G1 X134.022 Y122.967 E.06853
G1 X133.958 Y122.729 E.00772
G1 X133.251 Y121.022 E.05793
G1 X132.999 Y120.497 E.01828
G1 X131.668 Y118.763 E.06853
G1 X131.494 Y118.589 E.00772
G1 X129.76 Y117.258 E.06853
G1 X129.547 Y117.135 E.00772
G1 X127.564 Y116.314 E.06729
G1 X127.564 Y103.064 E.41543
G1 X163.936 Y103.064 E1.14041
G1 X163.936 Y137.941 E1.09354
G1 X86.064 Y137.941 E2.44161
G1 X86.064 Y103.124 E1.09166
G1 X85.687 Y102.687 F9000
G1 F1200
G1 X122.813 Y102.687 E1.16405
G1 X122.813 Y116.602 E.43629
G1 X122.617 Y116.647 E.00632
G1 X120.597 Y117.484 E.06853
G1 X120.469 Y117.557 E.00463
G1 X118.631 Y118.992 E.07312
G1 X117.3 Y120.726 E.06853
G1 X117.227 Y120.854 E.00463
G1 X116.803 Y121.876 E.03468
G1 X116.352 Y123.016 E.03844
G1 X116.067 Y125.331 E.07312
G1 X116.352 Y127.498 E.06853
G1 X116.39 Y127.64 E.00463
G1 X117.227 Y129.66 E.06853
G1 X117.3 Y129.788 E.00463
G1 X118.631 Y131.522 E.06853
G1 X118.735 Y131.626 E.00463
G1 X120.469 Y132.956 E.06853
G1 X120.597 Y133.03 E.00463
G1 X122.617 Y133.867 E.06853
G1 X122.759 Y133.905 E.00463
G1 X124.926 Y134.19 E.06853
G1 X125.074 Y134.19 E.00463
G1 X127.241 Y133.905 E.06853
G1 X127.383 Y133.867 E.00463
G1 X129.403 Y133.03 E.06853
G1 X129.531 Y132.956 E.00463
G1 X131.265 Y131.626 E.06853
G1 X131.369 Y131.522 E.00463
G1 X132.7 Y129.788 E.06853
G1 X132.773 Y129.66 E.00463
G1 X133.61 Y127.64 E.06853
G1 X133.648 Y127.498 E.00463
G1 X133.933 Y125.331 E.06853
G1 X133.933 Y125.183 E.00463
G1 X133.61 Y122.874 E.07312
G1 X132.7 Y120.726 E.07312
G1 X131.369 Y118.992 E.06853
G1 X131.265 Y118.888 E.00463
G1 X129.531 Y117.557 E.06853
G1 X129.403 Y117.484 E.00463
G1 X127.383 Y116.647 E.06853
G1 X127.187 Y116.602 E.00632
G1 X127.187 Y102.687 E.43629
G1 X164.313 Y102.687 E1.16405
G1 X164.313 Y138.318 E1.11718
G1 X85.687 Y138.318 E2.46525
G1 X85.687 Y102.747 E1.1153
G1 X85.31 Y102.31 F9000
;TYPE:External perimeter
G1 F1200
G1 X123.19 Y102.31 E1.1877
G1 X123.19 Y116.933 E.45848
G1 X122.761 Y116.996 E.0136
G1 X120.742 Y117.832 E.06853
G1 X118.93 Y119.222 E.07159
G1 X117.6 Y120.956 E.06853
G1 X117.152 Y122.021 E.03621
G1 X116.726 Y123.065 E.03538
G1 X116.441 Y125.282 E.07006
G1 X116.726 Y127.449 E.06853
G1 X117.575 Y129.515 E.07006
G1 X118.965 Y131.327 E.07159
G1 X120.742 Y132.682 E.07006
G1 X122.761 Y133.518 E.06853
G1 X125.025 Y133.816 E.07159
G1 X127.192 Y133.531 E.06853
G1 X129.258 Y132.682 E.07006
G1 X131.07 Y131.292 E.07159
G1 X132.425 Y129.515 E.07006
G1 X133.261 Y127.496 E.06853
G1 X133.559 Y125.282 E.07006
G1 X133.261 Y123.018 E.07159
G1 X132.4 Y120.956 E.07006
G1 X131.07 Y119.222 E.06853
G1 X129.258 Y117.832 E.07159
G1 X127.239 Y116.996 E.06853
G1 X126.81 Y116.933 E.0136
G1 X126.81 Y102.31 E.45848
G1 X164.69 Y102.31 E1.1877
G1 X164.69 Y138.695 E1.14083
G1 X85.31 Y138.695 E2.4889
G1 X85.31 Y102.37 E1.13895
G1 X85.706 Y102.367 F9000
G1 E-3.5 F3600
;WIPE_START
G1 F7200
G1 X88.31 Y102.365 E-1.425
;WIPE_END
G1 E-.075 F3600
G1 Z.6 F9000
G1 X161.743 Y112.979
G1 Z.2
G1 E5 F2400
;TYPE:Perimeter
G1 F1200
G1 X161.385 Y113.281 E.0147
G1 X160.781 Y113.567 E.02096
G1 X160.123 Y113.686 E.02095
G1 X159.457 Y113.63 E.02095
G1 X158.848 Y113.413 E.02029
G1 X158.288 Y113.031 E.02124
G1 X158.098 Y112.84 E.00844
G1 X157.797 Y112.435 E.01581
G1 X157.562 Y111.909 E.01807
G1 X157.443 Y111.252 E.02095
G1 X157.498 Y110.585 E.02096
G1 X157.724 Y109.956 E.02095
G1 X158.105 Y109.407 E.02096
G1 X158.615 Y108.975 E.02095
G1 X159.219 Y108.69 E.02096
G1 X159.856 Y108.574 E.02029
G1 X160.531 Y108.625 E.02123
G1 X161.172 Y108.852 E.02132
G1 X161.721 Y109.233 E.02096
G1 X162.168 Y109.772 E.02195
G1 X162.438 Y110.348 E.01994
G1 X162.565 Y111.128 E.0248
G1 X162.502 Y111.671 E.01714
G1 X162.276 Y112.3 E.02095
G1 X161.895 Y112.85 E.02096
G1 X161.789 Y112.94 E.00437
G1 X161.497 Y112.702 F9000
G1 F1200
G1 X161.156 Y112.982 E.01385
G1 X160.636 Y113.218 E.01788
G1 X160.074 Y113.312 E.01788
G1 X159.506 Y113.256 E.01788
G1 X158.992 Y113.064 E.01722
G1 X158.514 Y112.729 E.01831
G1 X158.134 Y112.259 E.01895
G1 X157.91 Y111.765 E.01701
G1 X157.817 Y111.202 E.01788
G1 X157.872 Y110.635 E.01788
G1 X158.072 Y110.101 E.01788
G1 X158.404 Y109.637 E.01788
G1 X158.844 Y109.275 E.01788
G1 X159.364 Y109.039 E.01788
G1 X159.905 Y108.948 E.01722
G1 X160.487 Y109 E.0183
G1 X161.028 Y109.201 E.0181
G1 X161.492 Y109.533 E.01789
G1 X161.866 Y109.998 E.01873
G1 X162.09 Y110.492 E.01701
G1 X162.188 Y111.128 E.02019
G1 X162.124 Y111.646 E.01635
G1 X161.928 Y112.156 E.01714
G1 X161.596 Y112.62 E.01788
G1 X161.543 Y112.664 E.00215
G1 X161.262 Y112.425 F9000
;TYPE:External perimeter
G1 F1200
G1 X160.883 Y112.708 E.01481
G1 X160.445 Y112.883 E.01481
G1 X159.975 Y112.938 E.01481
G1 X159.508 Y112.87 E.01481
G1 X159.095 Y112.693 E.01408
G1 X158.702 Y112.389 E.01559
G1 X158.413 Y111.992 E.01538
G1 X158.246 Y111.573 E.01415
G1 X158.191 Y111.104 E.01481
G1 X158.259 Y110.636 E.01481
G1 X158.445 Y110.202 E.01481
G1 X158.738 Y109.832 E.01481
G1 X159.117 Y109.549 E.01481
G1 X159.555 Y109.374 E.01481
G1 X160.001 Y109.322 E.01408
G1 X160.492 Y109.387 E.01552
G1 X160.926 Y109.574 E.01482
G1 X161.298 Y109.868 E.01489
G1 X161.587 Y110.265 E.01538
G1 X161.754 Y110.684 E.01415
G1 X161.811 Y111.128 E.01405
G1 X161.741 Y111.621 E.01558
G1 X161.555 Y112.055 E.01481
G1 X161.299 Y112.378 E.01293
G1 X161.36 Y112.813 F9000
G1 E-3.5 F3600
;WIPE_START
G1 F7200
G1 X160.883 Y112.708 E-.25203
G1 X160.445 Y112.883 E-.22439
G1 X159.975 Y112.938 E-.22439
G1 X159.508 Y112.87 E-.22443
G1 X159.095 Y112.693 E-.21324
G1 X158.702 Y112.389 E-.23625
G1 X158.639 Y112.303 E-.05028
;WIPE_END
G1 E-.075 F3600
G1 Z.6 F9000
G1 X161.854 Y127.651
G1 Z.2
G1 E5 F2400
;TYPE:Perimeter
G1 F1200
G1 X162.168 Y128.029 E.01541
G1 X162.438 Y128.605 E.01994
G1 X162.565 Y129.385 E.0248
G1 X162.502 Y129.928 E.01714
G1 X162.276 Y130.557 E.02095
G1 X161.895 Y131.107 E.02096
G1 X161.385 Y131.538 E.02095
G1 X160.781 Y131.824 E.02096
G1 X160.123 Y131.943 E.02095
G1 X159.457 Y131.887 E.02095
G1 X158.848 Y131.67 E.02029
G1 X158.288 Y131.288 E.02124
G1 X158.098 Y131.097 E.00844
G1 X157.765 Y130.64 E.01773
G1 X157.562 Y130.166 E.01616
G1 X157.443 Y129.508 E.02095
G1 X157.498 Y128.842 E.02096
G1 X157.723 Y128.216 E.02085
G1 X158.005 Y127.794 E.01593
G1 X158.279 Y127.49 E.01283
G1 X158.716 Y127.164 E.0171
G1 X159.219 Y126.947 E.01718
G1 X159.856 Y126.831 E.02029
G1 X160.531 Y126.882 E.02123
G1 X161.172 Y127.109 E.02132
G1 X161.721 Y127.49 E.02096
G1 X161.816 Y127.605 E.00465
G1 X161.576 Y127.894 F9000
G1 F1200
G1 X161.866 Y128.255 E.01452
G1 X162.09 Y128.749 E.01701
G1 X162.188 Y129.385 E.02019
G1 X162.124 Y129.903 E.01635
G1 X161.928 Y130.413 E.01714
G1 X161.596 Y130.877 E.01788
G1 X161.156 Y131.239 E.01788
G1 X160.636 Y131.475 E.01788
G1 X160.074 Y131.569 E.01788
G1 X159.506 Y131.513 E.01788
G1 X158.992 Y131.321 E.01722
G1 X158.514 Y130.986 E.01831
G1 X158.134 Y130.516 E.01895
G1 X157.91 Y130.022 E.017
G1 X157.817 Y129.459 E.01788
G1 X157.872 Y128.892 E.01788
G1 X158.071 Y128.361 E.01778
G1 X158.404 Y127.894 E.01798
G1 X158.844 Y127.532 E.01788
G1 X159.364 Y127.296 E.01788
G1 X159.905 Y127.205 E.01722
G1 X160.487 Y127.256 E.0183
G1 X161.028 Y127.458 E.0181
G1 X161.492 Y127.789 E.01788
G1 X161.538 Y127.847 E.00233
G1 X161.298 Y128.125 F9000
;TYPE:External perimeter
G1 F1200
G1 X161.587 Y128.522 E.01538
G1 X161.754 Y128.941 E.01415
G1 X161.811 Y129.385 E.01405
G1 X161.741 Y129.877 E.01558
G1 X161.555 Y130.311 E.01481
G1 X161.262 Y130.682 E.01481
G1 X160.883 Y130.965 E.01481
G1 X160.404 Y131.145 E.01606
G1 X159.975 Y131.195 E.01352
G1 X159.508 Y131.127 E.01481
G1 X159.095 Y130.95 E.01408
G1 X158.702 Y130.646 E.01559
G1 X158.413 Y130.249 E.01538
G1 X158.246 Y129.83 E.01415
G1 X158.191 Y129.361 E.01481
G1 X158.259 Y128.893 E.01481
G1 X158.445 Y128.459 E.01481
G1 X158.738 Y128.089 E.01481
G1 X159.136 Y127.798 E.01546
G1 X159.555 Y127.631 E.01415
G1 X160.001 Y127.578 E.01408
G1 X160.492 Y127.644 E.01552
G1 X160.926 Y127.831 E.01482
G1 X161.251 Y128.088 E.01301
G1 X161.687 Y128.03 F9000
G1 E-3.5 F3600
;WIPE_START
G1 F7200
G1 X161.587 Y128.522 E-.26053
G1 X161.754 Y128.941 E-.21436
G1 X161.811 Y129.385 E-.21288
G1 X161.741 Y129.877 E-.23607
G1 X161.555 Y130.311 E-.22439
G1 X161.262 Y130.682 E-.22439
G1 X161.174 Y130.748 E-.05238
;WIPE_END
G1 E-.075 F3600
G1 Z.6 F9000
G1 X88.257 Y127.535
G1 Z.2
G1 E5 F2400
;TYPE:Perimeter
G1 F1200
G1 X88.615 Y127.232 E.0147
G1 X89.219 Y126.947 E.02095
G1 X89.856 Y126.831 E.02029
G1 X90.531 Y126.882 E.02123
G1 X90.781 Y126.947 E.00808
G1 X91.291 Y127.169 E.01743
G1 X91.721 Y127.49 E.01685
G1 X92.063 Y127.889 E.01646
G1 X92.284 Y128.233 E.01283
G1 X92.477 Y128.719 E.01639
G1 X92.557 Y129.262 E.01722
G1 X92.557 Y129.508 E.00772
G1 X92.479 Y130.043 E.01695
G1 X92.276 Y130.557 E.01733
G1 X91.895 Y131.107 E.02095
G1 X91.385 Y131.538 E.02095
G1 X90.781 Y131.824 E.02096
G1 X90.123 Y131.943 E.02095
G1 X89.498 Y131.893 E.01967
G1 X89.219 Y131.824 E.00899
G1 X88.615 Y131.538 E.02096
G1 X88.105 Y131.107 E.02095
G1 X87.724 Y130.557 E.02095
G1 X87.504 Y129.968 E.01972
G1 X87.435 Y129.385 E.01841
G1 X87.508 Y128.811 E.01814
G1 X87.724 Y128.213 E.01993
G1 X88.105 Y127.664 E.02095
G1 X88.211 Y127.574 E.00438
G1 X88.503 Y127.812 F9000
G1 F1200
G1 X88.844 Y127.532 E.01385
G1 X89.364 Y127.296 E.01788
G1 X89.905 Y127.205 E.01722
G1 X90.487 Y127.256 E.0183
G1 X91.028 Y127.458 E.0181
G1 X91.492 Y127.789 E.01788
G1 X91.866 Y128.255 E.01873
G1 X92.09 Y128.749 E.017
G1 X92.183 Y129.312 E.01788
G1 X92.183 Y129.459 E.00463
G1 X92.09 Y130.022 E.01788
G1 X91.854 Y130.541 E.01788
G1 X91.492 Y130.981 E.01788
G1 X91.028 Y131.313 E.01788
G1 X90.518 Y131.51 E.01714
G1 X90 Y131.574 E.01635
G1 X89.364 Y131.475 E.02019
G1 X88.844 Y131.239 E.01788
G1 X88.404 Y130.877 E.01788
G1 X88.072 Y130.413 E.01788
G1 X87.876 Y129.903 E.01714
G1 X87.812 Y129.385 E.01636
G1 X87.881 Y128.865 E.01645
G1 X88.072 Y128.358 E.017
G1 X88.404 Y127.894 E.01788
G1 X88.457 Y127.85 E.00215
G1 X88.738 Y128.089 F9000
;TYPE:External perimeter
G1 F1200
G1 X89.117 Y127.806 E.01481
G1 X89.555 Y127.631 E.01481
G1 X90.001 Y127.578 E.01408
G1 X90.492 Y127.644 E.01552
G1 X90.926 Y127.831 E.01482
G1 X91.298 Y128.125 E.01488
G1 X91.587 Y128.522 E.01538
G1 X91.754 Y128.941 E.01415
G1 X91.809 Y129.41 E.01481
G1 X91.741 Y129.877 E.01481
G1 X91.555 Y130.311 E.01481
G1 X91.262 Y130.682 E.01481
G1 X90.883 Y130.965 E.01481
G1 X90.445 Y131.14 E.01481
G1 X89.975 Y131.195 E.01481
G1 X89.508 Y131.127 E.01481
G1 X89.074 Y130.94 E.01481
G1 X88.703 Y130.647 E.01481
G1 X88.421 Y130.269 E.01481
G1 X88.246 Y129.83 E.01481
G1 X88.191 Y129.358 E.01489
G1 X88.267 Y128.874 E.01538
G1 X88.445 Y128.459 E.01415
G1 X88.701 Y128.136 E.01293
G1 X88.64 Y127.701 F9000
G1 E-3.5 F3600
;WIPE_START
G1 F7200
G1 X89.117 Y127.806 E-.25202
G1 X89.555 Y127.631 E-.22439
G1 X90.001 Y127.578 E-.21328
G1 X90.492 Y127.644 E-.23519
G1 X90.926 Y127.831 E-.22444
G1 X91.298 Y128.125 E-.22545
G1 X91.361 Y128.211 E-.05023
;WIPE_END
G1 E-.075 F3600
G1 Z.6 F9000
G1 X89.924 Y114.541
G1 Z.2
G1 E5 F2400
;TYPE:Perimeter
G1 F1200
G1 X89.457 Y114.502 E.0147
G1 X88.828 Y114.276 E.02095
G1 X88.279 Y113.895 E.02095
G1 X87.847 Y113.385 E.02096
G1 X87.562 Y112.781 E.02095
G1 X87.443 Y112.123 E.02096
G1 X87.444 Y111.865 E.00808
G1 X87.57 Y111.2 E.02123
G1 X87.847 Y110.615 E.02029
G1 X88.279 Y110.105 E.02095
G1 X88.828 Y109.724 E.02095
G1 X89.457 Y109.498 E.02095
G1 X89.979 Y109.438 E.01648
G1 X90.531 Y109.497 E.01741
G1 X91.172 Y109.724 E.02132
G1 X91.721 Y110.105 E.02096
G1 X91.902 Y110.288 E.00808
G1 X92.235 Y110.746 E.01773
G1 X92.438 Y111.219 E.01616
G1 X92.557 Y111.877 E.02096
G1 X92.556 Y112.135 E.00808
G1 X92.471 Y112.678 E.01724
G1 X92.245 Y113.238 E.01894
G1 X91.895 Y113.721 E.0187
G1 X91.385 Y114.153 E.02095
G1 X90.781 Y114.438 E.02095
G1 X90.123 Y114.557 E.02095
G1 X89.984 Y114.546 E.00438
G1 X89.946 Y114.171 F9000
G1 F1200
G1 X89.506 Y114.128 E.01385
G1 X88.972 Y113.928 E.01788
G1 X88.508 Y113.596 E.01788
G1 X88.146 Y113.156 E.01788
G1 X87.91 Y112.636 E.01788
G1 X87.817 Y112.074 E.01788
G1 X87.881 Y111.48 E.01873
G1 X88.072 Y110.972 E.017
G1 X88.404 Y110.508 E.01788
G1 X88.844 Y110.146 E.01788
G1 X89.364 Y109.91 E.01788
G1 X89.905 Y109.819 E.01722
G1 X90.487 Y109.871 E.0183
G1 X91.028 Y110.072 E.0181
G1 X91.492 Y110.404 E.01788
G1 X91.866 Y110.87 E.01873
G1 X92.09 Y111.364 E.01701
G1 X92.183 Y111.926 E.01788
G1 X92.119 Y112.52 E.01873
G1 X91.909 Y113.068 E.01838
G1 X91.596 Y113.492 E.01653
G1 X91.156 Y113.854 E.01788
G1 X90.636 Y114.09 E.01788
G1 X90.074 Y114.183 E.01788
G1 X90.006 Y114.177 E.00215
G1 X89.975 Y113.809 F9000
;TYPE:External perimeter
G1 F1200
G1 X89.508 Y113.741 E.01481
G1 X89.074 Y113.555 E.01481
G1 X88.703 Y113.262 E.01481
G1 X88.421 Y112.883 E.01481
G1 X88.246 Y112.445 E.01481
G1 X88.191 Y111.973 E.01489
G1 X88.267 Y111.488 E.01538
G1 X88.445 Y111.074 E.01415
G1 X88.738 Y110.703 E.01481
G1 X89.117 Y110.421 E.01481
G1 X89.555 Y110.246 E.01481
G1 X90.001 Y110.193 E.01408
G1 X90.492 Y110.259 E.01552
G1 X90.926 Y110.445 E.01482
G1 X91.298 Y110.74 E.01489
G1 X91.587 Y111.136 E.01538
G1 X91.754 Y111.555 E.01415
G1 X91.809 Y112.027 E.01489
G1 X91.733 Y112.512 E.01538
G1 X91.573 Y112.897 E.01308
G1 X91.262 Y113.297 E.01589
G1 X90.883 Y113.579 E.01481
G1 X90.445 Y113.754 E.01481
G1 X90.035 Y113.802 E.01293
G1 X89.771 Y114.153 F9000
G1 E-3.5 F3600
;WIPE_START
G1 F7200
G1 X89.508 Y113.741 E-.25202
G1 X89.074 Y113.555 E-.22439
G1 X88.703 Y113.262 E-.22439
G1 X88.421 Y112.883 E-.22439
G1 X88.246 Y112.445 E-.22439
G1 X88.191 Y111.973 E-.22553
G1 X88.207 Y111.869 E-.04988
;WIPE_END
G1 E-.075 F3600
G1 Z.6 F9000
G1 X163.815 Y103.95
G1 Z.2
G1 E5 F2400
