; generated by PrusaSlicer 2.5.0+win64 on 2023-02-16 at 10:20:47 UTC


;
;

;
;
; 

; external perimeters extrusion width = 0.45mm
; perimeters extrusion width = 0.45mm
; infill extrusion width = 0.45mm
; solid infill extrusion width = 0.45mm
; top infill extrusion width = 0.40mm
; first layer extrusion width = 0.42mm

M73 P0 R24
M201 X2500 Y2500 Z400 E5000 ; sets maximum accelerations, mm/sec^2
M203 X180 Y180 Z12 E80 ; sets maximum feedrates, mm / sec
M204 P1250 R1250 T2500 ; sets acceleration (P, T) and retract acceleration (R), mm/sec^2
M205 X8.00 Y8.00 Z2.00 E10.00 ; sets the jerk limits, mm/sec
M205 S0 T0 ; sets the minimum extruding and travel feed rate, mm/sec
M107
;TYPE:Custom
M862.3 P "MINI" ; printer model check
G90 ; use absolute coordinates
M83 ; extruder relative mode
M104 S170 ; set extruder temp for bed leveling
M140 S60 ; set bed temp
M109 R170 ; wait for bed leveling temp
M190 S60 ; wait for bed temp
M204 T1250 ; set travel acceleration
G28 ; home all without mesh bed level
G29 ; mesh bed leveling 
M204 T2500 ; restore travel acceleration
M104 S215 ; set extruder temp
G92 E0
G1 Y-2 X179 F2400
G1 Z3 F720
M109 S215 ; wait for extruder temp

; intro line
G1 X170 F1000
G1 Z0.2 F720
G1 X110 E8 F900
G1 X40 E10 F700
G92 E0

M221 S95 ; set flow
G21 ; set units to millimeters
G90 ; use absolute coordinates
M83 ; use relative distances for extrusion
M900 K0.2 ; Filament gcode LA 1.5
; ; Filament gcode LA 1.0
M107
;LAYER_CHANGE
;Z:0.2
;HEIGHT:0.2
;BEFORE_LAYER_CHANGE
G92 E0.0
;0.2


G1 E-3.2 F4200
M73 P1 R24
G1 Z.2 F720
;AFTER_LAYER_CHANGE
;0.2
G1 Z.4
G1 X59.06 Y76.317 F9000
G1 Z.2 F720
G1 E3.2 F2400
M204 P800
;TYPE:Skirt/Brim
;WIDTH:0.42
G1 F1200
G1 X60 Y76.123 E.03008
G1 X120 Y76.123 E1.88126
G1 X121.307 Y76.515 E.04278
G1 X122.183 Y77.56 E.04278
G1 X122.377 Y78.5 E.03008
G1 X122.377 Y101.5 E.72115
G1 X121.985 Y102.807 E.04278
G1 X120.94 Y103.683 E.04278
G1 X120 Y103.877 E.03008
G1 X60 Y103.877 E1.88126
G1 X58.693 Y103.485 E.04278
G1 X57.817 Y102.44 E.04278
G1 X57.623 Y101.5 E.03008
G1 X57.623 Y78.5 E.72115
G1 X58.015 Y77.193 E.04278
G1 X59.014 Y76.355 E.0409
M204 P1000
; printing object 20230216_ADXL345_Mount.stl id:0 copy 0
G1 E-2.24 F4200
;WIPE_START
G1 F7200
G1 X60 Y76.123 E-.56121
G1 X60.633 Y76.123 E-.35079
;WIPE_END
G1 E-.048 F4200
G1 Z.4 F720
G1 X67.736 Y85.217 F9000
G1 Z.2 F720
G1 E3.2 F2400
M204 P800
;TYPE:Perimeter
;WIDTH:0.419999
G1 F1200
G1 X67.681 Y85.221 E.00174
G1 X67.428 Y85.335 E.0087
G1 X67.277 Y85.518 E.00743
G1 X67.213 Y85.779 E.00842
G1 X67.213 Y100.713 E.46826
G1 X65.217 Y100.713 E.06258
;WIDTH:0.448126
G1 X64.884 Y100.699 E.01122
;WIDTH:0.476253
G1 X64.552 Y100.685 E.01199
G1 X64 Y100.701 E.01989
;WIDTH:0.473227
G1 X63.494 Y100.686 E.0181
G1 X63.15 Y100.7 E.01233
;WIDTH:0.446613
G1 X62.806 Y100.713 E.01157
;WIDTH:0.419999
G1 X60.787 Y100.713 E.0633
G1 X60.787 Y79.287 E.67179
G1 X119.213 Y79.287 E1.8319
G1 X119.213 Y83.008 E.11666
M73 P2 R24
G1 X119.213 Y100.713 E.55513
G1 X117.217 Y100.713 E.06258
;WIDTH:0.448126
G1 X116.884 Y100.699 E.01122
;WIDTH:0.476253
G1 X116.552 Y100.685 E.01199
G1 X116 Y100.701 E.01989
;WIDTH:0.473227
G1 X115.494 Y100.686 E.0181
G1 X115.15 Y100.7 E.01233
;WIDTH:0.446613
G1 X114.806 Y100.713 E.01157
;WIDTH:0.419999
G1 X112.787 Y100.713 E.0633
G1 X112.787 Y85.779 E.46826
G1 X112.77 Y85.642 E.0043
G1 X112.653 Y85.413 E.00808
G1 X112.47 Y85.271 E.00726
G1 X112.221 Y85.213 E.00801
G1 X67.796 Y85.213 E1.39293
M204 P1000
G1 X67.779 Y85.59 F9000
M204 P800
;TYPE:External perimeter
G1 F1200
G1 X67.662 Y85.631 E.00388
G1 X67.59 Y85.779 E.00515
G1 X67.59 Y101.09 E.48008
G1 X60.41 Y101.09 E.22512
G1 X60.41 Y78.91 E.69544
G1 X119.59 Y78.91 E1.85554
G1 X119.59 Y101.09 E.69544
G1 X112.41 Y101.09 E.22512
G1 X112.41 Y85.779 E.48008
G1 X112.365 Y85.657 E.00407
G1 X112.221 Y85.59 E.00497
G1 X67.839 Y85.59 E1.39159
M204 P1000
G1 X67.695 Y85.499 F9000
M73 P3 R24
G1 E-2.24 F4200
;WIPE_START
G1 F7200
G1 X67.662 Y85.631 E-.10061
G1 X67.59 Y85.779 E-.09106
G1 X67.59 Y87.078 E-.72034
;WIPE_END
G1 E-.048 F4200
G1 Z.4 F720
G1 X117.101 Y99.992 F9000
G1 Z.2 F720
G1 E3.2 F2400
M204 P800
;TYPE:Perimeter
;WIDTH:0.452045
G1 F1200
G1 X116.669 Y100.202 E.01633
;WIDTH:0.476253
G1 X116.524 Y100.253 E.00554
G1 X116 Y100.301 E.01894
;WIDTH:0.473227
G1 X115.522 Y100.258 E.01716
G1 X115.229 Y100.139 E.01134
;WIDTH:0.446613
G1 X114.935 Y100.02 E.01064
;WIDTH:0.419999
G1 X114.437 Y99.667 E.01913
G1 X114.059 Y99.206 E.01871
G1 X113.813 Y98.662 E.01871
G1 X113.778 Y98.544 E.00388
G1 X113.711 Y98 E.01718
G1 X113.775 Y97.48 E.01642
G1 X113.985 Y96.922 E.01871
G1 X114.333 Y96.437 E.01871
G1 X114.794 Y96.059 E.01871
G1 X115.396 Y95.802 E.02052
G1 X115.926 Y95.716 E.01684
G1 X116.52 Y95.775 E.01871
G1 X117.078 Y95.985 E.01871
G1 X117.563 Y96.333 E.01871
G1 X117.941 Y96.794 E.01871
G1 X118.187 Y97.338 E.01871
G1 X118.284 Y97.926 E.01871
G1 X118.225 Y98.52 E.01871
G1 X118.015 Y99.078 E.01871
G1 X117.622 Y99.602 E.02052
G1 X117.206 Y99.941 E.01684
;WIDTH:0.452045
G1 X117.155 Y99.966 E.00195
M204 P1000
G1 X117.082 Y99.556 F9000
M204 P800
;TYPE:External perimeter
;WIDTH:0.419999
G1 F1200
G1 X116.934 Y99.667 E.00581
G1 X116.471 Y99.852 E.01564
G1 X115.975 Y99.91 E.01564
G1 X115.532 Y99.847 E.01405
G1 X115.024 Y99.642 E.01717
G1 X114.632 Y99.333 E.01565
G1 X114.333 Y98.934 E.01564
G1 X114.15 Y98.479 E.01539
G1 X114.09 Y97.975 E.01589
G1 X114.161 Y97.482 E.01564
G1 X114.358 Y97.024 E.01564
G1 X114.667 Y96.632 E.01564
G1 X115.071 Y96.331 E.01578
G1 X115.575 Y96.142 E.01689
G1 X116.025 Y96.09 E.01419
G1 X116.518 Y96.161 E.01564
G1 X116.976 Y96.358 E.01564
G1 X117.368 Y96.667 E.01564
G1 X117.667 Y97.066 E.01564
G1 X117.852 Y97.529 E.01564
G1 X117.91 Y98.025 E.01564
G1 X117.839 Y98.518 E.01564
G1 X117.639 Y98.98 E.01578
G1 X117.297 Y99.396 E.01689
G1 X117.131 Y99.52 E.0065
M204 P1000
G1 X117.114 Y99.739 F9000
G1 E-2.24 F4200
;WIPE_START
G1 F7200
G1 X116.934 Y99.667 E-.13596
G1 X116.471 Y99.852 E-.27638
G1 X115.975 Y99.91 E-.27638
G1 X115.577 Y99.853 E-.22328
;WIPE_END
G1 E-.048 F4200
G1 Z.4 F720
G1 X64.59 Y100.23 F9000
G1 Z.2 F720
G1 E3.2 F2400
M204 P800
;TYPE:Perimeter
;WIDTH:0.476253
G1 F1200
G1 X64.524 Y100.253 E.00255
G1 X64 Y100.301 E.01894
;WIDTH:0.473227
G1 X63.522 Y100.258 E.01716
G1 X63.229 Y100.139 E.01134
;WIDTH:0.446613
G1 X62.935 Y100.02 E.01064
;WIDTH:0.419999
G1 X62.437 Y99.667 E.01913
G1 X62.059 Y99.206 E.01871
G1 X61.813 Y98.662 E.01871
G1 X61.716 Y98.074 E.01871
G1 X61.775 Y97.48 E.01871
G1 X61.985 Y96.922 E.01871
G1 X62.333 Y96.437 E.01871
G1 X62.794 Y96.059 E.01871
G1 X63.396 Y95.802 E.02052
G1 X63.926 Y95.716 E.01684
G1 X64.52 Y95.775 E.01871
G1 X65.078 Y95.985 E.01871
G1 X65.563 Y96.333 E.01871
G1 X65.941 Y96.794 E.01871
G1 X66.187 Y97.338 E.01871
G1 X66.284 Y97.926 E.01871
G1 X66.225 Y98.52 E.01871
G1 X66.015 Y99.078 E.01871
G1 X65.667 Y99.563 E.01871
G1 X65.206 Y99.941 E.01871
;WIDTH:0.452044
G1 X64.669 Y100.202 E.02032
;WIDTH:0.476253
G1 X64.647 Y100.21 E.00083
M204 P1000
G1 X64.412 Y99.858 F9000
M204 P800
;TYPE:External perimeter
;WIDTH:0.419999
G1 F1200
G1 X63.975 Y99.91 E.0138
G1 X63.575 Y99.858 E.01266
G1 X63.071 Y99.669 E.01689
G1 X62.667 Y99.368 E.01578
G1 X62.333 Y98.934 E.01717
G1 X62.148 Y98.471 E.01564
G1 X62.09 Y97.975 E.01564
G1 X62.161 Y97.482 E.01564
G1 X62.358 Y97.024 E.01564
G1 X62.667 Y96.632 E.01564
G1 X63.071 Y96.331 E.01578
G1 X63.575 Y96.142 E.01689
G1 X64.025 Y96.09 E.01419
G1 X64.518 Y96.161 E.01564
G1 X64.976 Y96.358 E.01564
G1 X65.368 Y96.667 E.01564
G1 X65.667 Y97.066 E.01564
G1 X65.852 Y97.529 E.01564
G1 X65.91 Y98.025 E.01564
G1 X65.839 Y98.518 E.01564
G1 X65.642 Y98.976 E.01564
G1 X65.333 Y99.368 E.01564
G1 X64.934 Y99.667 E.01564
G1 X64.472 Y99.851 E.0156
M204 P1000
G1 X64.301 Y100.243 F9000
G1 E-2.24 F4200
;WIPE_START
G1 F7200
G1 X63.975 Y99.91 E-.27708
G1 X63.575 Y99.858 E-.22373
G1 X63.071 Y99.669 E-.29857
G1 X62.908 Y99.547 E-.11262
;WIPE_END
G1 E-.048 F4200
G1 Z.4 F720
G1 X118.337 Y79.4 F9000
G1 Z.2 F720
M73 P3 R23
G1 E3.2 F2400
M204 P800
;TYPE:Solid infill
;WIDTH:0.420081
G1 F1200
G1 X118.93 Y79.993 E.02629
G1 X118.93 Y80.526 E.01673
G1 X117.974 Y79.57 E.04242
G1 X117.44 Y79.57 E.01673
G1 X118.93 Y81.06 E.06608
G1 X118.93 Y81.593 E.01673
G1 X116.907 Y79.57 E.08973
G1 X116.374 Y79.57 E.01673
G1 X118.93 Y82.126 E.11339
G1 X118.93 Y82.66 E.01673
G1 X115.84 Y79.57 E.13705
G1 X115.307 Y79.57 E.01673
G1 X118.93 Y83.193 E.1607
G1 X118.93 Y83.727 E.01673
G1 X114.773 Y79.57 E.18436
G1 X114.24 Y79.57 E.01673
G1 X118.93 Y84.26 E.20801
G1 X118.93 Y84.793 E.01673
G1 X113.707 Y79.57 E.23167
G1 X113.173 Y79.57 E.01673
G1 X118.93 Y85.327 E.25533
G1 X118.93 Y85.86 E.01673
G1 X112.64 Y79.57 E.27898
G1 X112.106 Y79.57 E.01673
G1 X118.93 Y86.394 E.30264
G1 X118.93 Y86.927 E.01673
G1 X111.573 Y79.57 E.3263
G1 X111.04 Y79.57 E.01673
G1 X118.93 Y87.46 E.34995
G1 X118.93 Y87.994 E.01673
G1 X110.506 Y79.57 E.37361
G1 X109.973 Y79.57 E.01673
G1 X118.93 Y88.527 E.39727
G1 X118.93 Y89.061 E.01673
G1 X109.439 Y79.57 E.42092
G1 X108.906 Y79.57 E.01673
G1 X118.93 Y89.594 E.44458
G1 X118.93 Y90.127 E.01673
G1 X108.373 Y79.57 E.46823
G1 X107.839 Y79.57 E.01673
G1 X118.93 Y90.661 E.49189
G1 X118.93 Y91.194 E.01673
G1 X107.306 Y79.57 E.51555
G1 X106.773 Y79.57 E.01673
M73 P4 R23
G1 X112.133 Y84.93 E.23773
G1 X112.415 Y84.952 E.00889
G1 X112.595 Y85.016 E.00597
G1 X112.748 Y85.112 E.00567
G1 X112.87 Y85.23 E.00532
G1 X112.975 Y85.387 E.00593
G1 X113.046 Y85.574 E.00627
G1 X113.07 Y85.867 E.00922
G1 X118.93 Y91.727 E.25991
G1 X118.93 Y92.261 E.01673
G1 X113.07 Y86.401 E.25991
G1 X113.07 Y86.934 E.01673
G1 X118.93 Y92.794 E.25991
G1 X118.93 Y93.328 E.01673
G1 X113.07 Y87.467 E.25991
G1 X113.07 Y88.001 E.01673
G1 X118.93 Y93.861 E.25991
G1 X118.93 Y94.394 E.01673
G1 X113.07 Y88.534 E.25991
G1 X113.07 Y89.068 E.01673
G1 X118.93 Y94.928 E.25991
G1 X118.93 Y95.461 E.01673
G1 X113.07 Y89.601 E.25991
G1 X113.07 Y90.134 E.01673
G1 X118.93 Y95.995 E.25991
G1 X118.93 Y96.528 E.01673
G1 X113.07 Y90.668 E.25991
G1 X113.07 Y91.201 E.01673
G1 X118.93 Y97.061 E.25991
G1 X118.93 Y97.595 E.01673
G1 X118.366 Y97.031 E.02501
G1 X118.274 Y96.808 E.00757
G1 X118.169 Y96.627 E.00656
G1 X117.888 Y96.26 E.0145
G1 X117.74 Y96.112 E.00656
G1 X117.373 Y95.831 E.0145
G1 X117.192 Y95.726 E.00656
G1 X116.969 Y95.634 E.00757
G1 X113.07 Y91.734 E.17294
G1 X113.07 Y92.268 E.01673
G1 X116.261 Y95.459 E.14152
G1 X116 Y95.428 E.00824
G1 X115.728 Y95.46 E.00858
G1 X113.07 Y92.801 E.11791
G1 X113.07 Y93.335 E.01673
G1 X115.279 Y95.544 E.09798
G1 X114.894 Y95.692 E.01294
G1 X113.07 Y93.868 E.08091
G1 X113.07 Y94.401 E.01673
G1 X114.555 Y95.886 E.06585
G1 X114.254 Y96.118 E.01193
G1 X113.07 Y94.935 E.0525
G1 X113.07 Y95.468 E.01673
G1 X114.003 Y96.402 E.0414
G1 X113.781 Y96.713 E.01199
G1 X113.07 Y96.002 E.03154
G1 X113.07 Y96.535 E.01673
G1 X113.614 Y97.079 E.02412
G1 X113.549 Y97.235 E.0053
G1 X113.488 Y97.487 E.00813
G1 X113.07 Y97.068 E.01856
G1 X113.07 Y97.602 E.01673
G1 X113.435 Y97.966 E.01618
G1 X113.435 Y98.105 E.00433
G1 X113.495 Y98.561 E.01442
G1 X113.07 Y98.135 E.01887
G1 X113.07 Y98.668 E.01673
G1 X114.829 Y100.428 E.07804
G1 X114.298 Y100.43 E.01666
G1 X113.07 Y99.202 E.05448
G1 X113.07 Y99.735 E.01673
G1 X113.765 Y100.43 E.03082
G1 X113.231 Y100.43 E.01673
G1 X112.9 Y100.099 E.01469
M204 P1000
G1 E-2.24 F4200
;WIPE_START
G1 F7200
G1 X113.231 Y100.43 E-.25955
G1 X113.765 Y100.43 E-.29558
G1 X113.309 Y99.975 E-.35686
;WIPE_END
G1 E-.048 F4200
G1 Z.4 F720
G1 X118.348 Y97.546 F9000
G1 Z.2 F720
G1 E3.2 F2400
M204 P800
G1 F1200
G1 X118.93 Y98.128 E.02581
G1 X118.93 Y98.661 E.01673
G1 X118.543 Y98.274 E.01718
G1 X118.5 Y98.596 E.01018
G1 X118.462 Y98.727 E.00427
G1 X118.93 Y99.195 E.02077
G1 X118.93 Y99.728 E.01673
G1 X118.309 Y99.107 E.02754
G1 X118.113 Y99.444 E.01223
G1 X118.93 Y100.262 E.03625
G1 X118.93 Y100.43 E.00528
G1 X118.565 Y100.43 E.01144
G1 X117.875 Y99.739 E.03063
G1 X117.703 Y99.916 E.00773
G1 X117.598 Y99.997 E.00413
G1 X118.032 Y100.43 E.01923
G1 X117.498 Y100.43 E.01673
G1 X117.158 Y100.089 E.01511
M204 P1000
G1 E-2.24 F4200
;WIPE_START
G1 F7200
G1 X117.498 Y100.43 E-.26707
G1 X118.032 Y100.43 E-.29558
G1 X117.598 Y99.997 E-.33974
G1 X117.612 Y99.986 E-.00961
;WIPE_END
G1 E-.048 F4200
G1 Z.4 F720
G1 X111.769 Y85.1 F9000
G1 Z.2 F720
G1 E3.2 F2400
M204 P800
G1 F1200
G1 X106.239 Y79.57 E.24526
G1 X105.706 Y79.57 E.01673
G1 X111.066 Y84.93 E.23773
G1 X110.533 Y84.93 E.01673
G1 X105.172 Y79.57 E.23773
G1 X104.639 Y79.57 E.01673
G1 X109.999 Y84.93 E.23773
G1 X109.466 Y84.93 E.01673
G1 X104.106 Y79.57 E.23773
G1 X103.572 Y79.57 E.01673
G1 X108.932 Y84.93 E.23773
G1 X108.399 Y84.93 E.01673
G1 X103.039 Y79.57 E.23773
G1 X102.505 Y79.57 E.01673
G1 X107.866 Y84.93 E.23773
G1 X107.332 Y84.93 E.01673
G1 X101.972 Y79.57 E.23773
G1 X101.439 Y79.57 E.01673
G1 X106.799 Y84.93 E.23773
G1 X106.266 Y84.93 E.01673
G1 X100.905 Y79.57 E.23773
G1 X100.372 Y79.57 E.01673
G1 X105.732 Y84.93 E.23773
G1 X105.199 Y84.93 E.01673
M73 P5 R23
G1 X99.839 Y79.57 E.23773
G1 X99.305 Y79.57 E.01673
G1 X104.665 Y84.93 E.23773
G1 X104.132 Y84.93 E.01673
G1 X98.772 Y79.57 E.23773
G1 X98.238 Y79.57 E.01673
G1 X103.599 Y84.93 E.23773
G1 X103.065 Y84.93 E.01673
G1 X97.705 Y79.57 E.23773
G1 X97.172 Y79.57 E.01673
G1 X102.532 Y84.93 E.23773
G1 X101.998 Y84.93 E.01673
G1 X96.638 Y79.57 E.23773
G1 X96.105 Y79.57 E.01673
G1 X101.465 Y84.93 E.23773
G1 X100.932 Y84.93 E.01673
G1 X95.571 Y79.57 E.23773
G1 X95.038 Y79.57 E.01673
G1 X100.398 Y84.93 E.23773
G1 X99.865 Y84.93 E.01673
G1 X94.505 Y79.57 E.23773
G1 X93.971 Y79.57 E.01673
G1 X99.332 Y84.93 E.23773
G1 X98.798 Y84.93 E.01673
G1 X93.438 Y79.57 E.23773
G1 X92.905 Y79.57 E.01673
G1 X98.265 Y84.93 E.23773
G1 X97.731 Y84.93 E.01673
G1 X92.371 Y79.57 E.23773
G1 X91.838 Y79.57 E.01673
G1 X97.198 Y84.93 E.23773
G1 X96.665 Y84.93 E.01673
G1 X91.304 Y79.57 E.23773
G1 X90.771 Y79.57 E.01673
G1 X96.131 Y84.93 E.23773
G1 X95.598 Y84.93 E.01673
G1 X90.238 Y79.57 E.23773
G1 X89.704 Y79.57 E.01673
G1 X95.064 Y84.93 E.23773
G1 X94.531 Y84.93 E.01673
G1 X89.171 Y79.57 E.23773
G1 X88.637 Y79.57 E.01673
G1 X93.998 Y84.93 E.23773
G1 X93.464 Y84.93 E.01673
G1 X88.104 Y79.57 E.23773
G1 X87.571 Y79.57 E.01673
G1 X92.931 Y84.93 E.23773
G1 X92.398 Y84.93 E.01673
G1 X87.037 Y79.57 E.23773
G1 X86.504 Y79.57 E.01673
G1 X91.864 Y84.93 E.23773
G1 X91.331 Y84.93 E.01673
G1 X85.97 Y79.57 E.23773
G1 X85.437 Y79.57 E.01673
G1 X90.797 Y84.93 E.23773
G1 X90.264 Y84.93 E.01673
G1 X84.904 Y79.57 E.23773
G1 X84.37 Y79.57 E.01673
G1 X89.731 Y84.93 E.23773
G1 X89.197 Y84.93 E.01673
G1 X83.837 Y79.57 E.23773
G1 X83.304 Y79.57 E.01673
G1 X88.664 Y84.93 E.23773
G1 X88.13 Y84.93 E.01673
G1 X82.77 Y79.57 E.23773
G1 X82.237 Y79.57 E.01673
G1 X87.597 Y84.93 E.23773
G1 X87.064 Y84.93 E.01673
G1 X81.703 Y79.57 E.23773
G1 X81.17 Y79.57 E.01673
M73 P6 R23
G1 X86.53 Y84.93 E.23773
G1 X85.997 Y84.93 E.01673
G1 X80.637 Y79.57 E.23773
G1 X80.103 Y79.57 E.01673
G1 X85.463 Y84.93 E.23773
G1 X84.93 Y84.93 E.01673
G1 X79.57 Y79.57 E.23773
G1 X79.036 Y79.57 E.01673
G1 X84.397 Y84.93 E.23773
G1 X83.863 Y84.93 E.01673
G1 X78.503 Y79.57 E.23773
G1 X77.97 Y79.57 E.01673
G1 X83.33 Y84.93 E.23773
G1 X82.797 Y84.93 E.01673
G1 X77.436 Y79.57 E.23773
G1 X76.903 Y79.57 E.01673
G1 X82.263 Y84.93 E.23773
G1 X81.73 Y84.93 E.01673
G1 X76.37 Y79.57 E.23773
G1 X75.836 Y79.57 E.01673
G1 X81.196 Y84.93 E.23773
G1 X80.663 Y84.93 E.01673
G1 X75.303 Y79.57 E.23773
G1 X74.769 Y79.57 E.01673
G1 X80.13 Y84.93 E.23773
G1 X79.596 Y84.93 E.01673
G1 X74.236 Y79.57 E.23773
G1 X73.703 Y79.57 E.01673
G1 X79.063 Y84.93 E.23773
G1 X78.529 Y84.93 E.01673
G1 X73.169 Y79.57 E.23773
G1 X72.636 Y79.57 E.01673
G1 X77.996 Y84.93 E.23773
G1 X77.463 Y84.93 E.01673
G1 X72.102 Y79.57 E.23773
G1 X71.569 Y79.57 E.01673
G1 X76.929 Y84.93 E.23773
G1 X76.396 Y84.93 E.01673
G1 X71.036 Y79.57 E.23773
G1 X70.502 Y79.57 E.01673
G1 X75.863 Y84.93 E.23773
G1 X75.329 Y84.93 E.01673
G1 X69.969 Y79.57 E.23773
G1 X69.436 Y79.57 E.01673
G1 X74.796 Y84.93 E.23773
G1 X74.262 Y84.93 E.01673
G1 X68.902 Y79.57 E.23773
G1 X68.369 Y79.57 E.01673
G1 X73.729 Y84.93 E.23773
G1 X73.196 Y84.93 E.01673
