; generated by PrusaSlicer 2.5.0+win64 on 2023-01-26 at 00:42:44 UTC


;
;

;
;
; 

; external perimeters extrusion width = 0.48mm
; perimeters extrusion width = 0.48mm
; infill extrusion width = 0.48mm
; solid infill extrusion width = 0.48mm
; top infill extrusion width = 0.40mm
; first layer extrusion width = 0.48mm

; external perimeters extrusion width = 0.48mm
; perimeters extrusion width = 0.48mm
; infill extrusion width = 0.48mm
; solid infill extrusion width = 0.48mm
; top infill extrusion width = 0.40mm
; first layer extrusion width = 0.48mm

; external perimeters extrusion width = 0.48mm
; perimeters extrusion width = 0.48mm
; infill extrusion width = 0.48mm
; solid infill extrusion width = 0.48mm
; top infill extrusion width = 0.40mm
; first layer extrusion width = 0.48mm

; external perimeters extrusion width = 0.48mm
; perimeters extrusion width = 0.48mm
; infill extrusion width = 0.48mm
; solid infill extrusion width = 0.48mm
; top infill extrusion width = 0.40mm
; first layer extrusion width = 0.48mm

; external perimeters extrusion width = 0.48mm
; perimeters extrusion width = 0.48mm
; infill extrusion width = 0.48mm
; solid infill extrusion width = 0.48mm
; top infill extrusion width = 0.40mm
; first layer extrusion width = 0.48mm

; external perimeters extrusion width = 0.48mm
; perimeters extrusion width = 0.48mm
; infill extrusion width = 0.48mm
; solid infill extrusion width = 0.48mm
; top infill extrusion width = 0.40mm
; first layer extrusion width = 0.48mm

; external perimeters extrusion width = 0.48mm
; perimeters extrusion width = 0.48mm
; infill extrusion width = 0.48mm
; solid infill extrusion width = 0.48mm
; top infill extrusion width = 0.40mm
; first layer extrusion width = 0.48mm

; external perimeters extrusion width = 0.48mm
; perimeters extrusion width = 0.48mm
; infill extrusion width = 0.48mm
; solid infill extrusion width = 0.48mm
; top infill extrusion width = 0.40mm
; first layer extrusion width = 0.48mm

; external perimeters extrusion width = 0.48mm
; perimeters extrusion width = 0.48mm
; infill extrusion width = 0.48mm
; solid infill extrusion width = 0.48mm
; top infill extrusion width = 0.40mm
; first layer extrusion width = 0.48mm

; external perimeters extrusion width = 0.48mm
; perimeters extrusion width = 0.48mm
; infill extrusion width = 0.48mm
; solid infill extrusion width = 0.48mm
; top infill extrusion width = 0.40mm
; first layer extrusion width = 0.48mm

; external perimeters extrusion width = 0.48mm
; perimeters extrusion width = 0.48mm
; infill extrusion width = 0.48mm
; solid infill extrusion width = 0.48mm
; top infill extrusion width = 0.40mm
; first layer extrusion width = 0.48mm

M107
;TYPE:Custom
;E7 Klipper start macro
M104 S0
M140 S0
PRINT_START EXTRUDER_TEMP=215 BED_TEMP=60
G21 ; set units to millimeters
G90 ; use absolute coordinates
M83 ; use relative distances for extrusion
M107
;LAYER_CHANGE
;Z:0.25
;HEIGHT:0.25
;BEFORE_LAYER_CHANGE
G92 E0.0
;0.25


G1 E-3.2 F4200
G1 Z.2 F1500
G1 Z.25
;AFTER_LAYER_CHANGE
;0.25
; printing object 20230124_external_speed_test_2.stl id:0 copy 0
G1 Z.45
G1 X160.355 Y191.914 F18000
G1 Z.25 F1500
G1 E3.2 F2400
M204 S5000
;TYPE:Perimeter
;WIDTH:0.479999
G1 F3600
G1 X158.623 Y191.8 E.07694
G1 X156.92 Y191.461 E.07694
G1 X155.276 Y190.903 E.07694
G1 X153.718 Y190.135 E.07694
G1 X152.275 Y189.171 E.07694
G1 X150.948 Y188.007 E.0782
G1 X64.922 Y101.981 E5.39117
G1 X63.758 Y100.654 E.0782
G1 X62.794 Y99.211 E.07694
G1 X62.026 Y97.653 E.07694
G1 X61.468 Y96.009 E.07694
G1 X61.129 Y94.306 E.07694
G1 X61.015 Y92.574 E.07694
G1 X61.129 Y90.841 E.07694
G1 X61.468 Y89.138 E.07694
G1 X62.026 Y87.494 E.07694
G1 X62.794 Y85.937 E.07694
G1 X63.758 Y84.493 E.07694
G1 X64.922 Y83.166 E.0782
G1 X89.645 Y58.443 E1.54935
G1 X185.078 Y153.877 E5.98073
G1 X186.242 Y155.204 E.0782
G1 X187.206 Y156.647 E.07694
G1 X187.974 Y158.205 E.07694
G1 X188.532 Y159.849 E.07694
G1 X188.871 Y161.552 E.07694
G1 X188.985 Y163.284 E.07694
G1 X188.871 Y165.017 E.07694
G1 X188.532 Y166.72 E.07694
G1 X187.974 Y168.364 E.07694
G1 X187.206 Y169.921 E.07694
G1 X186.242 Y171.365 E.07694
G1 X185.078 Y172.692 E.0782
G1 X169.763 Y188.007 E.95979
G1 X168.436 Y189.171 E.0782
G1 X166.992 Y190.135 E.07694
G1 X165.435 Y190.903 E.07694
G1 X163.791 Y191.461 E.07694
G1 X162.088 Y191.8 E.07694
G1 X160.415 Y191.91 E.07428
G1 X160.348 Y192.34 F18000
;TYPE:External perimeter
G1 F3600
G1 X158.567 Y192.224 E.07908
G1 X156.809 Y191.874 E.07942
G1 X155.112 Y191.298 E.07942
G1 X153.505 Y190.505 E.07942
G1 X152.015 Y189.509 E.07942
G1 X150.656 Y188.318 E.08006
G1 X64.611 Y102.273 E5.39241
G1 X63.419 Y100.914 E.08006
G1 X62.424 Y99.424 E.07942
G1 X61.631 Y97.817 E.07942
G1 X61.055 Y96.12 E.07942
G1 X60.705 Y94.362 E.07942
G1 X60.588 Y92.574 E.07942
G1 X60.705 Y90.785 E.07942
G1 X61.055 Y89.027 E.07942
G1 X61.631 Y87.33 E.07942
G1 X62.424 Y85.723 E.07942
G1 X63.419 Y84.233 E.07942
G1 X64.611 Y82.875 E.08006
G1 X89.645 Y57.841 E1.56886
G1 X185.389 Y153.585 E6.00024
G1 X186.581 Y154.944 E.08006
G1 X187.576 Y156.434 E.07942
G1 X188.369 Y158.041 E.07942
G1 X188.945 Y159.738 E.07942
G1 X189.295 Y161.496 E.07942
G1 X189.412 Y163.284 E.07942
G1 X189.295 Y165.073 E.07942
G1 X188.945 Y166.83 E.07942
G1 X188.369 Y168.527 E.07942
G1 X187.576 Y170.135 E.07942
G1 X186.581 Y171.625 E.07942
G1 X185.389 Y172.983 E.08006
G1 X170.054 Y188.318 E.96103
G1 X168.696 Y189.509 E.08006
G1 X167.206 Y190.505 E.07942
G1 X165.599 Y191.298 E.07942
G1 X163.901 Y191.874 E.07942
G1 X162.144 Y192.224 E.07942
G1 X160.408 Y192.337 E.0771
G1 X160.148 Y191.994 F18000
G1 E-2.24 F4200
;WIPE_START
G1 F14400
G1 X158.567 Y192.224 E-.51099
G1 X157.148 Y191.941 E-.40101
;WIPE_END
G1 E-.048 F4200
G1 Z.45 F1500
G1 X186.364 Y155.617 F18000
G1 Z.25 F1500
G1 E3.2 F2400
;TYPE:Solid infill
;WIDTH:0.482704
G1 F3600
G1 X89.644 Y58.897 E6.09984
G1 X89.34 Y59.2 E.01913
G1 X186.89 Y156.75 E6.15217
G1 X187.501 Y157.967 E.06071
G1 X89.037 Y59.503 E6.20979
G1 X88.734 Y59.807 E.01913
G1 X187.896 Y158.969 E6.25387
G1 X188.208 Y159.888 E.04326
G1 X88.43 Y60.11 E6.29267
G1 X88.127 Y60.414 E.01913
G1 X188.366 Y160.653 E6.32179
G1 X188.517 Y161.411 E.03444
G1 X87.823 Y60.717 E6.35043
G1 X87.52 Y61.02 E.01913
G1 X188.586 Y162.086 E6.37389
G1 X188.628 Y162.735 E.02902
G1 X87.217 Y61.324 E6.39571
G1 X86.913 Y61.627 E.01913
G1 X188.658 Y163.372 E6.41675
G1 X188.621 Y163.942 E.02545
G1 X86.61 Y61.931 E6.43353
G1 X86.306 Y62.234 E.01913
G1 X188.584 Y164.511 E6.45031
G1 X188.535 Y165.069 E.02497
G1 X86.003 Y62.537 E6.46635
G1 X85.7 Y62.841 E.01913
G1 X188.434 Y165.575 E6.47913
G1 X188.333 Y166.081 E.02301
G1 X85.396 Y63.144 E6.49192
G1 X85.093 Y63.447 E.01913
G1 X188.233 Y166.587 E6.5047
G1 X188.084 Y167.045 E.02148
G1 X84.789 Y63.751 E6.51446
G1 X84.486 Y64.054 E.01913
G1 X187.93 Y167.498 E6.5239
G1 X187.777 Y167.951 E.02133
G1 X84.183 Y64.358 E6.53334
G1 X83.879 Y64.661 E.01913
G1 X187.606 Y168.388 E6.54171
G1 X187.406 Y168.794 E.02021
G1 X83.576 Y64.964 E6.54821
G1 X83.273 Y65.268 E.01913
G1 X187.205 Y169.2 E6.5547
G1 X187.005 Y169.607 E.02021
G1 X82.969 Y65.571 E6.5612
G1 X82.666 Y65.875 E.01913
G1 X186.778 Y169.987 E6.56602
G1 X186.535 Y170.35 E.01951
G1 X82.362 Y66.178 E6.56983
G1 X82.059 Y66.481 E.01913
G1 X186.292 Y170.714 E6.57364
G1 X186.049 Y171.078 E.01951
G1 X81.756 Y66.785 E6.57744
G1 X81.452 Y67.088 E.01913
G1 X185.776 Y171.411 E6.57934
G1 X185.492 Y171.735 E.01917
G1 X81.149 Y67.391 E6.58059
G1 X80.845 Y67.695 E.01913
G1 X185.209 Y172.058 E6.58185
G1 X184.925 Y172.381 E.01917
G1 X80.542 Y67.998 E6.5831
G1 X80.239 Y68.302 E.01913
G1 X184.627 Y172.69 E6.58346
G1 X184.324 Y172.994 E.01913
G1 X79.935 Y68.605 E6.58346
G1 X79.632 Y68.908 E.01913
G1 X184.021 Y173.297 E6.58346
G1 X183.717 Y173.6 E.01913
G1 X79.329 Y69.212 E6.58346
G1 X79.025 Y69.515 E.01913
G1 X183.414 Y173.904 E6.58346
G1 X183.11 Y174.207 E.01913
G1 X78.722 Y69.819 E6.58346
G1 X78.418 Y70.122 E.01913
G1 X182.807 Y174.511 E6.58346
G1 X182.504 Y174.814 E.01913
G1 X78.115 Y70.425 E6.58346
G1 X77.812 Y70.729 E.01913
G1 X182.2 Y175.117 E6.58346
G1 X181.897 Y175.421 E.01913
G1 X77.508 Y71.032 E6.58346
G1 X77.205 Y71.336 E.01913
G1 X181.593 Y175.724 E6.58346
G1 X181.29 Y176.028 E.01913
G1 X76.901 Y71.639 E6.58346
G1 X76.598 Y71.942 E.01913
G1 X180.987 Y176.331 E6.58346
G1 X180.683 Y176.634 E.01913
G1 X76.295 Y72.246 E6.58346
G1 X75.991 Y72.549 E.01913
G1 X180.38 Y176.938 E6.58346
G1 X180.076 Y177.241 E.01913
G1 X75.688 Y72.852 E6.58346
G1 X75.384 Y73.156 E.01913
G1 X179.773 Y177.544 E6.58346
G1 X179.47 Y177.848 E.01913
G1 X75.081 Y73.459 E6.58346
G1 X74.778 Y73.763 E.01913
G1 X179.166 Y178.151 E6.58346
G1 X178.863 Y178.455 E.01913
G1 X74.474 Y74.066 E6.58346
G1 X74.171 Y74.369 E.01913
G1 X178.56 Y178.758 E6.58346
G1 X178.256 Y179.061 E.01913
G1 X73.868 Y74.673 E6.58346
G1 X73.564 Y74.976 E.01913
G1 X177.953 Y179.365 E6.58346
G1 X177.649 Y179.668 E.01913
G1 X73.261 Y75.28 E6.58346
G1 X72.957 Y75.583 E.01913
G1 X177.346 Y179.972 E6.58346
G1 X177.043 Y180.275 E.01913
G1 X72.654 Y75.886 E6.58346
G1 X72.351 Y76.19 E.01913
G1 X176.739 Y180.578 E6.58346
G1 X176.436 Y180.882 E.01913
G1 X72.047 Y76.493 E6.58346
G1 X71.744 Y76.796 E.01913
G1 X176.132 Y181.185 E6.58346
G1 X175.829 Y181.488 E.01913
G1 X71.44 Y77.1 E6.58346
G1 X71.137 Y77.403 E.01913
G1 X175.526 Y181.792 E6.58346
G1 X175.222 Y182.095 E.01913
G1 X70.834 Y77.707 E6.58346
G1 X70.53 Y78.01 E.01913
G1 X174.919 Y182.399 E6.58346
G1 X174.616 Y182.702 E.01913
G1 X70.227 Y78.313 E6.58346
G1 X69.924 Y78.617 E.01913
G1 X174.312 Y183.005 E6.58346
G1 X174.009 Y183.309 E.01913
G1 X69.62 Y78.92 E6.58346
G1 X69.317 Y79.224 E.01913
G1 X173.705 Y183.612 E6.58346
G1 X173.402 Y183.916 E.01913
G1 X69.013 Y79.527 E6.58346
G1 X68.71 Y79.83 E.01913
G1 X173.099 Y184.219 E6.58346
G1 X172.795 Y184.522 E.01913
G1 X68.407 Y80.134 E6.58346
G1 X68.103 Y80.437 E.01913
G1 X172.492 Y184.826 E6.58346
G1 X172.188 Y185.129 E.01913
G1 X67.8 Y80.741 E6.58346
G1 X67.496 Y81.044 E.01913
G1 X171.885 Y185.433 E6.58346
G1 X171.582 Y185.736 E.01913
G1 X67.193 Y81.347 E6.58346
G1 X66.89 Y81.651 E.01913
G1 X171.278 Y186.039 E6.58346
G1 X170.975 Y186.343 E.01913
G1 X66.586 Y81.954 E6.58346
G1 X66.283 Y82.257 E.01913
G1 X170.671 Y186.646 E6.58346
G1 X170.368 Y186.949 E.01913
G1 X65.979 Y82.561 E6.58346
G1 X65.676 Y82.864 E.01913
G1 X170.065 Y187.253 E6.58346
G1 X169.761 Y187.556 E.01913
G1 X65.373 Y83.168 E6.58346
G1 X65.155 Y83.385 E.0137
G1 X65.075 Y83.477 E.00545
G1 X169.452 Y187.854 E6.58275
G1 X169.129 Y188.137 E.01917
G1 X64.791 Y83.8 E6.58024
G1 X64.508 Y84.123 E.01917
G1 X168.806 Y188.421 E6.57773
G1 X168.482 Y188.704 E.01917
G1 X64.224 Y84.446 E6.57522
G1 X63.951 Y84.78 E.01923
G1 X168.149 Y188.978 E6.57142
G1 X167.785 Y189.221 E.01951
G1 X63.708 Y85.144 E6.56381
G1 X63.465 Y85.507 E.01951
G1 X167.422 Y189.464 E6.5562
G1 X167.058 Y189.707 E.01951
G1 X63.222 Y85.871 E6.54859
G1 X63.071 Y86.097 E.0121
G1 X62.995 Y86.251 E.00767
G1 X166.678 Y189.934 E6.53893
G1 X166.271 Y190.134 E.02021
G1 X62.795 Y86.657 E6.52594
G1 X62.594 Y87.064 E.02021
G1 X165.865 Y190.335 E6.51295
G1 X165.459 Y190.535 E.02021
G1 X62.394 Y87.47 E6.49996
G1 X62.322 Y87.617 E.00727
G1 X62.223 Y87.906 E.01365
G1 X165.023 Y190.705 E6.48321
G1 X164.57 Y190.859 E.02133
G1 X62.07 Y88.359 E6.46434
G1 X61.916 Y88.812 E.02133
G1 X164.117 Y191.013 E6.44547
G1 X163.658 Y191.162 E.02148
G1 X61.767 Y89.271 E6.42594
G1 X61.667 Y89.777 E.02301
G1 X163.152 Y191.262 E6.40037
G1 X162.646 Y191.363 E.02301
G1 X61.566 Y90.283 E6.3748
G1 X61.465 Y90.789 E.02301
G1 X162.14 Y191.464 E6.34923
G1 X161.582 Y191.513 E.02497
G1 X61.416 Y91.347 E6.31715
G1 X61.379 Y91.916 E.02545
G1 X161.013 Y191.55 E6.2836
G1 X160.443 Y191.587 E.02545
G1 X61.342 Y92.486 E6.25004
G1 X61.372 Y93.123 E.02844
G1 X159.806 Y191.557 E6.20796
G1 X159.157 Y191.515 E.02902
G1 X61.414 Y93.772 E6.16432
G1 X61.447 Y94.264 E.02201
G1 X61.483 Y94.447 E.00832
G1 X158.482 Y191.446 E6.11739
G1 X157.724 Y191.295 E.03444
G1 X61.634 Y95.205 E6.06012
G1 X61.792 Y95.97 E.03484
G1 X156.959 Y191.137 E6.00189
G1 X156.041 Y190.825 E.04326
G1 X62.104 Y96.888 E5.92429
G1 X62.322 Y97.531 E.03025
G1 X62.499 Y97.891 E.0179
G1 X155.038 Y190.429 E5.83612
G1 X153.821 Y189.819 E.06071
G1 X63.11 Y99.108 E5.72089
G1 X64.013 Y100.459 E.07248
G1 X65.141 Y101.746 E.07634
G1 X152.688 Y189.293 E5.52129
; stop printing object 20230124_external_speed_test_2.stl id:0 copy 0
M106 S84.15
;LAYER_CHANGE
;Z:0.45
;HEIGHT:0.2
;BEFORE_LAYER_CHANGE
G92 E0.0
;0.45


G1 E-2.24 F4200
;WIPE_START
G1 F14400
G1 X150.361 Y186.965 E-.912
;WIPE_END
G1 E-.048 F4200
G1 Z.45 F1500
;AFTER_LAYER_CHANGE
;0.45
M140 S60 ; set bed temperature
; printing object 20230124_external_speed_test_2.stl id:0 copy 0
G1 Z.65
G1 X160.355 Y192.103 F18000
G1 Z.45 F1500
G1 E3.2 F2400
;TYPE:Perimeter
;WIDTH:0.479999
G1 F6000
G1 X158.598 Y191.988 E.064
G1 X156.871 Y191.644 E.06401
G1 X155.203 Y191.078 E.06401
G1 X153.624 Y190.299 E.064
G1 X152.159 Y189.321 E.06401
G1 X150.818 Y188.145 E.06481
G1 X64.784 Y102.11 E4.42194
G1 X63.608 Y100.77 E.06481
G1 X62.629 Y99.305 E.06401
G1 X61.851 Y97.726 E.064
G1 X61.285 Y96.059 E.06399
G1 X60.94 Y94.318 E.06447
G1 X60.826 Y92.574 E.06355
G1 X60.941 Y90.816 E.064
G1 X61.284 Y89.089 E.06401
G1 X61.851 Y87.421 E.06401
G1 X62.63 Y85.842 E.064
G1 X63.608 Y84.377 E.06401
G1 X64.784 Y83.037 E.06481
G1 X89.645 Y58.176 E1.27778
G1 X185.216 Y153.747 E4.91211
G1 X186.392 Y155.088 E.06481
G1 X187.37 Y156.552 E.06401
G1 X188.149 Y158.132 E.064
G1 X188.716 Y159.8 E.06401
G1 X189.059 Y161.527 E.06401
G1 X189.174 Y163.284 E.064
G1 X189.059 Y165.042 E.064
G1 X188.716 Y166.769 E.06401
G1 X188.149 Y168.437 E.06401
G1 X187.37 Y170.016 E.06401
G1 X186.392 Y171.48 E.06401
G1 X185.216 Y172.821 E.06481
G1 X169.892 Y188.145 E.78761
G1 X168.551 Y189.321 E.06481
G1 X167.087 Y190.299 E.06401
G1 X165.508 Y191.078 E.064
G1 X163.84 Y191.644 E.064
G1 X162.113 Y191.988 E.06401
G1 X160.415 Y192.099 E.06182
G1 X160.334 Y192.54 F18000
;TYPE:External perimeter
G1 F4800
G1 X158.541 Y192.422 E.06532
G1 X156.757 Y192.068 E.06609
G1 X155.035 Y191.483 E.06609
G1 X153.405 Y190.679 E.06609
G1 X151.893 Y189.668 E.06609
G1 X150.519 Y188.464 E.06637
G1 X64.465 Y102.409 E4.42298
G1 X63.26 Y101.036 E.06637
G1 X62.25 Y99.524 E.06609
G1 X61.446 Y97.894 E.06609
G1 X60.861 Y96.172 E.06608
G1 X60.506 Y94.375 E.06655
G1 X60.388 Y92.574 E.06562
G1 X60.507 Y90.759 E.06609
G1 X60.861 Y88.976 E.06609
G1 X61.446 Y87.254 E.06609
G1 X62.25 Y85.623 E.06609
G1 X63.26 Y84.111 E.06609
G1 X64.465 Y82.738 E.06637
G1 X89.645 Y57.558 E1.29418
G1 X185.535 Y153.448 E4.92851
G1 X186.74 Y154.821 E.06637
G1 X187.75 Y156.333 E.06609
G1 X188.554 Y157.964 E.06609
G1 X189.139 Y159.686 E.06609
G1 X189.493 Y161.47 E.06609
G1 X189.612 Y163.284 E.06609
G1 X189.493 Y165.099 E.06609
G1 X189.139 Y166.882 E.06609
G1 X188.554 Y168.604 E.06609
G1 X187.75 Y170.235 E.06609
G1 X186.74 Y171.747 E.06609
G1 X185.535 Y173.12 E.06637
G1 X170.191 Y188.464 E.78865
G1 X168.818 Y189.669 E.06637
G1 X167.306 Y190.679 E.06609
G1 X165.675 Y191.483 E.06609
G1 X163.953 Y192.068 E.06609
G1 X162.17 Y192.422 E.06609
G1 X160.394 Y192.539 E.06467
G1 X160.135 Y192.193 F18000
G1 E-2.24 F4200
;WIPE_START
G1 F14400
G1 X158.541 Y192.422 E-.51457
G1 X157.134 Y192.142 E-.39743
;WIPE_END
G1 E-.048 F4200
G1 Z.65 F1500
G1 X186.42 Y171.21 F18000
G1 Z.45 F1500
G1 E3.2 F2400
;TYPE:Top solid infill
;WIDTH:0.400576
G1 F4800
G1 X169.692 Y187.938 E.70355
G1 X168.376 Y189.092 E.05204
G1 X167.339 Y189.785 E.03707
G1 X186.856 Y170.268 E.82082
G1 X187.121 Y169.872 E.01418
G1 X187.485 Y169.133 E.02448
G1 X166.205 Y190.414 E.895
G1 X165.397 Y190.812 E.02677
G1 X165.251 Y190.862 E.00459
G1 X187.933 Y168.18 E.95394
G1 X188.193 Y167.414 E.02405
G1 X164.485 Y191.121 E.99707
G1 X163.728 Y191.373 E.02375
G1 X188.444 Y166.656 E1.03953
G1 X188.57 Y166.025 E.01914
G1 X163.096 Y191.499 E1.07137
G1 X162.465 Y191.625 E.01914
G1 X188.696 Y165.394 E1.10321
G1 X188.773 Y165.004 E.01182
G1 X188.787 Y164.797 E.00617
G1 X161.868 Y191.716 E1.13214
G1 X161.327 Y191.751 E.01613
G1 X188.822 Y164.256 E1.1564
