; generated by PrusaSlicer 2.5.0+win64 on 2023-02-20 at 06:46:16 UTC


;
;

;
;
; 

; external perimeters extrusion width = 0.40mm
; perimeters extrusion width = 0.40mm
; infill extrusion width = 0.40mm
; solid infill extrusion width = 0.40mm
; top infill extrusion width = 0.48mm
; first layer extrusion width = 0.40mm

M107
;TYPE:Custom
;E7 Klipper start macro
M104 S0
M140 S0
PRINT_START EXTRUDER_TEMP=215 BED_TEMP=60
G21 ; set units to millimeters
G90 ; use absolute coordinates
M83 ; use relative distances for extrusion
M107
;LAYER_CHANGE
;Z:0.25
;HEIGHT:0.25
;BEFORE_LAYER_CHANGE
G92 E0.0
;0.25


G1 E-3.2 F4200
G1 Z.25 F1500
;AFTER_LAYER_CHANGE
;0.25
; printing object 20200120_Flow_Calibration_Solid.stl id:0 copy 0
G1 X100.4 Y100.4 F18000
G1 E3.2 F2400
;TYPE:External perimeter
;WIDTH:0.399999
G1 F3000
G1 X149.6 Y100.4 E1.77114
G1 X149.6 Y149.6 E1.77114
G1 X100.4 Y149.6 E1.77114
G1 X100.4 Y100.46 E1.76898
G1 E-2.24 F4200
;WIPE_START
G1 F14400
G1 X103.691 Y100.456 E-.912
;WIPE_END
G1 E-.048 F4200
G1 X148.795 Y100.504 F18000
G1 E3.2 F2400
;TYPE:Solid infill
;WIDTH:0.400322
G1 F3000
G1 X149.34 Y101.049 E.02777
G1 X149.34 Y101.539 E.01767
G1 X148.461 Y100.66 E.04481
G1 X147.971 Y100.66 E.01767
G1 X149.34 Y102.029 E.06979
G1 X149.34 Y102.52 E.01767
G1 X147.48 Y100.66 E.09478
G1 X146.99 Y100.66 E.01767
G1 X149.34 Y103.01 E.11976
G1 X149.34 Y103.5 E.01767
G1 X146.5 Y100.66 E.14474
G1 X146.01 Y100.66 E.01767
G1 X149.34 Y103.99 E.16973
G1 X149.34 Y104.481 E.01767
G1 X145.519 Y100.66 E.19471
G1 X145.029 Y100.66 E.01767
G1 X149.34 Y104.971 E.21969
G1 X149.34 Y105.461 E.01767
G1 X144.539 Y100.66 E.24467
G1 X144.048 Y100.66 E.01767
G1 X149.34 Y105.952 E.26966
G1 X149.34 Y106.442 E.01767
G1 X143.558 Y100.66 E.29464
G1 X143.068 Y100.66 E.01767
G1 X149.34 Y106.932 E.31962
G1 X149.34 Y107.422 E.01767
G1 X142.578 Y100.66 E.34461
G1 X142.087 Y100.66 E.01767
G1 X149.34 Y107.913 E.36959
G1 X149.34 Y108.403 E.01767
G1 X141.597 Y100.66 E.39457
G1 X141.107 Y100.66 E.01767
G1 X149.34 Y108.893 E.41955
G1 X149.34 Y109.383 E.01767
G1 X140.617 Y100.66 E.44454
G1 X140.126 Y100.66 E.01767
G1 X149.34 Y109.874 E.46952
G1 X149.34 Y110.364 E.01767
G1 X139.636 Y100.66 E.4945
G1 X139.146 Y100.66 E.01767
G1 X149.34 Y110.854 E.51949
G1 X149.34 Y111.345 E.01767
G1 X138.655 Y100.66 E.54447
G1 X138.165 Y100.66 E.01767
G1 X149.34 Y111.835 E.56945
G1 X149.34 Y112.325 E.01767
G1 X137.675 Y100.66 E.59443
G1 X137.185 Y100.66 E.01767
G1 X149.34 Y112.815 E.61942
G1 X149.34 Y113.306 E.01767
G1 X136.694 Y100.66 E.6444
G1 X136.204 Y100.66 E.01767
G1 X149.34 Y113.796 E.66938
G1 X149.34 Y114.286 E.01767
G1 X135.714 Y100.66 E.69437
G1 X135.224 Y100.66 E.01767
G1 X149.34 Y114.776 E.71935
G1 X149.34 Y115.267 E.01767
G1 X134.733 Y100.66 E.74433
G1 X134.243 Y100.66 E.01767
G1 X149.34 Y115.757 E.76931
G1 X149.34 Y116.247 E.01767
G1 X133.753 Y100.66 E.7943
G1 X133.263 Y100.66 E.01767
G1 X149.34 Y116.737 E.81928
G1 X149.34 Y117.228 E.01767
G1 X132.772 Y100.66 E.84426
G1 X132.282 Y100.66 E.01767
G1 X149.34 Y117.718 E.86924
G1 X149.34 Y118.208 E.01767
G1 X131.792 Y100.66 E.89423
G1 X131.301 Y100.66 E.01767
G1 X149.34 Y118.699 E.91921
G1 X149.34 Y119.189 E.01767
G1 X130.811 Y100.66 E.94419
G1 X130.321 Y100.66 E.01767
G1 X149.34 Y119.679 E.96918
G1 X149.34 Y120.169 E.01767
G1 X129.831 Y100.66 E.99416
G1 X129.34 Y100.66 E.01767
G1 X149.34 Y120.66 E1.01914
G1 X149.34 Y121.15 E.01767
G1 X128.85 Y100.66 E1.04412
G1 X128.36 Y100.66 E.01767
G1 X149.34 Y121.64 E1.06911
G1 X149.34 Y122.13 E.01767
G1 X127.87 Y100.66 E1.09409
G1 X127.379 Y100.66 E.01767
G1 X149.34 Y122.621 E1.11907
G1 X149.34 Y123.111 E.01767
G1 X126.889 Y100.66 E1.14406
G1 X126.399 Y100.66 E.01767
G1 X149.34 Y123.601 E1.16904
G1 X149.34 Y124.091 E.01767
G1 X125.909 Y100.66 E1.19402
G1 X125.418 Y100.66 E.01767
G1 X149.34 Y124.582 E1.219
G1 X149.34 Y125.072 E.01767
G1 X124.928 Y100.66 E1.24399
G1 X124.438 Y100.66 E.01767
G1 X149.34 Y125.562 E1.26897
G1 X149.34 Y126.053 E.01767
G1 X123.947 Y100.66 E1.29395
G1 X123.457 Y100.66 E.01767
G1 X149.34 Y126.543 E1.31894
G1 X149.34 Y127.033 E.01767
G1 X122.967 Y100.66 E1.34392
G1 X122.477 Y100.66 E.01767
G1 X149.34 Y127.523 E1.3689
G1 X149.34 Y128.014 E.01767
G1 X121.986 Y100.66 E1.39388
G1 X121.496 Y100.66 E.01767
G1 X149.34 Y128.504 E1.41887
G1 X149.34 Y128.994 E.01767
G1 X121.006 Y100.66 E1.44385
G1 X120.516 Y100.66 E.01767
G1 X149.34 Y129.484 E1.46883
G1 X149.34 Y129.975 E.01767
G1 X120.025 Y100.66 E1.49382
G1 X119.535 Y100.66 E.01767
G1 X149.34 Y130.465 E1.5188
G1 X149.34 Y130.955 E.01767
G1 X119.045 Y100.66 E1.54378
G1 X118.554 Y100.66 E.01767
G1 X149.34 Y131.446 E1.56876
G1 X149.34 Y131.936 E.01767
G1 X118.064 Y100.66 E1.59375
G1 X117.574 Y100.66 E.01767
G1 X149.34 Y132.426 E1.61873
G1 X149.34 Y132.916 E.01767
G1 X117.084 Y100.66 E1.64371
G1 X116.593 Y100.66 E.01767
G1 X149.34 Y133.407 E1.6687
G1 X149.34 Y133.897 E.01767
G1 X116.103 Y100.66 E1.69368
G1 X115.613 Y100.66 E.01767
G1 X149.34 Y134.387 E1.71866
G1 X149.34 Y134.877 E.01767
G1 X115.123 Y100.66 E1.74364
G1 X114.632 Y100.66 E.01767
G1 X149.34 Y135.368 E1.76863
G1 X149.34 Y135.858 E.01767
G1 X114.142 Y100.66 E1.79361
G1 X113.652 Y100.66 E.01767
G1 X149.34 Y136.348 E1.81859
G1 X149.34 Y136.838 E.01767
G1 X113.162 Y100.66 E1.84357
G1 X112.671 Y100.66 E.01767
G1 X149.34 Y137.329 E1.86856
G1 X149.34 Y137.819 E.01767
G1 X112.181 Y100.66 E1.89354
G1 X111.691 Y100.66 E.01767
G1 X149.34 Y138.309 E1.91852
G1 X149.34 Y138.8 E.01767
G1 X111.2 Y100.66 E1.94351
G1 X110.71 Y100.66 E.01767
G1 X149.34 Y139.29 E1.96849
G1 X149.34 Y139.78 E.01767
G1 X110.22 Y100.66 E1.99347
G1 X109.73 Y100.66 E.01767
G1 X149.34 Y140.27 E2.01845
G1 X149.34 Y140.761 E.01767
G1 X109.239 Y100.66 E2.04344
G1 X108.749 Y100.66 E.01767
G1 X149.34 Y141.251 E2.06842
G1 X149.34 Y141.741 E.01767
G1 X108.259 Y100.66 E2.0934
G1 X107.769 Y100.66 E.01767
G1 X149.34 Y142.231 E2.11839
G1 X149.34 Y142.722 E.01767
G1 X107.278 Y100.66 E2.14337
G1 X106.788 Y100.66 E.01767
G1 X149.34 Y143.212 E2.16835
G1 X149.34 Y143.702 E.01767
G1 X106.298 Y100.66 E2.19333
G1 X105.808 Y100.66 E.01767
G1 X149.34 Y144.192 E2.21832
G1 X149.34 Y144.683 E.01767
G1 X105.317 Y100.66 E2.2433
G1 X104.827 Y100.66 E.01767
G1 X149.34 Y145.173 E2.26828
G1 X149.34 Y145.663 E.01767
G1 X104.337 Y100.66 E2.29327
G1 X103.846 Y100.66 E.01767
G1 X149.34 Y146.154 E2.31825
G1 X149.34 Y146.644 E.01767
G1 X103.356 Y100.66 E2.34323
G1 X102.866 Y100.66 E.01767
G1 X149.34 Y147.134 E2.36821
G1 X149.34 Y147.624 E.01767
G1 X102.376 Y100.66 E2.3932
G1 X101.885 Y100.66 E.01767
G1 X149.34 Y148.115 E2.41818
G1 X149.34 Y148.605 E.01767
G1 X101.395 Y100.66 E2.44316
G1 X100.905 Y100.66 E.01767
G1 X149.34 Y149.095 E2.46815
G1 X149.34 Y149.34 E.00883
G1 X149.095 Y149.34 E.00883
G1 X100.66 Y100.905 E2.46814
G1 X100.66 Y101.395 E.01767
G1 X148.605 Y149.34 E2.44316
G1 X148.115 Y149.34 E.01767
G1 X100.66 Y101.885 E2.41818
G1 X100.66 Y102.376 E.01767
G1 X147.624 Y149.34 E2.39319
G1 X147.134 Y149.34 E.01767
G1 X100.66 Y102.866 E2.36821
G1 X100.66 Y103.356 E.01767
G1 X146.644 Y149.34 E2.34323
G1 X146.153 Y149.34 E.01767
G1 X100.66 Y103.847 E2.31824
G1 X100.66 Y104.337 E.01767
G1 X145.663 Y149.34 E2.29326
G1 X145.173 Y149.34 E.01767
G1 X100.66 Y104.827 E2.26828
G1 X100.66 Y105.317 E.01767
G1 X144.683 Y149.34 E2.2433
G1 X144.192 Y149.34 E.01767
G1 X100.66 Y105.808 E2.21831
G1 X100.66 Y106.298 E.01767
G1 X143.702 Y149.34 E2.19333
G1 X143.212 Y149.34 E.01767
G1 X100.66 Y106.788 E2.16835
G1 X100.66 Y107.278 E.01767
G1 X142.722 Y149.34 E2.14336
G1 X142.231 Y149.34 E.01767
G1 X100.66 Y107.769 E2.11838
G1 X100.66 Y108.259 E.01767
G1 X141.741 Y149.34 E2.0934
G1 X141.251 Y149.34 E.01767
G1 X100.66 Y108.749 E2.06842
G1 X100.66 Y109.239 E.01767
G1 X140.761 Y149.34 E2.04343
G1 X140.27 Y149.34 E.01767
G1 X100.66 Y109.73 E2.01845
G1 X100.66 Y110.22 E.01767
G1 X139.78 Y149.34 E1.99347
G1 X139.29 Y149.34 E.01767
G1 X100.66 Y110.71 E1.96848
G1 X100.66 Y111.201 E.01767
G1 X138.799 Y149.34 E1.9435
G1 X138.309 Y149.34 E.01767
G1 X100.66 Y111.691 E1.91852
G1 X100.66 Y112.181 E.01767
G1 X137.819 Y149.34 E1.89354
G1 X137.329 Y149.34 E.01767
G1 X100.66 Y112.671 E1.86855
G1 X100.66 Y113.162 E.01767
G1 X136.838 Y149.34 E1.84357
G1 X136.348 Y149.34 E.01767
G1 X100.66 Y113.652 E1.81859
G1 X100.66 Y114.142 E.01767
G1 X135.858 Y149.34 E1.7936
G1 X135.368 Y149.34 E.01767
G1 X100.66 Y114.632 E1.76862
G1 X100.66 Y115.123 E.01767
G1 X134.877 Y149.34 E1.74364
G1 X134.387 Y149.34 E.01767
G1 X100.66 Y115.613 E1.71866
G1 X100.66 Y116.103 E.01767
G1 X133.897 Y149.34 E1.69367
G1 X133.406 Y149.34 E.01767
G1 X100.66 Y116.594 E1.66869
G1 X100.66 Y117.084 E.01767
G1 X132.916 Y149.34 E1.64371
G1 X132.426 Y149.34 E.01767
G1 X100.66 Y117.574 E1.61872
G1 X100.66 Y118.064 E.01767
G1 X131.936 Y149.34 E1.59374
G1 X131.445 Y149.34 E.01767
G1 X100.66 Y118.555 E1.56876
G1 X100.66 Y119.045 E.01767
G1 X130.955 Y149.34 E1.54378
G1 X130.465 Y149.34 E.01767
G1 X100.66 Y119.535 E1.51879
G1 X100.66 Y120.025 E.01767
G1 X129.975 Y149.34 E1.49381
G1 X129.484 Y149.34 E.01767
G1 X100.66 Y120.516 E1.46883
G1 X100.66 Y121.006 E.01767
G1 X128.994 Y149.34 E1.44385
G1 X128.504 Y149.34 E.01767
G1 X100.66 Y121.496 E1.41886
G1 X100.66 Y121.986 E.01767
G1 X128.014 Y149.34 E1.39388
G1 X127.523 Y149.34 E.01767
G1 X100.66 Y122.477 E1.3689
G1 X100.66 Y122.967 E.01767
G1 X127.033 Y149.34 E1.34391
G1 X126.543 Y149.34 E.01767
G1 X100.66 Y123.457 E1.31893
G1 X100.66 Y123.948 E.01767
G1 X126.052 Y149.34 E1.29395
G1 X125.562 Y149.34 E.01767
G1 X100.66 Y124.438 E1.26897
G1 X100.66 Y124.928 E.01767
G1 X125.072 Y149.34 E1.24398
G1 X124.582 Y149.34 E.01767
G1 X100.66 Y125.418 E1.219
G1 X100.66 Y125.909 E.01767
G1 X124.091 Y149.34 E1.19402
G1 X123.601 Y149.34 E.01767
G1 X100.66 Y126.399 E1.16903
G1 X100.66 Y126.889 E.01767
G1 X123.111 Y149.34 E1.14405
G1 X122.621 Y149.34 E.01767
G1 X100.66 Y127.379 E1.11907
G1 X100.66 Y127.87 E.01767
G1 X122.13 Y149.34 E1.09409
G1 X121.64 Y149.34 E.01767
G1 X100.66 Y128.36 E1.0691
G1 X100.66 Y128.85 E.01767
G1 X121.15 Y149.34 E1.04412
G1 X120.66 Y149.34 E.01767
G1 X100.66 Y129.34 E1.01914
G1 X100.66 Y129.831 E.01767
G1 X120.169 Y149.34 E.99415
G1 X119.679 Y149.34 E.01767
G1 X100.66 Y130.321 E.96917
G1 X100.66 Y130.811 E.01767
G1 X119.189 Y149.34 E.94419
G1 X118.698 Y149.34 E.01767
G1 X100.66 Y131.302 E.91921
G1 X100.66 Y131.792 E.01767
G1 X118.208 Y149.34 E.89422
G1 X117.718 Y149.34 E.01767
G1 X100.66 Y132.282 E.86924
G1 X100.66 Y132.772 E.01767
G1 X117.228 Y149.34 E.84426
G1 X116.737 Y149.34 E.01767
G1 X100.66 Y133.263 E.81927
G1 X100.66 Y133.753 E.01767
G1 X116.247 Y149.34 E.79429
G1 X115.757 Y149.34 E.01767
G1 X100.66 Y134.243 E.76931
G1 X100.66 Y134.733 E.01767
G1 X115.267 Y149.34 E.74433
G1 X114.776 Y149.34 E.01767
G1 X100.66 Y135.224 E.71934
G1 X100.66 Y135.714 E.01767
G1 X114.286 Y149.34 E.69436
G1 X113.796 Y149.34 E.01767
G1 X100.66 Y136.204 E.66938
G1 X100.66 Y136.695 E.01767
G1 X113.305 Y149.34 E.64439
G1 X112.815 Y149.34 E.01767
G1 X100.66 Y137.185 E.61941
G1 X100.66 Y137.675 E.01767
G1 X112.325 Y149.34 E.59443
G1 X111.835 Y149.34 E.01767
G1 X100.66 Y138.165 E.56945
G1 X100.66 Y138.656 E.01767
G1 X111.344 Y149.34 E.54446
G1 X110.854 Y149.34 E.01767
G1 X100.66 Y139.146 E.51948
G1 X100.66 Y139.636 E.01767
G1 X110.364 Y149.34 E.4945
G1 X109.874 Y149.34 E.01767
G1 X100.66 Y140.126 E.46951
G1 X100.66 Y140.617 E.01767
G1 X109.383 Y149.34 E.44453
G1 X108.893 Y149.34 E.01767
G1 X100.66 Y141.107 E.41955
G1 X100.66 Y141.597 E.01767
G1 X108.403 Y149.34 E.39457
G1 X107.913 Y149.34 E.01767
G1 X100.66 Y142.087 E.36958
G1 X100.66 Y142.578 E.01767
G1 X107.422 Y149.34 E.3446
G1 X106.932 Y149.34 E.01767
G1 X100.66 Y143.068 E.31962
G1 X100.66 Y143.558 E.01767
G1 X106.442 Y149.34 E.29464
G1 X105.951 Y149.34 E.01767
G1 X100.66 Y144.049 E.26965
G1 X100.66 Y144.539 E.01767
G1 X105.461 Y149.34 E.24467
G1 X104.971 Y149.34 E.01767
G1 X100.66 Y145.029 E.21969
G1 X100.66 Y145.519 E.01767
G1 X104.481 Y149.34 E.1947
G1 X103.99 Y149.34 E.01767
G1 X100.66 Y146.01 E.16972
G1 X100.66 Y146.5 E.01767
G1 X103.5 Y149.34 E.14474
G1 X103.01 Y149.34 E.01767
G1 X100.66 Y146.99 E.11976
G1 X100.66 Y147.48 E.01767
G1 X102.52 Y149.34 E.09477
G1 X102.029 Y149.34 E.01767
G1 X100.66 Y147.971 E.06979
G1 X100.66 Y148.461 E.01767
G1 X101.539 Y149.34 E.04481
G1 X101.049 Y149.34 E.01767
G1 X100.504 Y148.795 E.02777
; stop printing object 20200120_Flow_Calibration_Solid.stl id:0 copy 0
M106 S84.15
;LAYER_CHANGE
;Z:0.45
;HEIGHT:0.2
;BEFORE_LAYER_CHANGE
G92 E0.0
;0.45


G1 E-2.24 F4200
;WIPE_START
G1 F14400
G1 X101.049 Y149.34 E-.21352
G1 X101.539 Y149.34 E-.13585
G1 X100.66 Y148.461 E-.34456
G1 X100.66 Y147.971 E-.13585
G1 X100.87 Y148.181 E-.08223
;WIPE_END
G1 E-.048 F4200
G1 Z.45 F1500
;AFTER_LAYER_CHANGE
;0.45
M140 S60 ; set bed temperature
; printing object 20200120_Flow_Calibration_Solid.stl id:0 copy 0
G1 X100.2 Y149.8 F18000
G1 E3.2 F2400
;TYPE:External perimeter
;WIDTH:0.399999
G1 F6000
G1 X100.2 Y100.2 E1.47269
G1 X149.8 Y100.2 E1.47269
G1 X149.8 Y149.8 E1.47269
G1 X100.26 Y149.8 E1.4709
G1 E-2.24 F4200
;WIPE_START
G1 F14400
G1 X100.256 Y146.509 E-.912
;WIPE_END
G1 E-.048 F4200
G1 X149.693 Y148.968 F18000
G1 E3.2 F2400
;TYPE:Solid infill
;WIDTH:0.401343
G1 F9600
G1 X149.129 Y149.532 E.02377
G1 X148.622 Y149.532 E.01511
G1 X149.532 Y148.622 E.03836
G1 X149.532 Y148.115 E.01511
G1 X148.115 Y149.532 E.05973
G1 X147.608 Y149.532 E.01511
G1 X149.532 Y147.608 E.08109
G1 X149.532 Y147.101 E.01511
G1 X147.101 Y149.532 E.10246
G1 X146.594 Y149.532 E.01511
G1 X149.532 Y146.594 E.12382
G1 X149.532 Y146.088 E.01511
G1 X146.088 Y149.532 E.14518
G1 X145.581 Y149.532 E.01511
G1 X149.532 Y145.581 E.16655
G1 X149.532 Y145.074 E.01511
G1 X145.074 Y149.532 E.18791
G1 X144.567 Y149.532 E.01511
G1 X149.532 Y144.567 E.20928
G1 X149.532 Y144.06 E.01511
G1 X144.06 Y149.532 E.23064
G1 X143.553 Y149.532 E.01511
G1 X149.532 Y143.553 E.252
G1 X149.532 Y143.046 E.01511
G1 X143.046 Y149.532 E.27337
G1 X142.539 Y149.532 E.01511
G1 X149.532 Y142.539 E.29473
G1 X149.532 Y142.032 E.01511
G1 X142.032 Y149.532 E.3161
G1 X141.526 Y149.532 E.01511
G1 X149.532 Y141.526 E.33746
G1 X149.532 Y141.019 E.01511
G1 X141.019 Y149.532 E.35883
G1 X140.512 Y149.532 E.01511
G1 X149.532 Y140.512 E.38019
G1 X149.532 Y140.005 E.01511
G1 X140.005 Y149.532 E.40155
G1 X139.498 Y149.532 E.01511
G1 X149.532 Y139.498 E.42292
G1 X149.532 Y138.991 E.01511
G1 X138.991 Y149.532 E.44428
G1 X138.484 Y149.532 E.01511
G1 X149.532 Y138.484 E.46565
G1 X149.532 Y137.977 E.01511
G1 X137.977 Y149.532 E.48701
G1 X137.47 Y149.532 E.01511
G1 X149.532 Y137.47 E.50837
G1 X149.532 Y136.964 E.01511
G1 X136.964 Y149.532 E.52974
G1 X136.457 Y149.532 E.01511
G1 X149.532 Y136.457 E.5511
G1 X149.532 Y135.95 E.01511
G1 X135.95 Y149.532 E.57247
G1 X135.443 Y149.532 E.01511
G1 X149.532 Y135.443 E.59383
G1 X149.532 Y134.936 E.01511
G1 X134.936 Y149.532 E.6152
G1 X134.429 Y149.532 E.01511
G1 X149.532 Y134.429 E.63656
G1 X149.532 Y133.922 E.01511
G1 X133.922 Y149.532 E.65792
G1 X133.415 Y149.532 E.01511
G1 X149.532 Y133.415 E.67929
G1 X149.532 Y132.909 E.01511
G1 X132.908 Y149.532 E.70065
G1 X132.402 Y149.532 E.01511
G1 X149.532 Y132.402 E.72202
G1 X149.532 Y131.895 E.01511
G1 X131.895 Y149.532 E.74338
G1 X131.388 Y149.532 E.01511
G1 X149.532 Y131.388 E.76474
G1 X149.532 Y130.881 E.01511
G1 X130.881 Y149.532 E.78611
G1 X130.374 Y149.532 E.01511
G1 X149.532 Y130.374 E.80747
G1 X149.532 Y129.867 E.01511
G1 X129.867 Y149.532 E.82884
G1 X129.36 Y149.532 E.01511
G1 X149.532 Y129.36 E.8502
G1 X149.532 Y128.853 E.01511
G1 X128.853 Y149.532 E.87157
G1 X128.347 Y149.532 E.01511
G1 X149.532 Y128.347 E.89293
G1 X149.532 Y127.84 E.01511
G1 X127.84 Y149.532 E.91429
G1 X127.333 Y149.532 E.01511
G1 X149.532 Y127.333 E.93566
G1 X149.532 Y126.826 E.01511
G1 X126.826 Y149.532 E.95702
G1 X126.319 Y149.532 E.01511
G1 X149.532 Y126.319 E.97839
G1 X149.532 Y125.812 E.01511
G1 X125.812 Y149.532 E.99975
G1 X125.305 Y149.532 E.01511
G1 X149.532 Y125.305 E1.02111
G1 X149.532 Y124.798 E.01511
G1 X124.798 Y149.532 E1.04248
G1 X124.291 Y149.532 E.01511
G1 X149.532 Y124.291 E1.06384
G1 X149.532 Y123.785 E.01511
