; generated by PrusaSlicer 2.5.0+win64 on 2023-02-20 at 06:50:12 UTC


;
;

;
;
; 

; external perimeters extrusion width = 0.48mm
; perimeters extrusion width = 0.48mm
; infill extrusion width = 0.48mm
; solid infill extrusion width = 0.48mm
; top infill extrusion width = 0.48mm
; first layer extrusion width = 0.48mm

M107
;TYPE:Custom
;E7 Klipper start macro
M104 S0
M140 S0
PRINT_START EXTRUDER_TEMP=215 BED_TEMP=60
G21 ; set units to millimeters
G90 ; use absolute coordinates
M83 ; use relative distances for extrusion
M107
;LAYER_CHANGE
;Z:0.25
;HEIGHT:0.25
;BEFORE_LAYER_CHANGE
G92 E0.0
;0.25


G1 E-3.2 F4200
G1 Z.25 F1500
;AFTER_LAYER_CHANGE
;0.25
; printing object 20230216_ADXL345_Mount.stl id:0 copy 0
G1 X152.513 Y135.634 F18000
G1 E3.2 F2400
;TYPE:Perimeter
;WIDTH:0.479999
G1 F3000
G1 X151.553 Y135.657 E.04259
;WIDTH:0.432394
G1 X151 Y135.674 E.02176
G1 X150.447 Y135.657 E.02176
;WIDTH:0.479999
G1 X149.782 Y135.634 E.02949
G1 X147.866 Y135.634 E.0849
G1 X147.866 Y134.317 E.05834
;WIDTH:0.520694
G1 X147.887 Y134.171 E.00717
;WIDTH:0.561388
G1 X147.907 Y134.024 E.0078
;WIDTH:0.602082
G1 X147.927 Y133.878 E.00842
;WIDTH:0.642776
G1 X147.948 Y133.732 E.00905
;WIDTH:0.68347
G1 X147.968 Y133.585 E.00967
G1 X147.951 Y133 E.03833
G1 X147.968 Y132.415 E.03833
G1 X147.944 Y132.321 E.00632
;WIDTH:0.635494
G1 X147.92 Y132.228 E.00584
;WIDTH:0.587517
G1 X147.896 Y132.134 E.00536
;WIDTH:0.53954
G1 X147.881 Y131.909 E.01142
;WIDTH:0.50977
G1 X147.866 Y131.683 E.01072
;WIDTH:0.479999
G1 X147.866 Y120.773 E.48345
G1 X147.848 Y120.619 E.00687
G1 X147.715 Y120.36 E.01291
G1 X147.508 Y120.199 E.01161
G1 X147.227 Y120.134 E.0128
G1 X102.663 Y120.143 E1.97481
G1 X102.376 Y120.272 E.0139
G1 X102.206 Y120.478 E.01188
G1 X102.134 Y120.773 E.01346
G1 X102.134 Y131.363 E.46928
;WIDTH:0.509768
G1 X102.119 Y131.749 E.01829
;WIDTH:0.539537
G1 X102.104 Y132.134 E.01949
;WIDTH:0.587515
G1 X102.08 Y132.228 E.00536
;WIDTH:0.635492
G1 X102.056 Y132.321 E.00584
;WIDTH:0.683469
G1 X102.032 Y132.415 E.00632
G1 X102.049 Y133 E.03833
G1 X102.032 Y133.585 E.03833
G1 X102.052 Y133.679 E.00626
;WIDTH:0.643635
G1 X102.072 Y133.772 E.00586
;WIDTH:0.603801
G1 X102.092 Y133.866 E.00547
;WIDTH:0.563967
G1 X102.113 Y134.091 E.01202
;WIDTH:0.521983
G1 X102.134 Y134.317 E.01103
;WIDTH:0.479999
G1 X102.134 Y135.634 E.05834
G1 X100.218 Y135.634 E.0849
G1 X99.553 Y135.657 E.02949
;WIDTH:0.432394
G1 X99 Y135.674 E.02176
G1 X98.447 Y135.657 E.02176
;WIDTH:0.479999
G1 X97.782 Y135.634 E.02949
G1 X95.866 Y135.634 E.0849
G1 X95.866 Y134.317 E.05834
;WIDTH:0.520693
G1 X95.887 Y134.171 E.00717
;WIDTH:0.561387
G1 X95.907 Y134.024 E.0078
;WIDTH:0.602081
G1 X95.927 Y133.878 E.00842
;WIDTH:0.642775
G1 X95.948 Y133.732 E.00905
;WIDTH:0.683469
G1 X95.968 Y133.585 E.00967
G1 X95.951 Y133 E.03833
G1 X95.968 Y132.415 E.03833
G1 X95.944 Y132.321 E.00632
;WIDTH:0.635492
G1 X95.92 Y132.228 E.00584
;WIDTH:0.587515
G1 X95.896 Y132.134 E.00536
;WIDTH:0.539538
G1 X95.881 Y131.909 E.01142
;WIDTH:0.509769
G1 X95.866 Y131.683 E.01072
;WIDTH:0.479999
G1 X95.866 Y114.366 E.76736
G1 X154.134 Y114.366 E2.58205
G1 X154.134 Y118.007 E.16133
G1 X154.134 Y131.363 E.59186
;WIDTH:0.509771
G1 X154.119 Y131.749 E.01829
;WIDTH:0.539542
G1 X154.104 Y132.134 E.01949
;WIDTH:0.587518
G1 X154.08 Y132.228 E.00536
;WIDTH:0.635494
G1 X154.056 Y132.321 E.00584
;WIDTH:0.683471
G1 X154.032 Y132.415 E.00632
G1 X154.049 Y133 E.03833
G1 X154.032 Y133.585 E.03833
G1 X154.052 Y133.679 E.00626
;WIDTH:0.643638
G1 X154.072 Y133.772 E.00586
;WIDTH:0.603805
G1 X154.092 Y133.866 E.00547
;WIDTH:0.563971
G1 X154.113 Y134.091 E.01202
;WIDTH:0.521985
G1 X154.134 Y134.317 E.01103
;WIDTH:0.479999
G1 X154.134 Y135.634 E.05834
G1 X152.573 Y135.634 E.06914
G1 E-2.24 F4200
;WIPE_START
G1 F14400
G1 X151.553 Y135.657 E-.28293
G1 X151 Y135.674 E-.15316
G1 X150.447 Y135.657 E-.15316
G1 X149.782 Y135.634 E-.18441
G1 X149.283 Y135.634 E-.13832
;WIPE_END
G1 E-.048 F4200
G1 X154.56 Y136.06 F18000
G1 E3.2 F2400
;TYPE:External perimeter
G1 F3000
G1 X147.44 Y136.06 E.31551
G1 X147.44 Y120.773 E.67742
G1 X147.389 Y120.635 E.0065
G1 X147.227 Y120.56 E.00795
G1 X102.736 Y120.563 E1.97154
G1 X102.611 Y120.635 E.00643
G1 X102.56 Y120.773 E.0065
G1 X102.56 Y136.06 E.67742
G1 X95.44 Y136.06 E.31551
G1 X95.44 Y113.94 E.98022
G1 X154.56 Y113.94 E2.61983
G1 X154.56 Y136 E.97756
G1 X154.163 Y136.012 F18000
G1 E-2.24 F4200
;WIPE_START
G1 F14400
G1 X151.269 Y136.028 E-.912
;WIPE_END
G1 E-.048 F4200
G1 X152.618 Y134.704 F18000
G1 E3.2 F2400
;TYPE:Perimeter
G1 F3000
G1 X152.254 Y135.005 E.02093
G1 X151.687 Y135.249 E.02734
;WIDTH:0.455396
G1 X151.383 Y135.287 E.01281
;WIDTH:0.429105
G1 X151.078 Y135.325 E.01197
;WIDTH:0.432394
G1 X150.472 Y135.28 E.02393
;WIDTH:0.479999
G1 X149.891 Y135.088 E.02713
G1 X149.388 Y134.73 E.02735
G1 X148.995 Y134.254 E.02735
;WIDTH:0.521985
G1 X148.848 Y133.981 E.01509
;WIDTH:0.563971
G1 X148.7 Y133.708 E.01645
;WIDTH:0.603804
G1 X148.665 Y133.654 E.00372
;WIDTH:0.643637
G1 X148.63 Y133.599 E.00398
;WIDTH:0.68347
G1 X148.595 Y133.544 E.00425
G1 X148.547 Y133 E.03576
G1 X148.595 Y132.456 E.03576
G1 X148.659 Y132.343 E.00848
;WIDTH:0.642776
G1 X148.722 Y132.23 E.00793
;WIDTH:0.602082
G1 X148.785 Y132.117 E.00738
;WIDTH:0.561388
G1 X148.849 Y132.004 E.00684
;WIDTH:0.520694
G1 X148.912 Y131.891 E.00629
;WIDTH:0.479999
G1 X149.27 Y131.388 E.02735
G1 X149.747 Y130.995 E.02737
G1 X150.374 Y130.726 E.03027
G1 X150.917 Y130.637 E.02435
G1 X151.531 Y130.696 E.02735
G1 X152.109 Y130.912 E.02735
G1 X152.612 Y131.27 E.02735
G1 X153.005 Y131.746 E.02735
;WIDTH:0.509771
G1 X153.146 Y132.021 E.01467
;WIDTH:0.539542
G1 X153.288 Y132.296 E.01563
;WIDTH:0.587518
G1 X153.327 Y132.35 E.00365
;WIDTH:0.635494
G1 X153.366 Y132.403 E.00398
;WIDTH:0.68347
G1 X153.405 Y132.456 E.00431
G1 X153.453 Y133 E.03576
;WIDTH:0.683471
G1 X153.405 Y133.544 E.03576
G1 X153.341 Y133.657 E.00848
;WIDTH:0.642777
G1 X153.278 Y133.77 E.00793
;WIDTH:0.602083
G1 X153.215 Y133.883 E.00738
;WIDTH:0.561388
G1 X153.151 Y133.996 E.00684
;WIDTH:0.520694
G1 X153.088 Y134.109 E.00629
;WIDTH:0.479999
G1 X152.73 Y134.612 E.02735
G1 X152.664 Y134.666 E.00376
G1 X152.352 Y134.392 F18000
;TYPE:External perimeter
G1 F3000
G1 X151.946 Y134.694 E.02245
G1 X151.475 Y134.881 E.02245
G1 X150.972 Y134.94 E.02245
G1 X150.471 Y134.867 E.02245
G1 X150.006 Y134.666 E.02245
G1 X149.608 Y134.352 E.02245
G1 X149.306 Y133.946 E.02245
G1 X149.119 Y133.475 E.02245
G1 X149.06 Y132.972 E.02245
G1 X149.133 Y132.471 E.02245
G1 X149.334 Y132.006 E.02245
G1 X149.648 Y131.608 E.02245
G1 X150.06 Y131.304 E.02271
G1 X150.527 Y131.124 E.02218
G1 X151.028 Y131.06 E.02238
G1 X151.529 Y131.133 E.02245
G1 X151.994 Y131.334 E.02245
G1 X152.392 Y131.648 E.02245
G1 X152.694 Y132.054 E.02245
G1 X152.881 Y132.525 E.02245
G1 X152.942 Y133 E.02123
G1 X152.867 Y133.529 E.02368
G1 X152.666 Y133.994 E.02245
G1 X152.389 Y134.344 E.01979
G1 X152.45 Y134.779 F18000
G1 E-2.24 F4200
;WIPE_START
G1 F14400
G1 X151.946 Y134.694 E-.15647
G1 X151.475 Y134.881 E-.14035
G1 X150.972 Y134.94 E-.14035
G1 X150.471 Y134.867 E-.14035
G1 X150.006 Y134.666 E-.14035
G1 X149.608 Y134.352 E-.14035
G1 X149.493 Y134.197 E-.05378
;WIPE_END
G1 E-.048 F4200
G1 X99.589 Y135.261 F18000
G1 E3.2 F2400
;TYPE:Perimeter
;WIDTH:0.455395
G1 F3000
G1 X99.383 Y135.287 E.00868
;WIDTH:0.429105
G1 X99.078 Y135.325 E.01197
;WIDTH:0.432394
G1 X98.472 Y135.28 E.02393
;WIDTH:0.479999
G1 X97.891 Y135.088 E.02713
G1 X97.388 Y134.73 E.02735
G1 X96.995 Y134.254 E.02735
;WIDTH:0.521985
G1 X96.848 Y133.981 E.01509
;WIDTH:0.56397
G1 X96.7 Y133.708 E.01645
;WIDTH:0.603803
G1 X96.665 Y133.654 E.00372
;WIDTH:0.643636
G1 X96.63 Y133.599 E.00398
;WIDTH:0.683469
G1 X96.595 Y133.544 E.00425
G1 X96.547 Y133 E.03576
G1 X96.595 Y132.456 E.03576
G1 X96.659 Y132.343 E.00848
;WIDTH:0.642775
G1 X96.722 Y132.23 E.00793
;WIDTH:0.602081
G1 X96.785 Y132.117 E.00738
;WIDTH:0.561387
G1 X96.849 Y132.004 E.00684
;WIDTH:0.520693
G1 X96.912 Y131.891 E.00629
;WIDTH:0.479999
G1 X97.27 Y131.388 E.02735
G1 X97.747 Y130.995 E.02737
G1 X98.374 Y130.726 E.03027
G1 X98.917 Y130.637 E.02435
G1 X99.531 Y130.696 E.02735
G1 X100.109 Y130.912 E.02735
G1 X100.612 Y131.27 E.02735
G1 X101.005 Y131.746 E.02735
;WIDTH:0.509768
G1 X101.146 Y132.021 E.01467
;WIDTH:0.539537
G1 X101.288 Y132.296 E.01563
;WIDTH:0.587515
G1 X101.327 Y132.35 E.00365
;WIDTH:0.635492
G1 X101.366 Y132.403 E.00398
;WIDTH:0.683469
G1 X101.405 Y132.456 E.00431
G1 X101.453 Y133 E.03576
G1 X101.405 Y133.544 E.03576
G1 X101.341 Y133.657 E.00848
;WIDTH:0.642775
G1 X101.278 Y133.77 E.00793
;WIDTH:0.602081
G1 X101.215 Y133.883 E.00738
;WIDTH:0.561387
G1 X101.151 Y133.996 E.00684
;WIDTH:0.520693
G1 X101.088 Y134.109 E.00629
;WIDTH:0.479999
G1 X100.73 Y134.612 E.02735
G1 X100.254 Y135.005 E.02735
G1 X99.687 Y135.249 E.02734
;WIDTH:0.455395
G1 X99.649 Y135.254 E.00163
G1 X99.529 Y134.867 F18000
;TYPE:External perimeter
;WIDTH:0.479999
G1 F3000
G1 X99.028 Y134.94 E.02245
G1 X98.525 Y134.881 E.02245
G1 X98.054 Y134.694 E.02245
G1 X97.648 Y134.392 E.02245
G1 X97.334 Y133.994 E.02245
G1 X97.133 Y133.529 E.02245
G1 X97.06 Y133.028 E.02245
G1 X97.119 Y132.525 E.02245
G1 X97.306 Y132.054 E.02245
G1 X97.608 Y131.648 E.02245
G1 X98.006 Y131.333 E.02246
G1 X98.527 Y131.124 E.02487
G1 X99.028 Y131.06 E.02238
G1 X99.529 Y131.133 E.02245
G1 X99.946 Y131.306 E.02
G1 X100.352 Y131.608 E.02245
G1 X100.666 Y132.006 E.02245
G1 X100.867 Y132.471 E.02245
G1 X100.94 Y132.972 E.02245
G1 X100.881 Y133.475 E.02245
G1 X100.694 Y133.946 E.02245
G1 X100.392 Y134.352 E.02245
G1 X99.994 Y134.666 E.02245
G1 X99.584 Y134.843 E.01979
G1 X99.431 Y135.255 F18000
G1 E-2.24 F4200
;WIPE_START
G1 F14400
G1 X99.028 Y134.94 E-.15647
G1 X98.525 Y134.881 E-.14035
G1 X98.054 Y134.694 E-.14035
G1 X97.648 Y134.392 E-.14035
G1 X97.334 Y133.994 E-.14035
G1 X97.133 Y133.529 E-.14035
G1 X97.105 Y133.337 E-.05378
;WIPE_END
G1 E-.048 F4200
G1 X101.277 Y134.058 F18000
G1 E3.2 F2400
;TYPE:Solid infill
;WIDTH:0.557317
G1 F3000
G1 X101.814 Y134.595 E.03975
G1 X101.814 Y135.307 E.03729
G1 X101.127 Y134.62 E.05088
G1 X100.979 Y134.812 E.01268
G1 X100.79 Y134.996 E.01379
G1 X101.3 Y135.506 E.03776
G1 E-2.24 F4200
;WIPE_START
G1 F14400
G1 X100.79 Y134.996 E-.19986
G1 X100.979 Y134.812 E-.07301
G1 X101.127 Y134.62 E-.06713
G1 X101.814 Y135.307 E-.26929
G1 X101.814 Y134.595 E-.19736
G1 X101.545 Y134.326 E-.10535
;WIPE_END
G1 E-.048 F4200
G1 X97.777 Y135.33 F18000
G1 E3.2 F2400
;WIDTH:0.565269
G1 F3000
G1 X96.294 Y133.846 E.11156
G1 X96.265 Y133.901 E.00329
G1 X96.186 Y134.327 E.02304
G1 X96.186 Y134.462 E.00717
G1 X97.038 Y135.314 E.06409
G1 X96.315 Y135.314 E.03848
G1 X95.994 Y134.993 E.02411
G1 E-2.24 F4200
;WIPE_START
G1 F14400
G1 X96.315 Y135.314 E-.12561
G1 X97.038 Y135.314 E-.20048
G1 X96.186 Y134.462 E-.33395
G1 X96.186 Y134.327 E-.03734
G1 X96.265 Y133.901 E-.12004
G1 X96.294 Y133.846 E-.01717
G1 X96.492 Y134.044 E-.07742
;WIPE_END
G1 E-.048 F4200
G1 X149.777 Y135.33 F18000
G1 E3.2 F2400
G1 F3000
G1 X148.294 Y133.846 E.11156
G1 X148.265 Y133.901 E.00329
G1 X148.186 Y134.327 E.02304
G1 X148.186 Y134.462 E.00717
G1 X149.038 Y135.314 E.06409
G1 X148.315 Y135.314 E.03848
G1 X147.994 Y134.993 E.02411
G1 E-2.24 F4200
;WIPE_START
G1 F14400
G1 X148.315 Y135.314 E-.12561
G1 X149.038 Y135.314 E-.20048
G1 X148.186 Y134.462 E-.33395
G1 X148.186 Y134.327 E-.03734
G1 X148.265 Y133.901 E-.12004
G1 X148.294 Y133.846 E-.01717
G1 X148.492 Y134.044 E-.07742
;WIPE_END
G1 E-.048 F4200
G1 X153.277 Y134.058 F18000
G1 E3.2 F2400
;WIDTH:0.55732
G1 F3000
G1 X153.814 Y134.595 E.03975
G1 X153.814 Y135.307 E.03729
G1 X153.127 Y134.62 E.05088
G1 X152.979 Y134.812 E.01268
G1 X152.79 Y134.996 E.01379
G1 X153.3 Y135.506 E.03776
G1 E-2.24 F4200
;WIPE_START
G1 F14400
G1 X152.79 Y134.996 E-.19986
G1 X152.979 Y134.812 E-.07301
G1 X153.127 Y134.62 E-.06713
G1 X153.814 Y135.307 E-.26929
G1 X153.814 Y134.595 E-.19737
G1 X153.545 Y134.326 E-.10535
;WIPE_END
G1 E-.048 F4200
G1 X153.138 Y114.494 F18000
G1 E3.2 F2400
;WIDTH:0.48297
G1 F3000
G1 X153.814 Y115.171 E.04268
G1 X153.814 Y115.778 E.02709
G1 X152.722 Y114.686 E.06889
G1 X152.115 Y114.686 E.02709
G1 X153.814 Y116.385 E.1072
G1 X153.814 Y116.992 E.02709
G1 X151.508 Y114.686 E.14552
G1 X150.901 Y114.686 E.02709
G1 X153.814 Y117.599 E.18383
G1 X153.814 Y118.206 E.02709
G1 X150.294 Y114.686 E.22215
G1 X149.687 Y114.686 E.02709
G1 X153.814 Y118.813 E.26046
G1 X153.814 Y119.421 E.02709
G1 X149.079 Y114.686 E.29878
G1 X148.472 Y114.686 E.02709
G1 X153.814 Y120.028 E.33709
G1 X153.814 Y120.635 E.02709
G1 X147.865 Y114.686 E.3754
G1 X147.258 Y114.686 E.02709
G1 X153.814 Y121.242 E.41372
G1 X153.814 Y121.849 E.02709
G1 X146.651 Y114.686 E.45203
G1 X146.044 Y114.686 E.02709
G1 X153.814 Y122.456 E.49035
G1 X153.814 Y123.063 E.02709
G1 X145.437 Y114.686 E.52866
G1 X144.829 Y114.686 E.02709
G1 X153.814 Y123.671 E.56698
G1 X153.814 Y124.278 E.02709
G1 X144.222 Y114.686 E.60529
G1 X143.615 Y114.686 E.02709
G1 X153.814 Y124.885 E.64361
G1 X153.814 Y125.492 E.02709
G1 X143.008 Y114.686 E.68192
G1 X142.401 Y114.686 E.02709
G1 X153.814 Y126.099 E.72024
G1 X153.814 Y126.706 E.02709
G1 X148.186 Y121.079 E.35515
G1 X148.186 Y121.686 E.02709
G1 X153.814 Y127.314 E.35515
G1 X153.814 Y127.921 E.02709
G1 X148.186 Y122.293 E.35515
G1 X148.186 Y122.9 E.02709
G1 X153.814 Y128.528 E.35515
G1 X153.814 Y129.135 E.02709
G1 X148.186 Y123.507 E.35515
G1 X148.186 Y124.114 E.02709
G1 X153.814 Y129.742 E.35515
G1 X153.814 Y130.349 E.02709
G1 X148.186 Y124.721 E.35515
G1 X148.186 Y125.329 E.02709
G1 X153.814 Y130.956 E.35515
G1 X153.814 Y131.564 E.02709
G1 X148.186 Y125.936 E.35515
G1 X148.186 Y126.543 E.02709
G1 X153.896 Y132.253 E.36033
G1 E-2.24 F4200
;WIPE_START
G1 F14400
G1 X151.569 Y129.925 E-.912
;WIPE_END
G1 E-.048 F4200
G1 X151.627 Y130.591 F18000
G1 E3.2 F2400
G1 F3000
G1 X148.186 Y127.15 E.21717
G1 X148.186 Y127.757 E.02709
G1 X150.764 Y130.335 E.16266
G1 X150.472 Y130.373 E.01313
G1 X150.252 Y130.431 E.01012
G1 X148.186 Y128.364 E.13039
G1 X148.186 Y128.972 E.02709
G1 X149.813 Y130.599 E.1027
G1 X149.558 Y130.737 E.01295
G1 X149.437 Y130.83 E.0068
G1 X148.186 Y129.579 E.07895
G1 X148.186 Y130.186 E.02709
G1 X149.105 Y131.104 E.05796
G1 X148.83 Y131.437 E.01924
G1 X148.186 Y130.793 E.04063
G1 X148.186 Y131.4 E.02709
G1 X148.593 Y131.807 E.02569
G1 X148.402 Y132.139 E.01709
G1 X148.36 Y132.181 E.00265
G1 X148.014 Y131.835 E.02188
G1 E-2.24 F4200
;WIPE_START
G1 F14400
G1 X148.36 Y132.181 E-.13589
G1 X148.402 Y132.139 E-.01646
G1 X148.593 Y131.807 E-.10611
G1 X148.186 Y131.4 E-.15951
G1 X148.186 Y130.793 E-.16823
G1 X148.83 Y131.437 E-.25229
G1 X148.999 Y131.232 E-.07351
;WIPE_END
G1 E-.048 F4200
G1 X147.113 Y120.006 F18000
G1 E3.2 F2400
G1 F3000
G1 X141.794 Y114.686 E.3357
G1 X141.186 Y114.686 E.02709
G1 X146.314 Y119.814 E.3236
G1 X145.707 Y119.814 E.02709
G1 X140.579 Y114.686 E.3236
G1 X139.972 Y114.686 E.02709
G1 X145.1 Y119.814 E.3236
G1 X144.493 Y119.814 E.02709
G1 X139.365 Y114.686 E.3236
G1 X138.758 Y114.686 E.02709
G1 X143.886 Y119.814 E.3236
G1 X143.279 Y119.814 E.02709
G1 X138.151 Y114.686 E.3236
G1 X137.544 Y114.686 E.02709
G1 X142.671 Y119.814 E.3236
G1 X142.064 Y119.814 E.02709
G1 X136.936 Y114.686 E.3236
G1 X136.329 Y114.686 E.02709
G1 X141.457 Y119.814 E.3236
G1 X140.85 Y119.814 E.02709
G1 X135.722 Y114.686 E.3236
G1 X135.115 Y114.686 E.02709
G1 X140.243 Y119.814 E.3236
G1 X139.636 Y119.814 E.02709
G1 X134.508 Y114.686 E.3236
G1 X133.901 Y114.686 E.02709
G1 X139.028 Y119.814 E.3236
G1 X138.421 Y119.814 E.02709
G1 X133.294 Y114.686 E.3236
G1 X132.686 Y114.686 E.02709
G1 X137.814 Y119.814 E.3236
G1 X137.207 Y119.814 E.02709
G1 X132.079 Y114.686 E.3236
G1 X131.472 Y114.686 E.02709
G1 X136.6 Y119.814 E.3236
G1 X135.993 Y119.814 E.02709
G1 X130.865 Y114.686 E.3236
G1 X130.258 Y114.686 E.02709
G1 X135.386 Y119.814 E.3236
G1 X134.778 Y119.814 E.02709
G1 X129.651 Y114.686 E.3236
G1 X129.043 Y114.686 E.02709
G1 X134.171 Y119.814 E.3236
G1 X133.564 Y119.814 E.02709
G1 X128.436 Y114.686 E.3236
G1 X127.829 Y114.686 E.02709
G1 X132.957 Y119.814 E.3236
G1 X132.35 Y119.814 E.02709
