; generated by PrusaSlicer 2.5.0+win64 on 2023-02-20 at 06:48:20 UTC


;
;

;
;
; 

; external perimeters extrusion width = 0.48mm
; perimeters extrusion width = 0.48mm
; infill extrusion width = 0.48mm
; solid infill extrusion width = 0.48mm
; top infill extrusion width = 0.48mm
; first layer extrusion width = 0.48mm

; external perimeters extrusion width = 0.48mm
; perimeters extrusion width = 0.48mm
; infill extrusion width = 0.48mm
; solid infill extrusion width = 0.48mm
; top infill extrusion width = 0.48mm
; first layer extrusion width = 0.48mm

; external perimeters extrusion width = 0.48mm
; perimeters extrusion width = 0.48mm
; infill extrusion width = 0.48mm
; solid infill extrusion width = 0.48mm
; top infill extrusion width = 0.48mm
; first layer extrusion width = 0.48mm

; external perimeters extrusion width = 0.48mm
; perimeters extrusion width = 0.48mm
; infill extrusion width = 0.48mm
; solid infill extrusion width = 0.48mm
; top infill extrusion width = 0.48mm
; first layer extrusion width = 0.48mm

; external perimeters extrusion width = 0.48mm
; perimeters extrusion width = 0.48mm
; infill extrusion width = 0.48mm
; solid infill extrusion width = 0.48mm
; top infill extrusion width = 0.48mm
; first layer extrusion width = 0.48mm

; external perimeters extrusion width = 0.48mm
; perimeters extrusion width = 0.48mm
; infill extrusion width = 0.48mm
; solid infill extrusion width = 0.48mm
; top infill extrusion width = 0.48mm
; first layer extrusion width = 0.48mm

; external perimeters extrusion width = 0.48mm
; perimeters extrusion width = 0.48mm
; infill extrusion width = 0.48mm
; solid infill extrusion width = 0.48mm
; top infill extrusion width = 0.48mm
; first layer extrusion width = 0.48mm

; external perimeters extrusion width = 0.48mm
; perimeters extrusion width = 0.48mm
; infill extrusion width = 0.48mm
; solid infill extrusion width = 0.48mm
; top infill extrusion width = 0.48mm
; first layer extrusion width = 0.48mm

; external perimeters extrusion width = 0.48mm
; perimeters extrusion width = 0.48mm
; infill extrusion width = 0.48mm
; solid infill extrusion width = 0.48mm
; top infill extrusion width = 0.48mm
; first layer extrusion width = 0.48mm

; external perimeters extrusion width = 0.48mm
; perimeters extrusion width = 0.48mm
; infill extrusion width = 0.48mm
; solid infill extrusion width = 0.48mm
; top infill extrusion width = 0.48mm
; first layer extrusion width = 0.48mm

; external perimeters extrusion width = 0.48mm
; perimeters extrusion width = 0.48mm
; infill extrusion width = 0.48mm
; solid infill extrusion width = 0.48mm
; top infill extrusion width = 0.48mm
; first layer extrusion width = 0.48mm

M107
;TYPE:Custom
;E7 Klipper start macro
M104 S0
M140 S0
PRINT_START EXTRUDER_TEMP=215 BED_TEMP=60
G21 ; set units to millimeters
G90 ; use absolute coordinates
M83 ; use relative distances for extrusion
M107
;LAYER_CHANGE
;Z:0.25
;HEIGHT:0.25
;BEFORE_LAYER_CHANGE
G92 E0.0
;0.25


G1 E-3.2 F4200
G1 Z.25 F1500
;AFTER_LAYER_CHANGE
;0.25
; printing object 20230124_external_speed_test_2.stl id:0 copy 0
G1 X89.645 Y55.515 F18000
G1 E3.2 F2400
;TYPE:Perimeter
;WIDTH:0.479999
G1 F3000
G1 X185.078 Y150.948 E5.98073
G1 X186.242 Y152.275 E.0782
G1 X187.206 Y153.718 E.07694
G1 X187.974 Y155.276 E.07694
G1 X188.532 Y156.92 E.07694
G1 X188.871 Y158.623 E.07694
G1 X188.985 Y160.355 E.07694
G1 X188.871 Y162.088 E.07694
G1 X188.532 Y163.791 E.07694
G1 X187.974 Y165.435 E.07694
G1 X187.206 Y166.992 E.07694
G1 X186.242 Y168.436 E.07694
G1 X185.078 Y169.763 E.0782
G1 X169.763 Y185.078 E.95979
G1 X168.436 Y186.242 E.0782
G1 X166.992 Y187.206 E.07694
G1 X165.435 Y187.974 E.07694
G1 X163.791 Y188.532 E.07694
G1 X162.088 Y188.871 E.07694
G1 X160.355 Y188.985 E.07694
G1 X158.623 Y188.871 E.07694
G1 X156.92 Y188.532 E.07694
G1 X155.276 Y187.974 E.07694
G1 X153.718 Y187.206 E.07694
G1 X152.275 Y186.242 E.07694
G1 X150.948 Y185.078 E.0782
G1 X64.922 Y99.052 E5.39117
G1 X63.758 Y97.725 E.0782
G1 X62.794 Y96.282 E.07694
G1 X62.026 Y94.724 E.07694
G1 X61.468 Y93.08 E.07694
G1 X61.129 Y91.377 E.07694
G1 X61.015 Y89.645 E.07694
G1 X61.129 Y87.912 E.07694
G1 X61.468 Y86.209 E.07694
G1 X62.026 Y84.565 E.07694
G1 X62.794 Y83.008 E.07694
G1 X63.758 Y81.564 E.07694
G1 X64.922 Y80.237 E.0782
G1 X89.602 Y55.557 E1.54669
G1 X89.645 Y54.912 F18000
;TYPE:External perimeter
G1 F3000
G1 X185.389 Y150.656 E6.00024
G1 X186.581 Y152.015 E.08006
G1 X187.576 Y153.505 E.07942
G1 X188.369 Y155.112 E.07942
G1 X188.945 Y156.809 E.07942
G1 X189.295 Y158.567 E.07942
G1 X189.412 Y160.355 E.07942
G1 X189.295 Y162.144 E.07942
G1 X188.945 Y163.901 E.07942
G1 X188.369 Y165.599 E.07942
G1 X187.576 Y167.206 E.07942
G1 X186.581 Y168.696 E.07942
G1 X185.389 Y170.054 E.08006
G1 X170.054 Y185.389 E.96103
G1 X168.696 Y186.581 E.08006
G1 X167.206 Y187.576 E.07942
G1 X165.599 Y188.369 E.07942
G1 X163.901 Y188.945 E.07942
G1 X162.144 Y189.295 E.07942
G1 X160.355 Y189.412 E.07942
G1 X158.567 Y189.295 E.07942
G1 X156.809 Y188.945 E.07942
G1 X155.112 Y188.369 E.07942
G1 X153.505 Y187.576 E.07942
G1 X152.015 Y186.581 E.07942
G1 X150.656 Y185.389 E.08006
G1 X64.611 Y99.344 E5.39241
G1 X63.419 Y97.985 E.08006
G1 X62.424 Y96.495 E.07942
G1 X61.631 Y94.888 E.07942
G1 X61.055 Y93.191 E.07942
G1 X60.705 Y91.433 E.07942
G1 X60.588 Y89.645 E.07942
G1 X60.705 Y87.856 E.07942
G1 X61.055 Y86.099 E.07942
G1 X61.631 Y84.401 E.07942
G1 X62.424 Y82.794 E.07942
G1 X63.419 Y81.304 E.07942
G1 X64.611 Y79.946 E.08006
G1 X89.602 Y54.954 E1.5662
G1 X89.749 Y55.298 F18000
G1 E-2.24 F4200
;WIPE_START
G1 F14400
G1 X91.931 Y57.28 E-.912
;WIPE_END
G1 E-.048 F4200
G1 X186.364 Y152.688 F18000
G1 E3.2 F2400
;TYPE:Solid infill
;WIDTH:0.482704
G1 F3000
G1 X89.644 Y55.968 E6.09984
G1 X89.34 Y56.271 E.01913
G1 X186.89 Y153.821 E6.15217
G1 X187.501 Y155.038 E.06071
G1 X89.037 Y56.574 E6.20979
G1 X88.734 Y56.878 E.01913
G1 X187.896 Y156.041 E6.25387
G1 X188.208 Y156.959 E.04326
G1 X88.43 Y57.181 E6.29267
G1 X88.127 Y57.485 E.01913
G1 X188.366 Y157.724 E6.32179
G1 X188.517 Y158.482 E.03444
G1 X87.823 Y57.788 E6.35043
G1 X87.52 Y58.091 E.01913
G1 X188.586 Y159.157 E6.37389
G1 X188.628 Y159.806 E.02902
G1 X87.217 Y58.395 E6.39571
G1 X86.913 Y58.698 E.01913
G1 X188.658 Y160.443 E6.41675
G1 X188.621 Y161.013 E.02545
G1 X86.61 Y59.002 E6.43353
G1 X86.306 Y59.305 E.01913
G1 X188.584 Y161.582 E6.45031
G1 X188.535 Y162.14 E.02497
G1 X86.003 Y59.608 E6.46635
G1 X85.7 Y59.912 E.01913
G1 X188.434 Y162.646 E6.47913
G1 X188.333 Y163.152 E.02301
G1 X85.396 Y60.215 E6.49192
G1 X85.093 Y60.519 E.01913
G1 X188.233 Y163.658 E6.5047
G1 X188.084 Y164.117 E.02148
G1 X84.789 Y60.822 E6.51446
G1 X84.486 Y61.125 E.01913
G1 X187.93 Y164.57 E6.5239
G1 X187.777 Y165.023 E.02133
G1 X84.183 Y61.429 E6.53334
G1 X83.879 Y61.732 E.01913
G1 X187.606 Y165.459 E6.54171
G1 X187.406 Y165.865 E.02021
G1 X83.576 Y62.035 E6.54821
G1 X83.273 Y62.339 E.01913
G1 X187.205 Y166.271 E6.5547
G1 X187.005 Y166.678 E.02021
G1 X82.969 Y62.642 E6.5612
G1 X82.666 Y62.946 E.01913
G1 X186.778 Y167.058 E6.56602
G1 X186.535 Y167.422 E.01951
G1 X82.362 Y63.249 E6.56983
G1 X82.059 Y63.552 E.01913
G1 X186.292 Y167.785 E6.57364
G1 X186.049 Y168.149 E.01951
G1 X81.756 Y63.856 E6.57744
G1 X81.452 Y64.159 E.01913
G1 X185.776 Y168.482 E6.57934
G1 X185.492 Y168.806 E.01917
G1 X81.149 Y64.463 E6.58059
G1 X80.845 Y64.766 E.01913
G1 X185.209 Y169.129 E6.58185
G1 X184.925 Y169.452 E.01917
G1 X80.542 Y65.069 E6.5831
G1 X80.239 Y65.373 E.01913
G1 X184.627 Y169.761 E6.58346
G1 X184.324 Y170.065 E.01913
G1 X79.935 Y65.676 E6.58346
G1 X79.632 Y65.979 E.01913
G1 X184.021 Y170.368 E6.58346
G1 X183.717 Y170.671 E.01913
G1 X79.329 Y66.283 E6.58346
G1 X79.025 Y66.586 E.01913
G1 X183.414 Y170.975 E6.58346
G1 X183.11 Y171.278 E.01913
G1 X78.722 Y66.89 E6.58346
G1 X78.418 Y67.193 E.01913
G1 X182.807 Y171.582 E6.58346
G1 X182.504 Y171.885 E.01913
G1 X78.115 Y67.496 E6.58346
G1 X77.812 Y67.8 E.01913
G1 X182.2 Y172.188 E6.58346
G1 X181.897 Y172.492 E.01913
G1 X77.508 Y68.103 E6.58346
G1 X77.205 Y68.407 E.01913
G1 X181.593 Y172.795 E6.58346
G1 X181.29 Y173.099 E.01913
G1 X76.901 Y68.71 E6.58346
G1 X76.598 Y69.013 E.01913
G1 X180.987 Y173.402 E6.58346
G1 X180.683 Y173.705 E.01913
G1 X76.295 Y69.317 E6.58346
G1 X75.991 Y69.62 E.01913
G1 X180.38 Y174.009 E6.58346
G1 X180.076 Y174.312 E.01913
G1 X75.688 Y69.924 E6.58346
G1 X75.384 Y70.227 E.01913
G1 X179.773 Y174.616 E6.58346
G1 X179.47 Y174.919 E.01913
G1 X75.081 Y70.53 E6.58346
G1 X74.778 Y70.834 E.01913
G1 X179.166 Y175.222 E6.58346
G1 X178.863 Y175.526 E.01913
G1 X74.474 Y71.137 E6.58346
G1 X74.171 Y71.44 E.01913
G1 X178.56 Y175.829 E6.58346
G1 X178.256 Y176.132 E.01913
G1 X73.868 Y71.744 E6.58346
G1 X73.564 Y72.047 E.01913
G1 X177.953 Y176.436 E6.58346
G1 X177.649 Y176.739 E.01913
G1 X73.261 Y72.351 E6.58346
G1 X72.957 Y72.654 E.01913
G1 X177.346 Y177.043 E6.58346
G1 X177.043 Y177.346 E.01913
G1 X72.654 Y72.957 E6.58346
G1 X72.351 Y73.261 E.01913
G1 X176.739 Y177.649 E6.58346
G1 X176.436 Y177.953 E.01913
G1 X72.047 Y73.564 E6.58346
G1 X71.744 Y73.868 E.01913
G1 X176.132 Y178.256 E6.58346
G1 X175.829 Y178.56 E.01913
G1 X71.44 Y74.171 E6.58346
G1 X71.137 Y74.474 E.01913
G1 X175.526 Y178.863 E6.58346
G1 X175.222 Y179.166 E.01913
G1 X70.834 Y74.778 E6.58346
G1 X70.53 Y75.081 E.01913
G1 X174.919 Y179.47 E6.58346
G1 X174.616 Y179.773 E.01913
G1 X70.227 Y75.384 E6.58346
G1 X69.924 Y75.688 E.01913
G1 X174.312 Y180.076 E6.58346
G1 X174.009 Y180.38 E.01913
G1 X69.62 Y75.991 E6.58346
G1 X69.317 Y76.295 E.01913
G1 X173.705 Y180.683 E6.58346
G1 X173.402 Y180.987 E.01913
G1 X69.013 Y76.598 E6.58346
G1 X68.71 Y76.901 E.01913
G1 X173.099 Y181.29 E6.58346
G1 X172.795 Y181.593 E.01913
G1 X68.407 Y77.205 E6.58346
G1 X68.103 Y77.508 E.01913
G1 X172.492 Y181.897 E6.58346
G1 X172.188 Y182.2 E.01913
G1 X67.8 Y77.812 E6.58346
G1 X67.496 Y78.115 E.01913
G1 X171.885 Y182.504 E6.58346
G1 X171.582 Y182.807 E.01913
G1 X67.193 Y78.418 E6.58346
G1 X66.89 Y78.722 E.01913
G1 X171.278 Y183.11 E6.58346
G1 X170.975 Y183.414 E.01913
G1 X66.586 Y79.025 E6.58346
G1 X66.283 Y79.329 E.01913
G1 X170.671 Y183.717 E6.58346
G1 X170.368 Y184.021 E.01913
G1 X65.979 Y79.632 E6.58346
G1 X65.676 Y79.935 E.01913
G1 X170.065 Y184.324 E6.58346
G1 X169.761 Y184.627 E.01913
G1 X65.373 Y80.239 E6.58346
G1 X65.155 Y80.456 E.0137
G1 X65.075 Y80.548 E.00545
G1 X169.452 Y184.925 E6.58275
G1 X169.129 Y185.209 E.01917
G1 X64.791 Y80.871 E6.58024
G1 X64.508 Y81.194 E.01917
G1 X168.806 Y185.492 E6.57773
G1 X168.482 Y185.776 E.01917
G1 X64.224 Y81.518 E6.57522
G1 X63.951 Y81.851 E.01923
G1 X168.149 Y186.049 E6.57142
G1 X167.785 Y186.292 E.01951
G1 X63.708 Y82.215 E6.56381
G1 X63.465 Y82.578 E.01951
G1 X167.422 Y186.535 E6.5562
G1 X167.058 Y186.778 E.01951
G1 X63.222 Y82.942 E6.54859
G1 X63.071 Y83.168 E.0121
G1 X62.995 Y83.322 E.00767
G1 X166.678 Y187.005 E6.53893
G1 X166.271 Y187.205 E.02021
G1 X62.795 Y83.729 E6.52594
G1 X62.594 Y84.135 E.02021
G1 X165.865 Y187.406 E6.51295
G1 X165.459 Y187.606 E.02021
G1 X62.394 Y84.541 E6.49996
G1 X62.322 Y84.688 E.00727
G1 X62.223 Y84.977 E.01365
G1 X165.023 Y187.777 E6.48321
G1 X164.57 Y187.93 E.02133
G1 X62.07 Y85.43 E6.46434
G1 X61.916 Y85.883 E.02133
G1 X164.117 Y188.084 E6.44547
G1 X163.658 Y188.233 E.02148
G1 X61.767 Y86.342 E6.42594
G1 X61.667 Y86.848 E.02301
G1 X163.152 Y188.333 E6.40037
G1 X162.646 Y188.434 E.02301
G1 X61.566 Y87.354 E6.3748
G1 X61.465 Y87.86 E.02301
G1 X162.14 Y188.535 E6.34923
G1 X161.582 Y188.584 E.02497
G1 X61.416 Y88.418 E6.31715
G1 X61.379 Y88.987 E.02545
G1 X161.013 Y188.621 E6.2836
G1 X160.443 Y188.658 E.02545
G1 X61.342 Y89.557 E6.25004
G1 X61.372 Y90.194 E.02844
G1 X159.806 Y188.628 E6.20796
G1 X159.157 Y188.586 E.02902
G1 X61.414 Y90.843 E6.16432
G1 X61.447 Y91.335 E.02201
G1 X61.483 Y91.518 E.00832
G1 X158.482 Y188.517 E6.11739
G1 X157.724 Y188.366 E.03444
G1 X61.634 Y92.276 E6.06012
G1 X61.792 Y93.041 E.03484
G1 X156.959 Y188.208 E6.00189
G1 X156.041 Y187.896 E.04326
G1 X62.104 Y93.959 E5.92429
G1 X62.322 Y94.602 E.03025
G1 X62.499 Y94.962 E.0179
G1 X155.038 Y187.501 E5.83612
G1 X153.821 Y186.89 E.06071
G1 X63.11 Y96.179 E5.72089
G1 X64.013 Y97.53 E.07248
G1 X65.141 Y98.817 E.07634
G1 X152.688 Y186.364 E5.52129
; stop printing object 20230124_external_speed_test_2.stl id:0 copy 0
M106 S84.15
;LAYER_CHANGE
;Z:0.45
;HEIGHT:0.2
;BEFORE_LAYER_CHANGE
G92 E0.0
;0.45


G1 E-2.24 F4200
;WIPE_START
G1 F14400
G1 X150.361 Y184.037 E-.912
;WIPE_END
G1 E-.048 F4200
G1 Z.45 F1500
;AFTER_LAYER_CHANGE
;0.45
M140 S60 ; set bed temperature
; printing object 20230124_external_speed_test_2.stl id:0 copy 0
G1 X152.159 Y186.392 F18000
G1 E3.2 F2400
;TYPE:Perimeter
;WIDTH:0.479999
G1 F9600
G1 X150.818 Y185.216 E.06481
G1 X64.784 Y99.182 E4.42194
G1 X63.608 Y97.841 E.06481
G1 X62.629 Y96.376 E.06401
G1 X61.851 Y94.797 E.064
G1 X61.285 Y93.13 E.06399
G1 X60.94 Y91.389 E.06447
G1 X60.826 Y89.645 E.06355
G1 X60.941 Y87.887 E.064
G1 X61.284 Y86.16 E.06401
G1 X61.851 Y84.492 E.06401
G1 X62.63 Y82.913 E.064
G1 X63.608 Y81.449 E.06401
G1 X64.784 Y80.108 E.06481
G1 X89.645 Y55.247 E1.27778
G1 X185.216 Y150.818 E4.91211
G1 X186.392 Y152.159 E.06481
G1 X187.37 Y153.624 E.06401
G1 X188.149 Y155.203 E.064
G1 X188.716 Y156.871 E.06401
G1 X189.059 Y158.598 E.06401
G1 X189.174 Y160.355 E.064
G1 X189.059 Y162.113 E.064
G1 X188.716 Y163.84 E.06401
G1 X188.149 Y165.508 E.06401
G1 X187.37 Y167.087 E.06401
G1 X186.392 Y168.551 E.06401
G1 X185.216 Y169.892 E.06481
G1 X169.892 Y185.216 E.78761
G1 X168.551 Y186.392 E.06481
G1 X167.087 Y187.37 E.06401
G1 X165.508 Y188.149 E.064
G1 X163.84 Y188.716 E.064
G1 X162.113 Y189.059 E.06401
G1 X160.355 Y189.174 E.064
G1 X158.598 Y189.059 E.064
G1 X156.871 Y188.716 E.06401
G1 X155.203 Y188.149 E.06401
G1 X153.624 Y187.37 E.064
G1 X152.209 Y186.425 E.06182
G1 X151.893 Y186.74 F18000
;TYPE:External perimeter
G1 F6000
G1 X150.519 Y185.535 E.06637
G1 X64.465 Y99.481 E4.42298
G1 X63.26 Y98.107 E.06637
G1 X62.25 Y96.595 E.06609
G1 X61.446 Y94.965 E.06609
G1 X60.861 Y93.243 E.06608
G1 X60.506 Y91.446 E.06655
G1 X60.388 Y89.645 E.06562
G1 X60.507 Y87.83 E.06609
G1 X60.861 Y86.047 E.06609
G1 X61.446 Y84.325 E.06609
G1 X62.25 Y82.694 E.06609
G1 X63.26 Y81.182 E.06609
G1 X64.465 Y79.809 E.06637
G1 X89.645 Y54.629 E1.29418
G1 X185.535 Y150.519 E4.92851
G1 X186.74 Y151.893 E.06637
G1 X187.75 Y153.405 E.06609
G1 X188.554 Y155.035 E.06609
G1 X189.139 Y156.757 E.06609
G1 X189.493 Y158.541 E.06609
G1 X189.612 Y160.355 E.06609
G1 X189.493 Y162.17 E.06609
G1 X189.139 Y163.953 E.06609
G1 X188.554 Y165.675 E.06609
G1 X187.75 Y167.306 E.06609
G1 X186.74 Y168.818 E.06609
G1 X185.535 Y170.191 E.06637
G1 X170.191 Y185.535 E.78865
G1 X168.818 Y186.74 E.06637
G1 X167.306 Y187.75 E.06609
G1 X165.675 Y188.554 E.06609
G1 X163.953 Y189.139 E.06609
G1 X162.17 Y189.493 E.06609
G1 X160.355 Y189.612 E.06609
G1 X158.541 Y189.493 E.06609
G1 X156.757 Y189.139 E.06609
G1 X155.035 Y188.554 E.06609
G1 X153.405 Y187.75 E.06609
G1 X151.942 Y186.773 E.06391
G1 X151.945 Y186.343 F18000
G1 E-2.24 F4200
;WIPE_START
G1 F14400
G1 X150.519 Y185.535 E-.52252
G1 X149.526 Y184.541 E-.38948
;WIPE_END
G1 E-.048 F4200
G1 X186.519 Y168.125 F18000
G1 E3.2 F2400
;TYPE:Top solid infill
;WIDTH:0.480758
G1 F4800
G1 X169.663 Y184.981 E.86787
G1 X168.351 Y186.131 E.06351
G1 X166.972 Y187.053 E.06041
G1 X187.053 Y166.972 E1.03393
G1 X187.673 Y165.733 E.05041
G1 X165.733 Y187.673 E1.12958
G1 X165.382 Y187.846 E.01426
G1 X164.714 Y188.073 E.02568
G1 X188.073 Y164.714 E1.20265
G1 X188.391 Y163.777 E.03604
G1 X163.777 Y188.391 E1.26729
G1 X163 Y188.548 E.02885
G1 X188.548 Y163 E1.3154
G1 X188.702 Y162.227 E.02869
G1 X162.227 Y188.702 E1.36311
G1 X162.07 Y188.733 E.00583
G1 X161.542 Y188.768 E.01926
G1 X188.768 Y161.542 E1.40177
G1 X188.811 Y160.879 E.02418
G1 X160.879 Y188.811 E1.43813
G1 X160.355 Y188.846 E.01912
G1 X160.234 Y188.838 E.00444
G1 X188.838 Y160.234 E1.47272
G1 X188.8 Y159.653 E.0212
G1 X159.653 Y188.8 E1.50068
G1 X159.072 Y188.762 E.0212
G1 X188.762 Y159.072 E1.52864
G1 X188.733 Y158.641 E.01571
G1 X188.707 Y158.507 E.00496
