; generated by PrusaSlicer 2.5.0+win64 on 2023-02-20 at 06:45:46 UTC


;
;

;
;
; 

; external perimeters extrusion width = 0.48mm
; perimeters extrusion width = 0.48mm
; infill extrusion width = 0.48mm
; solid infill extrusion width = 0.48mm
; top infill extrusion width = 0.48mm
; first layer extrusion width = 0.48mm

M107
;TYPE:Custom
;E7 Klipper start macro
M104 S0
M140 S0
PRINT_START EXTRUDER_TEMP=215 BED_TEMP=60
G21 ; set units to millimeters
G90 ; use absolute coordinates
M83 ; use relative distances for extrusion
M107
;LAYER_CHANGE
;Z:0.25
;HEIGHT:0.25
;BEFORE_LAYER_CHANGE
G92 E0.0
;0.25


G1 E-3.2 F4200
G1 Z.25 F1500
;AFTER_LAYER_CHANGE
;0.25
; printing object 20230118_E7_Wire_Support.stl id:0 copy 0
G1 X122.634 Y116.457 F18000
G1 E3.2 F2400
;TYPE:Perimeter
;WIDTH:0.479999
G1 F3000
G1 X120.516 Y117.323 E.1014
G1 X120.371 Y117.407 E.0074
G1 X119.279 Y118.245 E.06103
G1 X118.497 Y118.872 E.0444
G1 X117.15 Y120.628 E.09808
G1 X117.066 Y120.773 E.0074
G1 X116.176 Y122.979 E.10542
G1 X115.986 Y124.421 E.06447
G1 X115.887 Y125.34 E.04096
G1 X116.176 Y127.535 E.09808
G1 X116.219 Y127.696 E.0074
G1 X117.066 Y129.741 E.09808
G1 X117.15 Y129.886 E.0074
G1 X118.497 Y131.642 E.09808
G1 X118.615 Y131.76 E.0074
G1 X120.371 Y133.107 E.09808
G1 X120.516 Y133.191 E.0074
G1 X122.561 Y134.038 E.09808
G1 X122.722 Y134.081 E.0074
G1 X124.917 Y134.37 E.09808
G1 X125.083 Y134.37 E.0074
G1 X127.278 Y134.081 E.09808
G1 X127.439 Y134.038 E.0074
G1 X129.484 Y133.191 E.09808
G1 X129.629 Y133.107 E.0074
G1 X131.385 Y131.76 E.09808
G1 X131.503 Y131.642 E.0074
G1 X132.85 Y129.886 E.09808
G1 X132.934 Y129.741 E.0074
G1 X133.781 Y127.696 E.09808
G1 X133.824 Y127.535 E.0074
G1 X134.113 Y125.34 E.09808
G1 X134.113 Y125.173 E.0074
G1 X133.919 Y123.7 E.06585
G1 X133.781 Y122.818 E.03958
G1 X133.068 Y121.098 E.08251
G1 X132.85 Y120.628 E.02293
G1 X131.503 Y118.872 E.09808
G1 X131.385 Y118.754 E.0074
G1 X129.629 Y117.407 E.09808
G1 X129.484 Y117.323 E.0074
G1 X127.366 Y116.457 E.1014
G1 X127.366 Y102.866 E.60224
G1 X164.134 Y102.866 E1.6293
G1 X164.134 Y138.168 E1.56436
G1 X85.866 Y138.168 E3.46832
G1 X85.866 Y102.866 E1.56436
G1 X122.634 Y102.866 E1.6293
G1 X122.634 Y116.397 E.59958
G1 X123.06 Y116.819 F18000
;TYPE:External perimeter
G1 F3000
G1 X122.724 Y116.87 E.01507
G1 X120.631 Y117.745 E.10053
G1 X118.835 Y119.132 E.10053
G1 X117.488 Y120.888 E.09808
G1 X116.599 Y123.035 E.10297
G1 X116.31 Y125.285 E.10053
G1 X116.599 Y127.479 E.09808
G1 X117.488 Y129.626 E.10297
G1 X118.875 Y131.421 E.10053
G1 X120.631 Y132.769 E.09808
G1 X122.778 Y133.658 E.10297
G1 X125.028 Y133.947 E.10053
G1 X127.222 Y133.658 E.09808
G1 X129.369 Y132.769 E.10297
G1 X131.165 Y131.382 E.10053
G1 X132.54 Y129.578 E.10053
G1 X133.387 Y127.533 E.09808
G1 X133.69 Y125.229 E.10297
G1 X133.387 Y122.981 E.10053
G1 X132.512 Y120.888 E.10053
G1 X131.165 Y119.132 E.09808
G1 X129.321 Y117.717 E.10297
G1 X127.276 Y116.87 E.09808
G1 X126.94 Y116.819 E.01507
G1 X126.94 Y102.44 E.63717
G1 X164.56 Y102.44 E1.66709
G1 X164.56 Y138.595 E1.60215
G1 X85.44 Y138.595 E3.50611
G1 X85.44 Y102.44 E1.60215
G1 X123.06 Y102.44 E1.66709
G1 X123.06 Y116.759 E.63451
G1 X122.72 Y116.812 F18000
G1 E-2.24 F4200
;WIPE_START
G1 F14400
G1 X122.724 Y116.87 E-.09811
G1 X120.631 Y117.745 E-.62859
G1 X120.102 Y118.154 E-.1853
;WIPE_END
G1 E-.048 F4200
G1 X162.253 Y111.795 F18000
G1 E3.2 F2400
;TYPE:Perimeter
G1 F3000
G1 X162.088 Y112.238 E.02093
G1 X161.73 Y112.74 E.02735
G1 X161.254 Y113.133 E.02735
G1 X161.109 Y113.216 E.0074
G1 X160.531 Y113.432 E.02735
G1 X159.995 Y113.497 E.02394
G1 X159.469 Y113.432 E.02346
G1 X158.924 Y113.23 E.02574
G1 X158.398 Y112.866 E.02837
G1 X157.974 Y112.339 E.02998
G1 X157.739 Y111.821 E.0252
G1 X157.637 Y111.212 E.02735
G1 X157.696 Y110.598 E.02735
G1 X157.912 Y110.019 E.02735
G1 X158.27 Y109.517 E.02735
G1 X158.746 Y109.124 E.02735
G1 X159.308 Y108.868 E.02735
G1 X159.88 Y108.77 E.02574
G1 X160.518 Y108.823 E.02836
G1 X161.109 Y109.04 E.0279
G1 X161.612 Y109.399 E.02736
G1 X162.026 Y109.918 E.02944
G1 X162.261 Y110.436 E.0252
G1 X162.363 Y111.045 E.02735
G1 X162.304 Y111.659 E.02735
G1 X162.274 Y111.739 E.00376
G1 X161.867 Y111.657 F18000
;TYPE:External perimeter
G1 F3000
G1 X161.666 Y112.123 E.02245
G1 X161.352 Y112.52 E.02245
G1 X160.946 Y112.823 E.02245
G1 X160.475 Y113.01 E.02245
G1 X159.972 Y113.069 E.02245
G1 X159.471 Y112.995 E.02245
G1 X159.043 Y112.811 E.02066
G1 X158.639 Y112.513 E.02225
G1 X158.317 Y112.086 E.02369
G1 X158.121 Y111.619 E.02244
G1 X158.058 Y111.121 E.02225
G1 X158.133 Y110.599 E.02334
G1 X158.334 Y110.134 E.02245
G1 X158.648 Y109.737 E.02245
G1 X159.054 Y109.434 E.02245
G1 X159.525 Y109.247 E.02245
G1 X159.988 Y109.193 E.02065
G1 X160.487 Y109.249 E.02226
G1 X160.994 Y109.462 E.02439
G1 X161.394 Y109.78 E.02264
G1 X161.708 Y110.216 E.02382
G1 X161.881 Y110.653 E.02083
G1 X161.94 Y111.156 E.02245
G1 X161.876 Y111.598 E.01979
G1 X162.146 Y111.944 F18000
G1 E-2.24 F4200
;WIPE_START
G1 F14400
G1 X161.666 Y112.123 E-.15647
G1 X161.352 Y112.52 E-.14035
G1 X160.946 Y112.823 E-.14035
G1 X160.475 Y113.01 E-.14035
G1 X159.972 Y113.069 E-.14035
G1 X159.471 Y112.995 E-.14035
G1 X159.293 Y112.919 E-.05378
;WIPE_END
G1 E-.048 F4200
G1 X161.709 Y127.777 F18000
G1 E3.2 F2400
;TYPE:Perimeter
G1 F3000
G1 X162.026 Y128.175 E.02256
G1 X162.261 Y128.693 E.0252
G1 X162.368 Y129.385 E.03104
G1 X162.304 Y129.916 E.0237
G1 X162.088 Y130.495 E.02735
G1 X161.73 Y130.997 E.02735
G1 X161.254 Y131.39 E.02735
G1 X160.692 Y131.646 E.02735
G1 X160.083 Y131.748 E.02735
G1 X159.469 Y131.689 E.02735
G1 X158.924 Y131.487 E.02574
G1 X158.398 Y131.123 E.02836
G1 X157.995 Y130.639 E.0279
G1 X157.739 Y130.078 E.02735
G1 X157.637 Y129.469 E.02735
G1 X157.696 Y128.854 E.02735
G1 X157.9 Y128.305 E.02597
G1 X158.27 Y127.774 E.02869
G1 X158.746 Y127.381 E.02735
G1 X159.308 Y127.125 E.02735
G1 X159.88 Y127.027 E.02574
G1 X160.518 Y127.08 E.02836
G1 X161.109 Y127.297 E.0279
G1 X161.612 Y127.656 E.02736
G1 X161.671 Y127.73 E.00421
G1 X161.394 Y128.037 F18000
;TYPE:External perimeter
G1 F3000
G1 X161.708 Y128.473 E.02382
G1 X161.881 Y128.91 E.02083
G1 X161.942 Y129.385 E.02123
G1 X161.867 Y129.914 E.02368
G1 X161.666 Y130.38 E.02245
G1 X161.352 Y130.777 E.02245
G1 X160.946 Y131.08 E.02245
G1 X160.475 Y131.267 E.02245
G1 X159.972 Y131.326 E.02245
G1 X159.471 Y131.252 E.02245
G1 X159.043 Y131.068 E.02066
G1 X158.628 Y130.76 E.02291
G1 X158.318 Y130.355 E.02258
G1 X158.124 Y129.887 E.02248
G1 X158.058 Y129.375 E.02288
G1 X158.127 Y128.874 E.0224
G1 X158.322 Y128.409 E.02234
G1 X158.631 Y128.008 E.02242
G1 X159.03 Y127.703 E.02224
G1 X159.5 Y127.509 E.02256
G1 X159.988 Y127.45 E.02176
G1 X160.529 Y127.518 E.02417
G1 X160.994 Y127.719 E.02246
G1 X161.347 Y127.999 E.01998
G1 X161.783 Y127.943 F18000
G1 E-2.24 F4200
;WIPE_START
G1 F14400
G1 X161.708 Y128.473 E-.16498
G1 X161.881 Y128.91 E-.13027
G1 X161.942 Y129.385 E-.13276
G1 X161.867 Y129.914 E-.14805
G1 X161.666 Y130.38 E-.14035
G1 X161.352 Y130.777 E-.14035
G1 X161.192 Y130.896 E-.05523
;WIPE_END
G1 E-.048 F4200
G1 X88.343 Y131.055 F18000
G1 E3.2 F2400
;TYPE:Perimeter
G1 F3000
G1 X88.27 Y130.997 E.00412
G1 X87.912 Y130.495 E.02736
G1 X87.7 Y129.943 E.02617
G1 X87.632 Y129.385 E.02491
G1 X87.696 Y128.854 E.0237
G1 X87.912 Y128.276 E.02735
G1 X88.27 Y127.774 E.02735
G1 X88.746 Y127.381 E.02735
G1 X89.308 Y127.125 E.02735
G1 X89.88 Y127.027 E.02574
G1 X90.518 Y127.08 E.02836
G1 X91.109 Y127.297 E.0279
G1 X91.612 Y127.656 E.02735
G1 X92.005 Y128.132 E.02735
G1 X92.261 Y128.693 E.02735
G1 X92.287 Y128.772 E.00369
G1 X92.363 Y129.302 E.02372
G1 X92.304 Y129.916 E.02735
G1 X92.088 Y130.495 E.02735
G1 X91.73 Y130.997 E.02735
G1 X91.254 Y131.39 E.02735
G1 X90.692 Y131.646 E.02735
G1 X90.083 Y131.748 E.02735
G1 X89.539 Y131.699 E.02422
G1 X89.308 Y131.646 E.01051
G1 X88.79 Y131.411 E.0252
G1 X88.39 Y131.093 E.02265
G1 X88.609 Y130.738 F18000
;TYPE:External perimeter
G1 F3000
G1 X88.306 Y130.331 E.02246
G1 X88.119 Y129.861 E.02245
G1 X88.06 Y129.358 E.02245
G1 X88.133 Y128.856 E.02245
G1 X88.334 Y128.391 E.02245
G1 X88.648 Y127.994 E.02245
G1 X89.054 Y127.691 E.02245
G1 X89.525 Y127.504 E.02245
G1 X89.988 Y127.45 E.02066
G1 X90.509 Y127.511 E.02325
G1 X90.973 Y127.705 E.02228
G1 X91.376 Y128.015 E.02253
G1 X91.684 Y128.418 E.0225
G1 X91.876 Y128.883 E.02226
G1 X91.942 Y129.393 E.02281
G1 X91.867 Y129.914 E.02334
G1 X91.666 Y130.38 E.02245
G1 X91.352 Y130.777 E.02245
G1 X90.946 Y131.08 E.02245
G1 X90.475 Y131.267 E.02245
G1 X89.972 Y131.326 E.02245
G1 X89.471 Y131.252 E.02245
G1 X89.043 Y131.068 E.02066
G1 X88.656 Y130.774 E.02151
G1 X88.221 Y130.836 F18000
G1 E-2.24 F4200
;WIPE_START
G1 F14400
G1 X88.306 Y130.331 E-.15647
G1 X88.119 Y129.861 E-.14035
G1 X88.06 Y129.358 E-.14035
G1 X88.133 Y128.856 E-.14035
G1 X88.334 Y128.391 E-.14035
G1 X88.648 Y127.994 E-.14035
G1 X88.803 Y127.878 E-.05378
;WIPE_END
G1 E-.048 F4200
G1 X92.311 Y112.459 F18000
G1 E3.2 F2400
;TYPE:Perimeter
G1 F3000
G1 X92.304 Y112.531 E.00321
G1 X92.189 Y112.864 E.01562
G1 X92.005 Y113.254 E.0191
G1 X91.682 Y113.667 E.02321
G1 X91.254 Y114.005 E.02419
G1 X90.692 Y114.261 E.02735
G1 X90.083 Y114.363 E.02735
G1 X89.469 Y114.304 E.02735
G1 X88.924 Y114.102 E.02574
G1 X88.398 Y113.738 E.02836
G1 X87.995 Y113.254 E.0279
G1 X87.739 Y112.692 E.02735
G1 X87.637 Y112.083 E.02735
G1 X87.696 Y111.469 E.02735
G1 X87.912 Y110.891 E.02735
G1 X88.27 Y110.388 E.02735
G1 X88.746 Y109.995 E.02735
G1 X89.308 Y109.739 E.02735
G1 X89.88 Y109.642 E.02574
G1 X90.518 Y109.694 E.02836
G1 X91.109 Y109.912 E.0279
G1 X91.612 Y110.27 E.02735
G1 X92.005 Y110.746 E.02735
G1 X92.261 Y111.308 E.02735
G1 X92.363 Y111.917 E.02735
G1 X92.317 Y112.399 E.02148
G1 X91.796 Y112.701 F18000
;TYPE:External perimeter
G1 F3000
G1 X91.666 Y112.994 E.01419
G1 X91.352 Y113.392 E.02245
G1 X90.946 Y113.694 E.02245
G1 X90.475 Y113.881 E.02245
G1 X89.972 Y113.94 E.02245
G1 X89.471 Y113.867 E.02245
G1 X89.043 Y113.683 E.02066
G1 X88.609 Y113.352 E.02417
G1 X88.306 Y112.946 E.02246
G1 X88.119 Y112.475 E.02245
G1 X88.06 Y111.972 E.02245
G1 X88.133 Y111.471 E.02245
G1 X88.334 Y111.006 E.02245
G1 X88.648 Y110.608 E.02245
G1 X89.054 Y110.306 E.02245
G1 X89.525 Y110.119 E.02245
G1 X89.988 Y110.064 E.02066
G1 X90.529 Y110.133 E.02417
G1 X90.994 Y110.334 E.02246
G1 X91.392 Y110.648 E.02245
G1 X91.694 Y111.054 E.02245
G1 X91.881 Y111.525 E.02245
G1 X91.94 Y112.028 E.02245
G1 X91.867 Y112.529 E.02245
G1 X91.819 Y112.646 E.00559
G1 X92.002 Y112.946 F18000
G1 E-2.24 F4200
;WIPE_START
G1 F14400
G1 X91.666 Y112.994 E-.10537
G1 X91.352 Y113.392 E-.14035
G1 X90.946 Y113.694 E-.14035
G1 X90.475 Y113.881 E-.14035
G1 X89.972 Y113.94 E-.14035
G1 X89.471 Y113.867 E-.14035
G1 X89.123 Y113.717 E-.10487
;WIPE_END
G1 E-.048 F4200
G1 X164.006 Y103.859 F18000
G1 E3.2 F2400
;TYPE:Solid infill
;WIDTH:0.481479
G1 F3000
G1 X163.333 Y103.186 E.04233
G1 X162.728 Y103.186 E.0269
G1 X163.814 Y104.272 E.06832
G1 X163.814 Y104.877 E.0269
G1 X162.123 Y103.186 E.10636
G1 X161.517 Y103.186 E.0269
G1 X163.814 Y105.483 E.14441
G1 X163.814 Y106.088 E.0269
G1 X160.912 Y103.186 E.18246
G1 X160.307 Y103.186 E.0269
G1 X163.814 Y106.693 E.22051
G1 X163.814 Y107.298 E.0269
G1 X159.702 Y103.186 E.25856
G1 X159.097 Y103.186 E.0269
G1 X163.814 Y107.903 E.29661
G1 X163.814 Y108.508 E.0269
G1 X158.492 Y103.186 E.33466
G1 X157.887 Y103.186 E.0269
G1 X163.814 Y109.113 E.37271
G1 X163.814 Y109.718 E.0269
G1 X157.282 Y103.186 E.41076
G1 X156.677 Y103.186 E.0269
G1 X163.814 Y110.323 E.44881
G1 X163.814 Y110.928 E.0269
G1 X156.072 Y103.186 E.48686
G1 X155.467 Y103.186 E.0269
G1 X160.881 Y108.6 E.34045
G1 X161.238 Y108.748 E.01719
G1 X161.443 Y108.866 E.01052
G1 X161.813 Y109.15 E.02072
G1 X161.99 Y109.331 E.0113
G1 X162.287 Y109.734 E.02225
G1 X162.395 Y109.925 E.00974
G1 X162.529 Y110.248 E.01555
G1 X163.814 Y111.533 E.08082
G1 X163.814 Y112.138 E.0269
G1 X162.673 Y110.997 E.07173
G1 X162.689 Y111.129 E.00588
G1 X162.636 Y111.565 E.01956
G1 X163.814 Y112.743 E.07407
G1 X163.814 Y113.348 E.0269
G1 X162.513 Y112.047 E.08181
G1 X162.325 Y112.464 E.02033
G1 X163.814 Y113.953 E.09366
G1 X163.814 Y114.558 E.0269
G1 X162.073 Y112.818 E.10945
G1 X161.979 Y112.94 E.00688
G1 X161.782 Y113.131 E.0122
G1 X163.814 Y115.163 E.1278
G1 X163.814 Y115.768 E.0269
G1 X161.439 Y113.393 E.14936
G1 X161.238 Y113.509 E.01032
G1 X161.034 Y113.594 E.0098
G1 X163.814 Y116.373 E.1748
G1 X163.814 Y116.978 E.0269
G1 X160.583 Y113.748 E.20317
G1 X160.042 Y113.811 E.02423
G1 X164.006 Y117.775 E.24927
G1 E-2.24 F4200
;WIPE_START
G1 F14400
G1 X161.678 Y115.448 E-.912
;WIPE_END
G1 E-.048 F4200
G1 X160.352 Y108.676 F18000
G1 E3.2 F2400
G1 F3000
G1 X154.862 Y103.186 E.34522
G1 X154.257 Y103.186 E.0269
G1 X159.561 Y108.49 E.33357
G1 X159.383 Y108.514 E.00799
G1 X159.081 Y108.615 E.01416
G1 X153.652 Y103.186 E.34144
G1 X153.047 Y103.186 E.0269
G1 X158.665 Y108.804 E.35329
G1 X158.311 Y109.055 E.0193
G1 X152.442 Y103.186 E.36908
G1 X151.837 Y103.186 E.0269
G1 X157.998 Y109.347 E.38745
G1 X157.739 Y109.694 E.01923
G1 X151.232 Y103.186 E.40924
G1 X150.627 Y103.186 E.0269
G1 X157.537 Y110.096 E.43457
G1 X157.441 Y110.32 E.01081
G1 X157.381 Y110.545 E.01038
G1 X150.022 Y103.186 E.4628
G1 X149.417 Y103.186 E.0269
G1 X157.523 Y111.292 E.50975
G1 E-2.24 F4200
;WIPE_START
G1 F14400
G1 X155.195 Y108.965 E-.912
;WIPE_END
G1 E-.048 F4200
G1 X164.006 Y118.38 F18000
G1 E3.2 F2400
G1 F3000
G1 X159.357 Y113.732 E.29234
G1 X159.191 Y113.687 E.00764
G1 X158.689 Y113.471 E.02431
G1 X158.116 Y113.047 E.03168
G1 X157.709 Y112.518 E.02968
G1 X157.605 Y112.332 E.00951
G1 X157.404 Y111.83 E.02402
G1 X157.396 Y111.77 E.00267
G1 X148.812 Y103.186 E.53984
G1 X148.207 Y103.186 E.0269
G1 X163.814 Y118.793 E.98149
G1 X163.814 Y119.398 E.0269
G1 X147.602 Y103.186 E1.01954
G1 X146.996 Y103.186 E.0269
G1 X163.814 Y120.004 E1.05759
G1 X163.814 Y120.609 E.0269
G1 X146.391 Y103.186 E1.09564
G1 X145.786 Y103.186 E.0269
G1 X163.814 Y121.214 E1.13369
G1 X163.814 Y121.819 E.0269
G1 X145.181 Y103.186 E1.17174
G1 X144.576 Y103.186 E.0269
G1 X163.814 Y122.424 E1.20979
G1 X163.814 Y123.029 E.0269
G1 X143.971 Y103.186 E1.24784
G1 X143.366 Y103.186 E.0269
G1 X163.814 Y123.634 E1.28589
G1 X163.814 Y124.239 E.0269
G1 X142.761 Y103.186 E1.32394
G1 X142.156 Y103.186 E.0269
G1 X163.814 Y124.844 E1.36199
G1 X163.814 Y125.449 E.0269
G1 X141.551 Y103.186 E1.40003
G1 X140.946 Y103.186 E.0269
G1 X163.814 Y126.054 E1.43808
G1 X163.814 Y126.659 E.0269
G1 X140.341 Y103.186 E1.47613
G1 X139.736 Y103.186 E.0269
G1 X163.814 Y127.264 E1.51418
G1 X163.814 Y127.869 E.0269
G1 X139.131 Y103.186 E1.55223
G1 X138.526 Y103.186 E.0269
G1 X163.814 Y128.474 E1.59028
G1 X163.814 Y129.079 E.0269
G1 X137.921 Y103.186 E1.62833
G1 X137.316 Y103.186 E.0269
G1 X161.061 Y126.931 E1.49327
G1 X161.238 Y127.005 E.00851
G1 X161.443 Y127.123 E.01052
G1 X161.813 Y127.407 E.02072
G1 X161.99 Y127.588 E.0113
G1 X162.287 Y127.991 E.02225
G1 X162.454 Y128.324 E.01658
G1 X163.814 Y129.684 E.08552
G1 X163.814 Y130.289 E.0269
G1 X162.659 Y129.134 E.07262
G1 X162.689 Y129.386 E.01125
G1 X162.648 Y129.728 E.01533
G1 X163.814 Y130.894 E.07335
G1 X163.814 Y131.499 E.0269
G1 X162.544 Y130.229 E.07986
G1 X162.363 Y130.654 E.02051
G1 X163.814 Y132.104 E.09123
G1 X163.814 Y132.709 E.0269
G1 X162.119 Y131.015 E.10657
G1 X161.979 Y131.197 E.01023
G1 X161.838 Y131.339 E.00888
G1 X163.814 Y133.314 E.12426
G1 X163.814 Y133.919 E.0269
G1 X161.499 Y131.605 E.14557
G1 X161.238 Y131.766 E.01365
G1 X161.109 Y131.82 E.00621
G1 X163.814 Y134.525 E.1701
G1 X163.814 Y135.13 E.0269
G1 X160.667 Y131.982 E.19793
G1 X160.137 Y132.058 E.02377
G1 X163.814 Y135.735 E.23121
G1 X163.814 Y136.34 E.0269
G1 X159.224 Y131.75 E.28863
G1 E-2.24 F4200
;WIPE_START
G1 F14400
G1 X161.552 Y134.077 E-.912
;WIPE_END
G1 E-.048 F4200
G1 X160.471 Y126.946 F18000
G1 E3.2 F2400
G1 F3000
G1 X136.711 Y103.186 E1.49417
G1 X136.106 Y103.186 E.0269
G1 X159.656 Y126.736 E1.48101
G1 X159.316 Y126.785 E.01528
G1 X159.161 Y126.846 E.0074
G1 X135.501 Y103.186 E1.48792
G1 X134.896 Y103.186 E.0269
G1 X158.731 Y127.022 E1.49896
G1 X158.573 Y127.111 E.00807
