; generated by PrusaSlicer 2.5.0+win64 on 2023-02-20 at 06:58:02 UTC


;
;

;
;
; 

; external perimeters extrusion width = 0.48mm
; perimeters extrusion width = 0.48mm
; infill extrusion width = 0.48mm
; solid infill extrusion width = 0.48mm
; top infill extrusion width = 0.48mm
; first layer extrusion width = 0.48mm

M107
;TYPE:Custom
;E7 Klipper start macro
M104 S0
M140 S0
PRINT_START EXTRUDER_TEMP=215 BED_TEMP=60
G21 ; set units to millimeters
G90 ; use absolute coordinates
M83 ; use relative distances for extrusion
M107
;LAYER_CHANGE
;Z:0.25
;HEIGHT:0.25
;BEFORE_LAYER_CHANGE
G92 E0.0
;0.25


G1 E-3.2 F4200
G1 Z.25 F1500
;AFTER_LAYER_CHANGE
;0.25
; printing object square_tower.stl id:0 copy 0
G1 X154.686 Y148.789 F18000
G1 E3.2 F2400
;TYPE:External perimeter
;WIDTH:0.479999
G1 F3000
G1 X155.279 Y149.053 E.02873
G1 X156.05 Y149.613 E.04222
G1 X156.687 Y150.321 E.04222
G1 X157.164 Y151.146 E.04222
G1 X157.458 Y152.052 E.04222
G1 X157.558 Y153 E.04222
G1 X157.458 Y153.948 E.04222
G1 X157.164 Y154.854 E.04222
G1 X156.687 Y155.679 E.04222
G1 X156.05 Y156.387 E.04222
G1 X155.279 Y156.947 E.04222
G1 X154.408 Y157.335 E.04222
G1 X153.476 Y157.533 E.04222
G1 X152.524 Y157.533 E.04222
G1 X151.592 Y157.335 E.04222
G1 X150.721 Y156.947 E.04222
G1 X149.95 Y156.387 E.04222
G1 X149.313 Y155.679 E.04222
G1 X148.722 Y154.609 E.05415
G1 X148.586 Y154.56 E.00641
G1 X101.414 Y154.56 E2.09037
G1 X101.278 Y154.609 E.00641
G1 X101.164 Y154.854 E.01196
G1 X100.687 Y155.679 E.04222
G1 X100.05 Y156.387 E.04222
G1 X99.279 Y156.947 E.04222
G1 X98.408 Y157.335 E.04222
G1 X97.476 Y157.533 E.04222
G1 X96.524 Y157.533 E.04222
G1 X95.592 Y157.335 E.04222
G1 X94.721 Y156.947 E.04222
G1 X93.95 Y156.387 E.04222
G1 X93.313 Y155.679 E.04222
G1 X92.836 Y154.854 E.04222
G1 X92.542 Y153.948 E.04222
G1 X92.442 Y153 E.04222
G1 X92.542 Y152.052 E.04222
G1 X92.836 Y151.146 E.04222
G1 X93.313 Y150.321 E.04222
G1 X93.95 Y149.613 E.04222
G1 X94.721 Y149.053 E.04222
G1 X95.391 Y148.73 E.03296
G1 X95.44 Y148.595 E.00638
G1 X95.44 Y101.405 E2.09113
G1 X95.427 Y101.331 E.00334
G1 X95.314 Y101.211 E.00733
G1 X94.721 Y100.947 E.02873
G1 X93.95 Y100.387 E.04222
G1 X93.313 Y99.679 E.04222
G1 X92.836 Y98.854 E.04222
G1 X92.542 Y97.948 E.04222
G1 X92.442 Y97 E.04222
G1 X92.542 Y96.052 E.04222
G1 X92.836 Y95.146 E.04222
G1 X93.313 Y94.321 E.04222
G1 X93.95 Y93.613 E.04222
G1 X94.721 Y93.053 E.04222
G1 X95.592 Y92.665 E.04222
G1 X96.524 Y92.467 E.04222
G1 X97.476 Y92.467 E.04222
G1 X98.408 Y92.665 E.04222
G1 X99.279 Y93.053 E.04222
G1 X100.05 Y93.613 E.04222
G1 X100.687 Y94.321 E.04222
G1 X101.278 Y95.391 E.05415
G1 X101.414 Y95.44 E.00641
G1 X148.586 Y95.44 E2.09037
G1 X148.722 Y95.391 E.00641
G1 X148.836 Y95.147 E.01195
G1 X149.313 Y94.321 E.04224
G1 X149.95 Y93.613 E.04222
G1 X150.721 Y93.053 E.04222
G1 X151.592 Y92.665 E.04222
G1 X152.524 Y92.467 E.04222
G1 X153.476 Y92.467 E.04222
G1 X154.408 Y92.665 E.04222
G1 X155.279 Y93.053 E.04222
G1 X156.05 Y93.613 E.04222
G1 X156.687 Y94.321 E.04222
G1 X157.164 Y95.146 E.04222
G1 X157.458 Y96.052 E.04222
G1 X157.558 Y97 E.04222
G1 X157.458 Y97.948 E.04222
G1 X157.164 Y98.854 E.04222
G1 X156.687 Y99.679 E.04222
G1 X156.05 Y100.387 E.04222
G1 X155.279 Y100.947 E.04222
G1 X154.609 Y101.27 E.03296
G1 X154.56 Y101.405 E.00638
G1 X154.56 Y148.595 E2.09113
G1 X154.573 Y148.669 E.00334
G1 X154.645 Y148.746 E.00467
G1 E-2.24 F4200
;WIPE_START
G1 F14400
G1 X155.279 Y149.053 E-.19508
G1 X156.05 Y149.613 E-.26401
G1 X156.687 Y150.321 E-.264
G1 X157.028 Y150.912 E-.18891
;WIPE_END
G1 E-.048 F4200
G1 X150.44 Y150.227 F18000
G1 E3.2 F2400
G1 F3000
G1 X150.367 Y150.387 E.00781
G1 X150.227 Y150.44 E.00664
G1 X126.44 Y150.44 E1.05409
G1 X126.44 Y150.727 E.01271
G1 X126.36 Y150.893 E.00817
G1 X126.227 Y150.94 E.00627
G1 X123.773 Y150.94 E.10873
G1 X123.64 Y150.893 E.00627
G1 X123.56 Y150.727 E.00817
G1 X123.56 Y150.44 E.01271
G1 X99.773 Y150.44 E1.05409
G1 X99.611 Y150.365 E.00791
G1 X99.568 Y150.283 E.00412
G1 X99.56 Y149.411 E.03866
G1 X99.56 Y122.44 E1.19518
G1 X99.273 Y122.44 E.01271
G1 X99.107 Y122.36 E.00817
G1 X99.06 Y122.227 E.00627
G1 X99.06 Y119.773 E.10873
G1 X99.107 Y119.64 E.00627
G1 X99.273 Y119.56 E.00817
G1 X99.56 Y119.56 E.01271
G1 X99.56 Y99.773 E.87683
G1 X99.633 Y99.613 E.00781
G1 X99.773 Y99.56 E.00664
G1 X123.56 Y99.56 E1.05409
G1 X123.56 Y99.273 E.01271
G1 X123.64 Y99.107 E.00817
G1 X123.773 Y99.06 E.00627
G1 X126.227 Y99.06 E.10873
G1 X126.36 Y99.107 E.00627
G1 X126.44 Y99.273 E.00817
G1 X126.44 Y99.56 E.01271
G1 X150.227 Y99.56 E1.05409
G1 X150.389 Y99.635 E.00791
G1 X150.44 Y99.773 E.00654
G1 X150.44 Y123.56 E1.05409
G1 X150.727 Y123.56 E.01271
G1 X150.893 Y123.64 E.00817
G1 X150.94 Y123.773 E.00627
G1 X150.94 Y126.227 E.10873
G1 X150.893 Y126.36 E.00627
G1 X150.727 Y126.44 E.00817
G1 X150.44 Y126.44 E.01271
G1 X150.44 Y150.167 E1.05143
G1 E-2.24 F4200
;WIPE_START
G1 F14400
G1 X150.367 Y150.387 E-.06437
G1 X150.227 Y150.44 E-.0415
G1 X147.317 Y150.44 E-.80613
;WIPE_END
G1 E-.048 F4200
G1 X157.272 Y95.894 F18000
G1 E3.2 F2400
;TYPE:Solid infill
;WIDTH:0.481245
G1 F3000
G1 X154.382 Y93.004 E.18166
G1 X154.309 Y92.971 E.00354
G1 X153.592 Y92.819 E.03256
G1 X157.173 Y96.4 E.22505
G1 X157.23 Y97.061 E.0295
G1 X152.956 Y92.787 E.26862
G1 X152.557 Y92.787 E.01771
G1 X152.387 Y92.823 E.00772
G1 X157.172 Y97.608 E.30074
G1 X157.143 Y97.881 E.01218
G1 X157.069 Y98.11 E.0107
G1 X151.889 Y92.929 E.32561
G1 X151.691 Y92.971 E.00898
G1 X151.438 Y93.084 E.01229
G1 X156.921 Y98.566 E.34458
G1 X156.87 Y98.723 E.00733
G1 X156.725 Y98.975 E.01292
G1 X151.02 Y93.27 E.35855
G1 X150.882 Y93.331 E.00671
G1 X150.647 Y93.502 E.0129
G1 X156.503 Y99.358 E.36806
G1 X156.427 Y99.49 E.00677
G1 X156.239 Y99.699 E.01248
G1 X150.297 Y93.757 E.37348
G1 X150.165 Y93.852 E.00722
G1 X149.986 Y94.051 E.01189
G1 X155.953 Y100.017 E.37498
G1 X155.835 Y100.148 E.00784
G1 X155.629 Y100.298 E.01131
G1 X149.7 Y94.369 E.37263
G1 X149.573 Y94.51 E.00844
G1 X149.45 Y94.723 E.01095
G1 X155.278 Y100.552 E.36634
G1 X155.118 Y100.669 E.00883
G1 X154.893 Y100.772 E.01096
G1 X149.228 Y95.107 E.35605
G1 X149.128 Y95.28 E.00891
G1 X149.034 Y95.517 E.01132
G1 X154.479 Y100.962 E.34222
G1 X154.36 Y101.067 E.00706
G1 X154.272 Y101.22 E.00784
G1 X154.251 Y101.338 E.00534
G1 X148.66 Y95.748 E.35137
G1 X148.067 Y95.76 E.02636
G1 X154.24 Y101.933 E.38799
G1 X154.24 Y102.538 E.02688
G1 X147.462 Y95.76 E.426
G1 X146.858 Y95.76 E.02688
G1 X154.24 Y103.142 E.46401
G1 X154.24 Y103.747 E.02688
G1 X150.76 Y100.266 E.21876
G1 X150.76 Y100.871 E.02688
G1 X154.24 Y104.352 E.21876
G1 X154.24 Y104.956 E.02688
G1 X150.76 Y101.476 E.21876
G1 X150.76 Y102.081 E.02688
G1 X154.24 Y105.561 E.21876
G1 X154.24 Y106.166 E.02688
G1 X150.76 Y102.685 E.21876
G1 X150.76 Y103.29 E.02688
G1 X154.24 Y106.77 E.21876
G1 X154.24 Y107.375 E.02688
G1 X150.76 Y103.895 E.21876
G1 X150.76 Y104.499 E.02688
G1 X154.24 Y107.98 E.21876
G1 X154.24 Y108.585 E.02688
G1 X150.76 Y105.104 E.21876
G1 X150.76 Y105.709 E.02688
G1 X154.24 Y109.189 E.21876
G1 X154.24 Y109.794 E.02688
G1 X150.76 Y106.314 E.21876
G1 X150.76 Y106.918 E.02688
G1 X154.24 Y110.399 E.21876
G1 X154.24 Y111.003 E.02688
G1 X150.76 Y107.523 E.21876
G1 X150.76 Y108.128 E.02688
G1 X154.24 Y111.608 E.21876
G1 X154.24 Y112.213 E.02688
G1 X150.76 Y108.732 E.21876
G1 X150.76 Y109.337 E.02688
G1 X154.24 Y112.818 E.21876
G1 X154.24 Y113.422 E.02688
G1 X150.76 Y109.942 E.21876
G1 X150.76 Y110.547 E.02688
G1 X154.24 Y114.027 E.21876
G1 X154.24 Y114.632 E.02688
G1 X150.76 Y111.151 E.21876
G1 X150.76 Y111.756 E.02688
G1 X154.24 Y115.236 E.21876
G1 X154.24 Y115.841 E.02688
G1 X150.76 Y112.361 E.21876
G1 X150.76 Y112.965 E.02688
G1 X154.24 Y116.446 E.21876
G1 X154.24 Y117.051 E.02688
G1 X150.76 Y113.57 E.21876
G1 X150.76 Y114.175 E.02688
G1 X154.24 Y117.655 E.21876
G1 X154.24 Y118.26 E.02688
G1 X150.76 Y114.779 E.21876
G1 X150.76 Y115.384 E.02688
G1 X154.24 Y118.865 E.21876
G1 X154.24 Y119.469 E.02688
G1 X150.76 Y115.989 E.21876
G1 X150.76 Y116.594 E.02688
G1 X154.24 Y120.074 E.21876
G1 X154.24 Y120.679 E.02688
G1 X150.76 Y117.198 E.21876
G1 X150.76 Y117.803 E.02688
G1 X154.24 Y121.284 E.21876
G1 X154.24 Y121.888 E.02688
G1 X150.76 Y118.408 E.21876
G1 X150.76 Y119.012 E.02688
G1 X154.24 Y122.493 E.21876
G1 X154.24 Y123.098 E.02688
G1 X150.76 Y119.617 E.21876
G1 X150.76 Y120.222 E.02688
G1 X154.24 Y123.702 E.21876
G1 X154.24 Y124.307 E.02688
G1 X150.76 Y120.827 E.21876
G1 X150.76 Y121.431 E.02688
G1 X154.24 Y124.912 E.21876
G1 X154.24 Y125.517 E.02688
G1 X150.76 Y122.036 E.21876
G1 X150.76 Y122.641 E.02688
G1 X154.24 Y126.121 E.21876
G1 X154.24 Y126.726 E.02688
G1 X151.256 Y123.742 E.18758
G1 X151.26 Y124.35 E.02705
G1 X154.24 Y127.331 E.18733
G1 X154.24 Y127.935 E.02688
G1 X151.26 Y124.955 E.18733
G1 X151.26 Y125.56 E.02688
G1 X154.24 Y128.54 E.18733
G1 X154.24 Y129.145 E.02688
G1 X151.26 Y126.164 E.18733
G1 X151.229 Y126.409 E.01094
G1 X151.136 Y126.575 E.00849
G1 X151.089 Y126.598 E.00233
G1 X154.24 Y129.749 E.19809
G1 X154.24 Y130.354 E.02688
G1 X150.76 Y126.874 E.21876
G1 X150.76 Y127.478 E.02688
G1 X154.24 Y130.959 E.21876
G1 X154.24 Y131.564 E.02688
G1 X150.76 Y128.083 E.21876
G1 X150.76 Y128.688 E.02688
G1 X154.24 Y132.168 E.21876
G1 X154.24 Y132.773 E.02688
G1 X150.76 Y129.293 E.21876
G1 X150.76 Y129.897 E.02688
G1 X154.24 Y133.378 E.21876
G1 X154.24 Y133.982 E.02688
G1 X150.76 Y130.502 E.21876
G1 X150.76 Y131.107 E.02688
G1 X154.24 Y134.587 E.21876
G1 X154.24 Y135.192 E.02688
G1 X150.76 Y131.711 E.21876
G1 X150.76 Y132.316 E.02688
G1 X154.24 Y135.797 E.21876
G1 X154.24 Y136.401 E.02688
G1 X150.76 Y132.921 E.21876
G1 X150.76 Y133.526 E.02688
G1 X154.24 Y137.006 E.21876
G1 X154.24 Y137.611 E.02688
G1 X150.76 Y134.13 E.21876
G1 X150.76 Y134.735 E.02688
G1 X154.24 Y138.215 E.21876
G1 X154.24 Y138.82 E.02688
G1 X150.76 Y135.34 E.21876
G1 X150.76 Y135.944 E.02688
G1 X154.24 Y139.425 E.21876
G1 X154.24 Y140.03 E.02688
G1 X150.76 Y136.549 E.21876
G1 X150.76 Y137.154 E.02688
G1 X154.24 Y140.634 E.21876
G1 X154.24 Y141.239 E.02688
G1 X150.76 Y137.758 E.21876
G1 X150.76 Y138.363 E.02688
G1 X154.24 Y141.844 E.21876
G1 X154.24 Y142.448 E.02688
G1 X150.76 Y138.968 E.21876
G1 X150.76 Y139.573 E.02688
G1 X154.24 Y143.053 E.21876
G1 X154.24 Y143.658 E.02688
G1 X150.76 Y140.177 E.21876
G1 X150.76 Y140.782 E.02688
G1 X154.24 Y144.263 E.21876
G1 X154.24 Y144.867 E.02688
G1 X150.76 Y141.387 E.21876
G1 X150.76 Y141.991 E.02688
G1 X154.24 Y145.472 E.21876
G1 X154.24 Y146.077 E.02688
G1 X150.76 Y142.596 E.21876
G1 X150.76 Y143.201 E.02688
G1 X154.24 Y146.681 E.21876
G1 X154.24 Y147.286 E.02688
G1 X150.76 Y143.806 E.21876
G1 X150.76 Y144.41 E.02688
G1 X154.432 Y148.083 E.23082
G1 E-2.24 F4200
;WIPE_START
G1 F14400
G1 X152.105 Y145.755 E-.912
;WIPE_END
G1 E-.048 F4200
G1 X157.096 Y151.351 F18000
G1 E3.2 F2400
G1 F3000
G1 X155.041 Y149.296 E.12916
G1 X154.468 Y149.033 E.02802
G1 X154.36 Y148.933 E.00653
G1 X154.272 Y148.78 E.00784
G1 X154.24 Y148.496 E.01272
G1 X150.76 Y145.015 E.21876
G1 X150.76 Y145.62 E.02688
G1 X157.088 Y151.948 E.39773
G1 X157.143 Y152.119 E.00802
G1 X157.201 Y152.666 E.02442
G1 X150.76 Y146.224 E.40484
G1 X150.76 Y146.829 E.02688
G1 X157.207 Y153.276 E.40523
G1 X157.149 Y153.824 E.02445
G1 X150.76 Y147.434 E.40161
G1 X150.76 Y148.039 E.02688
G1 X157.011 Y154.289 E.39288
G1 X156.859 Y154.742 E.02122
G1 X150.76 Y148.643 E.38333
G1 X150.76 Y149.248 E.02688
G1 X156.637 Y155.126 E.36942
G1 X156.413 Y155.506 E.01962
G1 X150.76 Y149.853 E.35531
G1 X150.76 Y150.234 E.01694
G1 X150.72 Y150.418 E.00837
G1 X156.126 Y155.824 E.33977
G1 X155.84 Y156.142 E.01903
G1 X150.419 Y150.722 E.3407
G1 X150.235 Y150.76 E.00838
G1 X149.853 Y150.76 E.01697
G1 X155.491 Y156.398 E.35436
G1 X155.14 Y156.652 E.01924
G1 X149.248 Y150.76 E.37036
G1 X148.643 Y150.76 E.02688
G1 X154.726 Y156.843 E.38234
G1 X154.308 Y157.029 E.02036
G1 X148.039 Y150.76 E.39404
G1 X147.434 Y150.76 E.02688
G1 X153.809 Y157.135 E.4007
G1 X153.443 Y157.213 E.01664
G1 X153.282 Y157.213 E.00714
G1 X146.829 Y150.76 E.40559
G1 X146.224 Y150.76 E.02688
G1 X152.677 Y157.213 E.40559
G1 X152.557 Y157.213 E.00534
G1 X151.942 Y157.082 E.02795
G1 X145.62 Y150.76 E.39738
G1 X145.015 Y150.76 E.02688
G1 X148.495 Y154.24 E.21876
G1 X148.772 Y154.272 E.01238
G1 X148.926 Y154.361 E.00791
G1 X149.033 Y154.48 E.0071
G1 X149.128 Y154.72 E.01145
G1 X149.338 Y155.083 E.01863
G1 X151.336 Y157.081 E.12559
G1 E-2.24 F4200
;WIPE_START
G1 F14400
G1 X149.338 Y155.083 E-.78297
G1 X149.128 Y154.72 E-.11614
G1 X149.111 Y154.676 E-.01289
;WIPE_END
G1 E-.048 F4200
G1 X148.083 Y154.432 F18000
G1 E3.2 F2400
G1 F3000
G1 X144.41 Y150.76 E.23082
G1 X143.806 Y150.76 E.02688
G1 X147.286 Y154.24 E.21876
G1 X146.681 Y154.24 E.02688
G1 X143.201 Y150.76 E.21876
G1 X142.596 Y150.76 E.02688
G1 X146.077 Y154.24 E.21876
G1 X145.472 Y154.24 E.02688
G1 X141.991 Y150.76 E.21876
G1 X141.387 Y150.76 E.02688
G1 X144.867 Y154.24 E.21876
G1 X144.263 Y154.24 E.02688
G1 X140.782 Y150.76 E.21876
G1 X140.177 Y150.76 E.02688
G1 X143.658 Y154.24 E.21876
G1 X143.053 Y154.24 E.02688
G1 X139.573 Y150.76 E.21876
G1 X138.968 Y150.76 E.02688
G1 X142.448 Y154.24 E.21876
G1 X141.844 Y154.24 E.02688
G1 X138.363 Y150.76 E.21876
G1 X137.758 Y150.76 E.02688
G1 X141.239 Y154.24 E.21876
G1 X140.634 Y154.24 E.02688
G1 X137.154 Y150.76 E.21876
G1 X136.549 Y150.76 E.02688
G1 X140.03 Y154.24 E.21876
G1 X139.425 Y154.24 E.02688
G1 X135.944 Y150.76 E.21876
G1 X135.34 Y150.76 E.02688
G1 X138.82 Y154.24 E.21876
G1 X138.215 Y154.24 E.02688
G1 X134.735 Y150.76 E.21876
G1 X134.13 Y150.76 E.02688
G1 X137.611 Y154.24 E.21876
G1 X137.006 Y154.24 E.02688
G1 X133.525 Y150.76 E.21876
G1 X132.921 Y150.76 E.02688
G1 X136.401 Y154.24 E.21876
G1 X135.797 Y154.24 E.02688
G1 X132.316 Y150.76 E.21876
G1 X131.711 Y150.76 E.02688
G1 X135.192 Y154.24 E.21876
G1 X134.587 Y154.24 E.02688
G1 X131.107 Y150.76 E.21876
G1 X130.502 Y150.76 E.02688
G1 X133.982 Y154.24 E.21876
G1 X133.378 Y154.24 E.02688
G1 X129.897 Y150.76 E.21876
G1 X129.293 Y150.76 E.02688
G1 X132.773 Y154.24 E.21876
G1 X132.168 Y154.24 E.02688
G1 X128.688 Y150.76 E.21876
G1 X128.083 Y150.76 E.02688
G1 X131.564 Y154.24 E.21876
G1 X130.959 Y154.24 E.02688
G1 X127.478 Y150.76 E.21876
G1 X126.874 Y150.76 E.02688
G1 X130.354 Y154.24 E.21876
G1 X129.749 Y154.24 E.02688
G1 X126.598 Y151.089 E.19809
G1 X126.573 Y151.141 E.00256
G1 X126.324 Y151.253 E.01216
G1 X126.158 Y151.254 E.00735
G1 X129.145 Y154.24 E.18771
G1 X128.54 Y154.24 E.02688
G1 X125.555 Y151.255 E.18762
G1 X124.952 Y151.257 E.02681
G1 X127.935 Y154.24 E.18752
G1 X127.331 Y154.24 E.02688
G1 X124.349 Y151.258 E.18742
G1 X123.741 Y151.256 E.02699
G1 X126.726 Y154.24 E.18758
G1 X126.121 Y154.24 E.02688
G1 X122.641 Y150.76 E.21876
G1 X122.036 Y150.76 E.02688
G1 X125.516 Y154.24 E.21876
G1 X124.912 Y154.24 E.02688
G1 X121.431 Y150.76 E.21876
G1 X120.827 Y150.76 E.02688
G1 X124.307 Y154.24 E.21876
G1 X123.702 Y154.24 E.02688
G1 X120.222 Y150.76 E.21876
G1 X119.617 Y150.76 E.02688
G1 X123.098 Y154.24 E.21876
G1 X122.493 Y154.24 E.02688
G1 X119.012 Y150.76 E.21876
G1 X118.408 Y150.76 E.02688
G1 X121.888 Y154.24 E.21876
G1 X121.284 Y154.24 E.02688
G1 X117.803 Y150.76 E.21876
G1 X117.198 Y150.76 E.02688
G1 X120.679 Y154.24 E.21876
G1 X120.074 Y154.24 E.02688
G1 X116.594 Y150.76 E.21876
G1 X115.989 Y150.76 E.02688
G1 X119.469 Y154.24 E.21876
G1 X118.865 Y154.24 E.02688
G1 X115.384 Y150.76 E.21876
G1 X114.779 Y150.76 E.02688
G1 X118.26 Y154.24 E.21876
G1 X117.655 Y154.24 E.02688
G1 X114.175 Y150.76 E.21876
G1 X113.57 Y150.76 E.02688
G1 X117.051 Y154.24 E.21876
G1 X116.446 Y154.24 E.02688
G1 X112.965 Y150.76 E.21876
G1 X112.361 Y150.76 E.02688
G1 X115.841 Y154.24 E.21876
G1 X115.236 Y154.24 E.02688
G1 X111.756 Y150.76 E.21876
G1 X111.151 Y150.76 E.02688
G1 X114.632 Y154.24 E.21876
G1 X114.027 Y154.24 E.02688
G1 X110.546 Y150.76 E.21876
G1 X109.942 Y150.76 E.02688
G1 X113.422 Y154.24 E.21876
G1 X112.818 Y154.24 E.02688
G1 X109.337 Y150.76 E.21876
G1 X108.732 Y150.76 E.02688
G1 X112.213 Y154.24 E.21876
G1 X111.608 Y154.24 E.02688
G1 X108.128 Y150.76 E.21876
G1 X107.523 Y150.76 E.02688
